; G-Code generated by Simplify3D(R) Version 4.0.0
; Jan 12, 2018 at 3:17:13 AM
; Settings Summary
;   processName,Process1
;   applyToModels,12111
;   profileName,MP Mini Delta23 (modified)
;   profileVersion,2017-10-15 16:31:22
;   baseProfile,Monoprice MP Mini Delta
;   printMaterial,eSun PLA+ - Solid Red
;   printQuality,0.08
;   printExtruders,
;   extruderName,Primary Extruder
;   extruderToolheadNumber,0
;   extruderDiameter,0.4
;   extruderAutoWidth,0
;   extruderWidth,0.4
;   extrusionMultiplier,1
;   extruderUseRetract,1
;   extruderRetractionDistance,3
;   extruderExtraRestartDistance,0
;   extruderRetractionZLift,0
;   extruderRetractionSpeed,2700
;   extruderUseCoasting,0
;   extruderCoastingDistance,0.2
;   extruderUseWipe,0
;   extruderWipeDistance,5
;   primaryExtruder,0
;   layerHeight,0.3
;   topSolidLayers,8
;   bottomSolidLayers,3
;   perimeterOutlines,3
;   printPerimetersInsideOut,1
;   startPointOption,2
;   startPointOriginX,0
;   startPointOriginY,0
;   sequentialIslands,0
;   spiralVaseMode,0
;   firstLayerHeightPercentage,100
;   firstLayerWidthPercentage,100
;   firstLayerUnderspeed,0.4
;   useRaft,0
;   raftExtruder,0
;   raftTopLayers,3
;   raftBaseLayers,2
;   raftOffset,5
;   raftSeparationDistance,0.14
;   raftTopInfill,100
;   aboveRaftSpeedMultiplier,0.3
;   useSkirt,0
;   skirtExtruder,0
;   skirtLayers,1
;   skirtOutlines,5
;   skirtOffset,0
;   usePrimePillar,0
;   primePillarExtruder,999
;   primePillarWidth,6
;   primePillarLocation,0
;   primePillarSpeedMultiplier,1
;   useOozeShield,0
;   oozeShieldExtruder,999
;   oozeShieldOffset,2
;   oozeShieldOutlines,1
;   oozeShieldSidewallShape,1
;   oozeShieldSidewallAngle,30
;   oozeShieldSpeedMultiplier,1
;   infillExtruder,0
;   internalInfillPattern,Rectilinear
;   externalInfillPattern,Rectilinear
;   infillPercentage,30
;   outlineOverlapPercentage,45
;   infillExtrusionWidthPercentage,100
;   minInfillLength,5
;   infillLayerInterval,1
;   internalInfillAngles,45,-45
;   overlapInternalInfillAngles,0
;   externalInfillAngles,45,-45
;   generateSupport,1
;   supportExtruder,0
;   supportInfillPercentage,40
;   supportExtraInflation,0
;   supportBaseLayers,0
;   denseSupportExtruder,0
;   denseSupportLayers,0
;   denseSupportInfillPercentage,70
;   supportLayerInterval,1
;   supportHorizontalPartOffset,0.3
;   supportUpperSeparationLayers,0
;   supportLowerSeparationLayers,0
;   supportType,0
;   supportGridSpacing,1
;   maxOverhangAngle,45
;   supportAngles,0,45
;   temperatureName,Primary Extruder,Heated Bed
;   temperatureNumber,0,0
;   temperatureSetpointCount,5,1
;   temperatureSetpointLayers,1,3,6,9,12,1
;   temperatureSetpointTemperatures,208,205,202,198,195,30
;   temperatureStabilizeAtStartup,1,1
;   temperatureHeatedBed,0,1
;   temperatureRelayBetweenLayers,0,0
;   temperatureRelayBetweenLoops,0,0
;   fanLayers,1,2,3
;   fanSpeeds,0,25,50
;   blipFanToFullPower,1
;   adjustSpeedForCooling,1
;   minSpeedLayerTime,15
;   minCoolingSpeedSlowdown,20
;   increaseFanForCooling,0
;   minFanLayerTime,45
;   maxCoolingFanSpeed,100
;   increaseFanForBridging,0
;   bridgingFanSpeed,100
;   use5D,1
;   relativeEdistances,0
;   allowEaxisZeroing,1
;   independentExtruderAxes,0
;   includeM10123,0
;   stickySupport,1
;   applyToolheadOffsets,0
;   gcodeXoffset,0
;   gcodeYoffset,0
;   gcodeZoffset,0.2
;   overrideMachineDefinition,1
;   machineTypeOverride,1
;   strokeXoverride,77.8
;   strokeYoverride,77.8
;   strokeZoverride,120
;   originOffsetXoverride,38.9
;   originOffsetYoverride,38.9
;   originOffsetZoverride,0
;   homeXdirOverride,0
;   homeYdirOverride,0
;   homeZdirOverride,-1
;   flipXoverride,1
;   flipYoverride,-1
;   flipZoverride,1
;   toolheadOffsets,0,0|0,0|0,0|0,0|0,0|0,0
;   overrideFirmwareConfiguration,1
;   firmwareTypeOverride,RepRap (Marlin/Repetier/Sprinter)
;   GPXconfigOverride,r2
;   baudRateOverride,115200
;   overridePrinterModels,1
;   printerModelsOverride,MP_Mini_Delta_Platform.stl
;   startingGcode,G90 ; absolute positioning - this line was added in case Cura doesn't include it by default,M82 ; set extruder to absolute mode - this line was added in case Cura doesn't include it by default (may not be needed),M107; start with the fan off (I don't think this is possible),G28 ; Start from home position,G29 C-0.8 Z0.3 ; probe the bed at 3 points with a 0.3mm overall vertical offset and an additional -0.8mm center offset ,G1 Z15.0 F4800  ; move the nozzle up 15mm,G92 E0 ; reset extrusion distance,G1 F200 E3 ; extrude 3mm of feed stock,G92 E0 ; reset extrusion distance again,G1 F4800
;   layerChangeGcode,
;   retractionGcode,
;   toolChangeGcode,
;   endingGcode,M104 S0 ; nozzle heater off,M140 S0 ; heated bed heater off (if you have it),G91 ; relative positioning,G1 E-1 F300 ; retract the filament a bit before lifting the nozzle, to release some of the pressure,G1 Z+0.5 E-5 X-20 Y-20 F4800 ; move Z up a bit and retract filament even more,G28 X0 Y0 ; move X/Y to min endstops, so the head is out of the way,M84 ; steppers off,G90 ; absolute positioning
;   exportFileFormat,gcode
;   celebration,0
;   celebrationSong,Random Song
;   postProcessing,
;   defaultSpeed,3600
;   outlineUnderspeed,1
;   solidInfillUnderspeed,1
;   supportUnderspeed,1
;   rapidXYspeed,3600
;   rapidZspeed,1002
;   minBridgingArea,50
;   bridgingExtraInflation,0
;   bridgingExtrusionMultiplier,1
;   bridgingSpeedMultiplier,1
;   useFixedBridgingAngle,0
;   fixedBridgingAngle,0
;   applyBridgingToPerimeters,0
;   filamentDiameters,1.75|1.75|1.75|1.75|1.75|1.75
;   filamentPricesPerKg,25|25|25|25|25|25
;   filamentDensities,1.25|1.25|1.25|1.25|1.25|1.25
;   useMinPrintHeight,0
;   minPrintHeight,42
;   useMaxPrintHeight,0
;   maxPrintHeight,0
;   useDiaphragm,0
;   diaphragmLayerInterval,20
;   robustSlicing,1
;   mergeAllIntoSolid,0
;   onlyRetractWhenCrossingOutline,1
;   retractBetweenLayers,1
;   useRetractionMinTravel,0
;   retractionMinTravel,3
;   retractWhileWiping,1
;   onlyWipeOutlines,1
;   avoidCrossingOutline,0
;   maxMovementDetourFactor,3
;   toolChangeRetractionDistance,12
;   toolChangeExtraRestartDistance,-0.5
;   toolChangeRetractionSpeed,600
;   externalThinWallType,1
;   internalThinWallType,1
;   thinWallAllowedOverlapPercentage,100
;   singleExtrusionMinLength,0.4
;   singleExtrusionMinPrintingWidthPercentage,50
;   singleExtrusionMaxPrintingWidthPercentage,200
;   singleExtrusionEndpointExtension,0.2
;   horizontalSizeCompensation,0
G90
M82
M106 S255
G4 P500
M106 S0
M140 S30
M190 S30
M104 S208 T0
M109 S208 T0
G90 ; absolute positioning - this line was added in case Cura doesn't include it by default
M82 ; set extruder to absolute mode - this line was added in case Cura doesn't include it by default (may not be needed)
M107; start with the fan off (I don't think this is possible)
G28 ; Start from home position
G29 C-0.8 Z0.3 ; probe the bed at 3 points with a 0.3mm overall vertical offset and an additional -0.8mm center offset 
G1 Z15.0 F4800  ; move the nozzle up 15mm
G92 E0 ; reset extrusion distance
G1 F200 E3 ; extrude 3mm of feed stock
G92 E0 ; reset extrusion distance again
G1 F4800
G92 E0
G1 E-3.0000 F2700
G1 Z0.500 F1002
; process Process1
; layer 1, Z = 0.300
T0
; tool H0.300 W0.400
; inner perimeter
G1 X-4.045 Y6.536 F3600
G1 E0.0000 F810
G92 E0
G1 X4.045 Y6.536 E0.4036 F1440
G1 X4.045 Y11.730 E0.6627
G1 X-4.045 Y11.730 E1.0664
G1 X-4.045 Y6.536 E1.3255
G1 X-4.445 Y6.136 F3600
G92 E0
G1 X4.445 Y6.136 E0.4435 F1440
G1 X4.445 Y12.130 E0.7426
G1 X-4.445 Y12.130 E1.1861
G1 X-4.445 Y6.136 E1.4851
; outer perimeter
G1 X-4.812 Y5.736 F3600
G92 E0
G1 X4.812 Y5.736 E0.4802 F1440
G1 X4.845 Y5.769 E0.4825
G1 X4.845 Y12.497 E0.8182
G1 X4.812 Y12.530 E0.8205
G1 X-4.812 Y12.530 E1.3006
G1 X-4.845 Y12.497 E1.3030
G1 X-4.845 Y5.769 E1.6386
G1 X-4.812 Y5.736 E1.6409
; solid layer
G1 X-3.825 Y11.448 F3600
G92 E0
G1 X-3.764 Y11.510 E0.0043 F1440
G1 X-3.198 Y11.510 E0.0325
G1 X-3.825 Y10.883 E0.0768
G1 X-3.825 Y10.317 E0.1050
G1 X-2.632 Y11.510 E0.1891
G1 X-2.067 Y11.510 E0.2174
G1 X-3.825 Y9.751 E0.3414
G1 X-3.825 Y9.186 E0.3696
G1 X-1.501 Y11.510 E0.5336
G1 X-0.935 Y11.510 E0.5618
G1 X-3.825 Y8.620 E0.7657
G1 X-3.825 Y8.054 E0.7939
G1 X-0.370 Y11.510 E1.0377
G1 X0.196 Y11.510 E1.0660
G1 X-3.825 Y7.489 E1.3497
G1 X-3.825 Y6.923 E1.3779
G1 X0.762 Y11.510 E1.7015
G1 X1.327 Y11.510 E1.7297
G1 X-3.426 Y6.756 E2.0651
G1 X-2.861 Y6.756 E2.0934
G1 X1.893 Y11.510 E2.4288
G1 X2.459 Y11.510 E2.4570
G1 X-2.295 Y6.756 E2.7924
G1 X-1.729 Y6.756 E2.8206
G1 X3.024 Y11.510 E3.1560
G1 X3.590 Y11.510 E3.1843
G1 X-1.164 Y6.756 E3.5197
G1 X-0.598 Y6.756 E3.5479
G1 X3.825 Y11.179 E3.8600
G1 X3.825 Y10.613 E3.8882
G1 X-0.032 Y6.756 E4.1603
G1 X0.533 Y6.756 E4.1886
G1 X3.825 Y10.048 E4.4208
G1 X3.825 Y9.482 E4.4490
G1 X1.099 Y6.756 E4.6414
G1 X1.665 Y6.756 E4.6696
G1 X3.825 Y8.916 E4.8220
G1 X3.825 Y8.351 E4.8503
G1 X2.230 Y6.756 E4.9628
G1 X2.796 Y6.756 E4.9910
G1 X3.825 Y7.785 E5.0636
G1 X3.825 Y7.219 E5.0918
G1 X3.362 Y6.756 E5.1245
G92 E0
G1 E-3.0000 F2700
; support
G1 X4.520 Y5.000 F3600
G1 E0.0000 F2700
G92 E0
G1 X-4.520 Y5.000 E0.4510 F1440
G1 X-4.520 Y4.000 E0.5009
G1 X4.520 Y4.000 E0.9519
G1 X4.520 Y3.000 E1.0018
G1 X-4.520 Y3.000 E1.4528
G1 X-4.520 Y2.000 E1.5027
G1 X4.520 Y2.000 E1.9537
G1 X4.520 Y1.000 E2.0036
G1 X-4.520 Y1.000 E2.4546
G1 X-4.520 Y0.786 E2.4653
G1 X-5.314 Y0.786 E2.5049
G1 X-5.314 Y0.301 E2.5291
G1 X-5.433 Y0.301 E2.5350
G1 X-5.433 Y0.000 E2.5500
G1 X5.400 Y0.000 E3.0905
G1 X5.400 Y-0.479 E3.1144
G1 X5.445 Y-0.479 E3.1166
G1 X5.445 Y-1.000 E3.1426
G1 X-5.331 Y-1.000 E3.6802
G1 X-5.331 Y-1.480 E3.7042
G1 X-5.520 Y-1.480 E3.7136
G1 X-5.520 Y-2.000 E3.7395
G1 X-2.480 Y-2.000 E3.8912
G1 X-2.480 Y-2.480 E3.9152
G1 X-1.480 Y-2.480 E3.9650
G1 X-1.480 Y-3.000 E3.9910
G1 X-5.520 Y-3.000 E4.1925
G1 X-5.520 Y-4.000 E4.2424
G1 X-3.480 Y-4.000 E4.3442
G1 X-3.480 Y-5.000 E4.3941
G1 X-6.520 Y-5.000 E4.5458
G1 X-6.520 Y-5.520 E4.5717
G1 X-5.520 Y-5.520 E4.6216
G1 X-5.520 Y-6.000 E4.6456
G1 X-3.480 Y-6.000 E4.7473
G1 X-3.480 Y-6.465 E4.7705
G1 X-3.216 Y-6.465 E4.7837
G1 X-3.216 Y-7.000 E4.8104
G1 X-4.296 Y-7.000 E4.8643
G92 E0
G1 E-3.0000 F2700
G1 X-4.520 Y-10.000 F3600
G1 E0.0000 F2700
G92 E0
G1 X-3.480 Y-10.000 E0.0519 F1440
G92 E0
G1 E-3.0000 F2700
G1 X-1.520 Y-16.000 F3600
G1 E0.0000 F2700
G92 E0
G1 X-0.480 Y-16.000 E0.0519 F1440
G1 X-0.480 Y-15.000 E0.1018
G1 X-2.520 Y-15.000 E0.2036
G1 X-2.520 Y-14.520 E0.2275
G1 X-3.520 Y-14.520 E0.2774
G1 X-3.520 Y-14.000 E0.3033
G1 X-1.480 Y-14.000 E0.4051
G1 X-1.480 Y-13.520 E0.4291
G1 X1.480 Y-13.520 E0.5767
G1 X1.480 Y-14.000 E0.6007
G1 X3.520 Y-14.000 E0.7025
G1 X3.520 Y-13.520 E0.7264
G1 X4.520 Y-13.520 E0.7763
G1 X4.520 Y-13.000 E0.8022
G1 X-4.520 Y-13.000 E1.2532
G1 X-4.520 Y-12.000 E1.3031
G1 X4.520 Y-12.000 E1.7541
G1 X4.520 Y-11.000 E1.8040
G1 X-2.520 Y-11.000 E2.1553
G1 X-2.520 Y-10.480 E2.1812
G1 X3.480 Y-10.480 E2.4805
G1 X3.480 Y-10.000 E2.5045
G1 X4.520 Y-10.000 E2.5564
G92 E0
G1 E-3.0000 F2700
G1 X3.188 Y-7.000 F3600
G1 E0.0000 F2700
G92 E0
G1 X4.268 Y-7.000 E0.0539 F1440
G1 X4.268 Y-6.520 E0.0778
G1 X5.520 Y-6.520 E0.1403
G1 X5.520 Y-6.000 E0.1662
G1 X3.480 Y-6.000 E0.2680
G1 X3.480 Y-5.000 E0.3179
G1 X6.520 Y-5.000 E0.4696
G1 X6.520 Y-4.480 E0.4955
G1 X5.520 Y-4.480 E0.5454
G1 X5.520 Y-4.000 E0.5694
G1 X3.480 Y-4.000 E0.6711
G1 X3.480 Y-3.000 E0.7210
G1 X5.520 Y-3.000 E0.8228
G1 X5.520 Y-2.000 E0.8727
G1 X3.480 Y-2.000 E0.9745
G92 E0
G1 E-3.0000 F2700
G1 X-0.520 Y-3.000 F3600
G1 E0.0000 F2700
G92 E0
G1 X0.520 Y-3.000 E0.0519 F1440
G1 X0.520 Y-3.480 E0.0758
G1 X1.520 Y-3.480 E0.1257
G1 X1.520 Y-4.000 E0.1517
G1 X-0.520 Y-4.000 E0.2534
G92 E0
G1 E-3.0000 F2700
G1 X0.480 Y-15.000 F3600
G1 E0.0000 F2700
G92 E0
G1 X2.520 Y-15.000 E0.1018 F1440
G1 X2.520 Y-15.520 E0.1277
G1 X1.520 Y-15.520 E0.1776
G1 X1.520 Y-16.000 E0.2016
G1 X0.480 Y-16.000 E0.2534
G92 E0
G1 E-3.0000 F2700
; layer 2, Z = 0.600
M106 S255
G4 P500
M106 S63
; inner perimeter
G1 X4.155 Y6.536 F3600
G1 Z0.800 F1002
G1 E0.0000 F2700
G92 E0
G1 X4.155 Y11.730 E0.2591 F1491
G1 X-4.155 Y11.730 E0.6737
G1 X-4.155 Y6.536 E0.9328
G1 X4.155 Y6.536 E1.3473
G1 X4.555 Y6.136 F3600
G92 E0
G1 X4.555 Y12.130 E0.2990 F1491
G1 X-4.555 Y12.130 E0.7535
G1 X-4.555 Y6.136 E1.0525
G1 X4.555 Y6.136 E1.5070
; outer perimeter
G1 X4.812 Y5.736 F3600
G92 E0
G1 X4.955 Y5.878 E0.0100 F1491
G1 X4.955 Y12.387 E0.3348
G1 X4.812 Y12.530 E0.3448
G1 X-4.812 Y12.530 E0.8250
G1 X-4.955 Y12.387 E0.8350
G1 X-4.955 Y5.878 E1.1598
G1 X-4.812 Y5.736 E1.1698
G1 X4.812 Y5.736 E1.6500
; solid layer
G1 X3.935 Y11.339 F3600
G92 E0
G1 X3.764 Y11.510 E0.0120 F1491
G1 X3.198 Y11.510 E0.0403
G1 X3.935 Y10.773 E0.0922
G1 X3.935 Y10.208 E0.1205
G1 X2.633 Y11.510 E0.2123
G1 X2.067 Y11.510 E0.2405
G1 X3.935 Y9.642 E0.3723
G1 X3.935 Y9.076 E0.4006
G1 X1.501 Y11.510 E0.5722
G1 X0.935 Y11.510 E0.6005
G1 X3.935 Y8.510 E0.8121
G1 X3.935 Y7.945 E0.8403
G1 X0.370 Y11.510 E1.0918
G1 X-0.196 Y11.510 E1.1200
G1 X3.935 Y7.379 E1.4115
G1 X3.935 Y6.813 E1.4397
G1 X-0.762 Y11.510 E1.7710
G1 X-1.327 Y11.510 E1.7993
G1 X3.427 Y6.756 E2.1347
G1 X2.861 Y6.756 E2.1629
G1 X-1.893 Y11.510 E2.4983
G1 X-2.459 Y11.510 E2.5265
G1 X2.295 Y6.756 E2.8619
G1 X1.729 Y6.756 E2.8901
G1 X-3.024 Y11.510 E3.2256
G1 X-3.590 Y11.510 E3.2538
G1 X1.164 Y6.756 E3.5892
G1 X0.598 Y6.756 E3.6174
G1 X-3.935 Y11.289 E3.9372
G1 X-3.935 Y10.723 E3.9654
G1 X0.032 Y6.756 E4.2453
G1 X-0.533 Y6.756 E4.2736
G1 X-3.935 Y10.157 E4.5135
G1 X-3.935 Y9.592 E4.5418
G1 X-1.099 Y6.756 E4.7418
G1 X-1.665 Y6.756 E4.7701
G1 X-3.935 Y9.026 E4.9302
G1 X-3.935 Y8.460 E4.9584
G1 X-2.230 Y6.756 E5.0787
G1 X-2.796 Y6.756 E5.1069
G1 X-3.935 Y7.894 E5.1872
G1 X-3.935 Y7.329 E5.2155
G1 X-3.362 Y6.756 E5.2559
G1 X-3.927 Y6.756 E5.2841
G1 X-3.935 Y6.763 E5.2846
G92 E0
G1 E-3.0000 F2700
; support
G1 X-3.449 Y5.036 F3600
G1 E0.0000 F2700
G92 E0
G1 X-4.520 Y3.965 E0.0755 F1491
G1 X-4.520 Y2.551 E0.1461
G1 X-2.035 Y5.036 E0.3214
G1 X-0.621 Y5.036 E0.3920
G1 X-4.520 Y1.137 E0.6671
G1 X-4.520 Y0.786 E0.6846
G1 X-4.871 Y0.786 E0.7021
G1 X-5.314 Y0.343 E0.7333
G1 X-5.314 Y0.301 E0.7354
G1 X-5.356 Y0.301 E0.7375
G1 X-5.433 Y0.224 E0.7429
G1 X-5.433 Y-0.779 E0.7930
G1 X-5.331 Y-0.779 E0.7981
G1 X-5.331 Y-1.088 E0.8135
G1 X0.793 Y5.036 E1.2456
G1 X2.207 Y5.036 E1.3161
G1 X-5.520 Y-2.692 E1.8613
G92 E0
G1 E-3.0000 F2700
G1 X-3.302 Y-7.545 F3600
G1 E0.0000 F2700
G92 E0
G1 X-3.216 Y-7.459 E0.0061 F1491
G1 X-3.216 Y-6.465 E0.0557
G1 X-3.480 Y-6.465 E0.0688
G1 X-3.480 Y-6.308 E0.0766
G1 X-4.296 Y-7.125 E0.1342
G1 X-4.296 Y-6.520 E0.1644
G1 X-5.106 Y-6.520 E0.2048
G1 X-3.480 Y-4.894 E0.3195
G1 X-3.480 Y-3.520 E0.3880
G1 X-2.106 Y-3.520 E0.4566
G1 X-1.480 Y-2.894 E0.5008
G1 X-1.480 Y-2.480 E0.5214
G1 X-2.480 Y-2.480 E0.5713
G1 X-5.520 Y-5.520 E0.7858
G1 X-6.520 Y-5.520 E0.8357
G1 X-6.520 Y-5.106 E0.8564
G1 X-5.894 Y-4.480 E0.9005
G1 X-5.520 Y-4.480 E0.9192
G1 X-5.520 Y-4.106 E0.9379
G1 X3.622 Y5.036 E1.5828
G1 X4.520 Y5.036 E1.6277
G1 X4.520 Y4.520 E1.6534
G1 X-1.520 Y-1.520 E2.0796
G1 X-0.106 Y-1.520 E2.1501
G1 X4.520 Y3.106 E2.4765
G1 X4.520 Y1.692 E2.5470
G1 X1.308 Y-1.520 E2.7736
G1 X2.723 Y-1.520 E2.8442
G1 X4.745 Y0.502 E2.9868
G1 X5.400 Y0.502 E3.0196
G1 X5.400 Y-0.257 E3.0574
G1 X3.480 Y-2.177 E3.1929
G1 X3.480 Y-3.591 E3.2634
G1 X5.520 Y-1.551 E3.4074
G1 X5.520 Y-2.965 E3.4779
G1 X3.480 Y-5.005 E3.6219
G92 E0
G1 E-3.0000 F2700
G1 X3.188 Y-6.712 F3600
G1 E0.0000 F2700
G92 E0
G1 X3.414 Y-6.485 E0.0160 F1491
G1 X3.480 Y-6.485 E0.0193
G1 X3.480 Y-6.419 E0.0225
G1 X5.520 Y-4.379 E0.1665
G1 X5.520 Y-4.480 E0.1715
G1 X6.520 Y-4.480 E0.2214
G1 X6.520 Y-4.794 E0.2370
G1 X5.794 Y-5.520 E0.2883
G1 X5.520 Y-5.520 E0.3019
G1 X5.520 Y-5.794 E0.3156
G1 X4.794 Y-6.520 E0.3668
G1 X4.268 Y-6.520 E0.3931
G1 X4.268 Y-7.046 E0.4193
G1 X3.749 Y-7.565 E0.4559
G92 E0
G1 E-3.0000 F2700
G1 X4.520 Y-9.622 F3600
G1 E0.0000 F2700
G92 E0
G1 X0.622 Y-13.520 E0.2750 F1491
G92 E0
G1 E-3.0000 F2700
G1 X0.480 Y-15.076 F3600
G1 E0.0000 F2700
G92 E0
G1 X1.076 Y-14.480 E0.0421 F1491
G1 X1.480 Y-14.480 E0.0622
G1 X1.480 Y-14.076 E0.0824
G1 X4.520 Y-11.036 E0.2968
