; G-Code generated by Simplify3D(R) Version 4.0.0
; Jan 23, 2018 at 11:17:39 PM
; Settings Summary
;   processName,Process1
;   applyToModels,frontfoot
;   profileName,MP Mini Delta23 (modified)
;   profileVersion,2017-10-15 16:31:22
;   baseProfile,Monoprice MP Mini Delta
;   printMaterial,eSun PLA+ - Solid Red
;   printQuality,0.08
;   printExtruders,
;   extruderName,Primary Extruder
;   extruderToolheadNumber,0
;   extruderDiameter,0.4
;   extruderAutoWidth,0
;   extruderWidth,0.4
;   extrusionMultiplier,0.95
;   extruderUseRetract,1
;   extruderRetractionDistance,8
;   extruderExtraRestartDistance,0
;   extruderRetractionZLift,0
;   extruderRetractionSpeed,3000
;   extruderUseCoasting,0
;   extruderCoastingDistance,0.2
;   extruderUseWipe,0
;   extruderWipeDistance,5
;   primaryExtruder,0
;   layerHeight,0.1
;   topSolidLayers,8
;   bottomSolidLayers,3
;   perimeterOutlines,3
;   printPerimetersInsideOut,1
;   startPointOption,2
;   startPointOriginX,0
;   startPointOriginY,0
;   sequentialIslands,0
;   spiralVaseMode,0
;   firstLayerHeightPercentage,100
;   firstLayerWidthPercentage,100
;   firstLayerUnderspeed,0.4
;   useRaft,0
;   raftExtruder,0
;   raftTopLayers,3
;   raftBaseLayers,2
;   raftOffset,5
;   raftSeparationDistance,0.14
;   raftTopInfill,100
;   aboveRaftSpeedMultiplier,0.3
;   useSkirt,0
;   skirtExtruder,0
;   skirtLayers,1
;   skirtOutlines,5
;   skirtOffset,0
;   usePrimePillar,0
;   primePillarExtruder,999
;   primePillarWidth,6
;   primePillarLocation,0
;   primePillarSpeedMultiplier,1
;   useOozeShield,0
;   oozeShieldExtruder,999
;   oozeShieldOffset,2
;   oozeShieldOutlines,1
;   oozeShieldSidewallShape,1
;   oozeShieldSidewallAngle,30
;   oozeShieldSpeedMultiplier,1
;   infillExtruder,0
;   internalInfillPattern,Fast Honeycomb
;   externalInfillPattern,Rectilinear
;   infillPercentage,30
;   outlineOverlapPercentage,45
;   infillExtrusionWidthPercentage,100
;   minInfillLength,5
;   infillLayerInterval,3
;   internalInfillAngles,0
;   overlapInternalInfillAngles,0
;   externalInfillAngles,45,-45
;   generateSupport,1
;   supportExtruder,0
;   supportInfillPercentage,40
;   supportExtraInflation,0.2
;   supportBaseLayers,0
;   denseSupportExtruder,0
;   denseSupportLayers,0
;   denseSupportInfillPercentage,70
;   supportLayerInterval,3
;   supportHorizontalPartOffset,0.4
;   supportUpperSeparationLayers,1
;   supportLowerSeparationLayers,1
;   supportType,0
;   supportGridSpacing,1
;   maxOverhangAngle,45
;   supportAngles,0,90
;   temperatureName,Primary Extruder,Heated Bed
;   temperatureNumber,0,0
;   temperatureSetpointCount,1,1
;   temperatureSetpointLayers,1,1
;   temperatureSetpointTemperatures,195,30
;   temperatureStabilizeAtStartup,1,1
;   temperatureHeatedBed,0,1
;   temperatureRelayBetweenLayers,0,0
;   temperatureRelayBetweenLoops,0,0
;   fanLayers,1,2,3
;   fanSpeeds,0,60,100
;   blipFanToFullPower,1
;   adjustSpeedForCooling,1
;   minSpeedLayerTime,15
;   minCoolingSpeedSlowdown,20
;   increaseFanForCooling,0
;   minFanLayerTime,45
;   maxCoolingFanSpeed,100
;   increaseFanForBridging,0
;   bridgingFanSpeed,100
;   use5D,1
;   relativeEdistances,0
;   allowEaxisZeroing,1
;   independentExtruderAxes,0
;   includeM10123,0
;   stickySupport,1
;   applyToolheadOffsets,0
;   gcodeXoffset,0
;   gcodeYoffset,0
;   gcodeZoffset,0.23
;   overrideMachineDefinition,1
;   machineTypeOverride,1
;   strokeXoverride,77.8
;   strokeYoverride,77.8
;   strokeZoverride,120
;   originOffsetXoverride,38.9
;   originOffsetYoverride,38.9
;   originOffsetZoverride,0
;   homeXdirOverride,0
;   homeYdirOverride,0
;   homeZdirOverride,-1
;   flipXoverride,1
;   flipYoverride,-1
;   flipZoverride,1
;   toolheadOffsets,0,0|0,0|0,0|0,0|0,0|0,0
;   overrideFirmwareConfiguration,1
;   firmwareTypeOverride,RepRap (Marlin/Repetier/Sprinter)
;   GPXconfigOverride,r2
;   baudRateOverride,115200
;   overridePrinterModels,1
;   printerModelsOverride,MP_Mini_Delta_Platform.stl
;   startingGcode,G90 ; absolute positioning - this line was added in case Cura doesn't include it by default,M82 ; set extruder to absolute mode - this line was added in case Cura doesn't include it by default (may not be needed),M107; start with the fan off (I don't think this is possible),G28 ; Start from home position,G29 C-0.8 Z0.3 ; probe the bed at 3 points with a 0.3mm overall vertical offset and an additional -0.8mm center offset ,G1 Z15.0 F4800  ; move the nozzle up 15mm,G92 E0 ; reset extrusion distance,G1 F200 E3 ; extrude 3mm of feed stock,G92 E0 ; reset extrusion distance again,G1 F4800
;   layerChangeGcode,
;   retractionGcode,
;   toolChangeGcode,
;   endingGcode,M104 S0 ; turn off hotend heater,M140 S0 ; turn off bed heater,G91 ; Switch to use Relative Coordinates,G1 E-3 F700 ; retract the filament a bit before lifting the nozzle to release some of the pressure,G1 Z2 F1000 ; raise platform 2mm from current position,G1 E-2 F700 ; retract filament even more,G90 ; Switch back to using absolute coordinates,G28 X ; Return to home position. Without an X Y or Z after G28 the print completion time will not be displayed on the Mini Delta's display.,M84 ; disable motors,G4 S360 ; pause for 360 seconds to keep fan running to cool hotend and allow the fan to be turned off,M107 ; turn off fan. Some say M107 doesn't work for them but if the hotend is cool enough it should work,;M106 S1 ; turn off fan. Remove the semicolon in front of M106 if M107 doesn't work for you
;   exportFileFormat,gcode
;   celebration,0
;   celebrationSong,Random Song
;   postProcessing,
;   defaultSpeed,3200
;   outlineUnderspeed,1
;   solidInfillUnderspeed,1
;   supportUnderspeed,1
;   rapidXYspeed,3200
;   rapidZspeed,1002
;   minBridgingArea,50
;   bridgingExtraInflation,0
;   bridgingExtrusionMultiplier,1
;   bridgingSpeedMultiplier,1
;   useFixedBridgingAngle,0
;   fixedBridgingAngle,0
;   applyBridgingToPerimeters,0
;   filamentDiameters,1.75|1.75|1.75|1.75|1.75|1.75
;   filamentPricesPerKg,48|25|25|25|25|25
;   filamentDensities,1.25|1.25|1.25|1.25|1.25|1.25
;   useMinPrintHeight,0
;   minPrintHeight,42
;   useMaxPrintHeight,0
;   maxPrintHeight,0
;   useDiaphragm,0
;   diaphragmLayerInterval,20
;   robustSlicing,1
;   mergeAllIntoSolid,0
;   onlyRetractWhenCrossingOutline,1
;   retractBetweenLayers,1
;   useRetractionMinTravel,0
;   retractionMinTravel,3
;   retractWhileWiping,1
;   onlyWipeOutlines,1
;   avoidCrossingOutline,1
;   maxMovementDetourFactor,5
;   toolChangeRetractionDistance,12
;   toolChangeExtraRestartDistance,-0.5
;   toolChangeRetractionSpeed,600
;   externalThinWallType,1
;   internalThinWallType,1
;   thinWallAllowedOverlapPercentage,100
;   singleExtrusionMinLength,0.4
;   singleExtrusionMinPrintingWidthPercentage,50
;   singleExtrusionMaxPrintingWidthPercentage,200
;   singleExtrusionEndpointExtension,0.2
;   horizontalSizeCompensation,0
G90
M82
M106 S255
G4 P500
M106 S0
M140 S30
M190 S30
M104 S195 T0
M109 S195 T0
G90 ; absolute positioning - this line was added in case Cura doesn't include it by default
M82 ; set extruder to absolute mode - this line was added in case Cura doesn't include it by default (may not be needed)
M107; start with the fan off (I don't think this is possible)
G28 ; Start from home position
G29 C-0.8 Z0.3 ; probe the bed at 3 points with a 0.3mm overall vertical offset and an additional -0.8mm center offset 
G1 Z15.0 F4800  ; move the nozzle up 15mm
G92 E0 ; reset extrusion distance
G1 F200 E3 ; extrude 3mm of feed stock
G92 E0 ; reset extrusion distance again
G1 F4800
G92 E0
G1 E-8.0000 F3000
G1 Z0.330 F1002
; process Process1
; layer 1, Z = 0.100
T0
; tool H0.100 W0.400
; inner perimeter
G1 X-8.897 Y-2.295 F3200
G1 E0.0000 F900
G92 E0
G1 X-10.184 Y-2.295 E0.0203 F1280
G1 X-8.673 Y-9.957 E0.1437
G1 X-7.395 Y-9.957 E0.1639
G1 X-4.342 Y-25.564 E0.4151
G1 X4.342 Y-25.564 E0.5523
G1 X7.395 Y-9.957 E0.8036
G1 X8.673 Y-9.957 E0.8238
G1 X10.184 Y-2.295 E0.9472
G1 X8.897 Y-2.295 E0.9675
G1 X9.172 Y-0.895 E0.9900
G1 X9.174 Y2.961 E1.0509
G1 X-9.174 Y2.961 E1.3408
G1 X-9.172 Y-0.895 E1.4017
G1 X-8.897 Y-2.295 E1.4243
G1 X-9.383 Y-1.895 F3200
G92 E0
G1 X-10.671 Y-1.895 E0.0203 F1280
G1 X-9.002 Y-10.358 E0.1566
G1 X-7.725 Y-10.358 E0.1768
G1 X-4.671 Y-25.964 E0.4280
G1 X4.671 Y-25.964 E0.5756
G1 X7.725 Y-10.358 E0.8269
G1 X9.002 Y-10.358 E0.8470
G1 X10.671 Y-1.895 E0.9833
G1 X9.383 Y-1.895 E1.0037
G1 X9.572 Y-0.934 E1.0191
G1 X9.574 Y3.361 E1.0870
G1 X-9.574 Y3.361 E1.3895
G1 X-9.572 Y-0.934 E1.4573
G1 X-9.383 Y-1.895 E1.4728
; outer perimeter
G1 X-9.869 Y-1.495 F3200
G92 E0
G1 X-11.157 Y-1.495 E0.0203 F1280
G1 X-9.331 Y-10.758 E0.1695
G1 X-8.054 Y-10.758 E0.1897
G1 X-5.000 Y-26.364 E0.4409
G1 X5.000 Y-26.364 E0.5989
G1 X8.054 Y-10.758 E0.8502
G1 X9.331 Y-10.758 E0.8703
G1 X11.157 Y-1.495 E1.0195
G1 X9.869 Y-1.495 E1.0398
G1 X9.972 Y-0.973 E1.0482
G1 X9.974 Y3.761 E1.1230
G1 X-9.974 Y3.761 E1.4382
G1 X-9.972 Y-0.973 E1.5130
G1 X-9.869 Y-1.495 E1.5214
; solid layer
G1 X-9.909 Y-2.555 F3200
G92 E0
G1 X-9.869 Y-2.515 E0.0009 F1280
G1 X-9.303 Y-2.515 E0.0098
G1 X-9.815 Y-3.027 E0.0213
G1 X-9.722 Y-3.500 E0.0289
G1 X-8.737 Y-2.515 E0.0509
G1 X-8.630 Y-2.515 E0.0526
G1 X-8.647 Y-2.425 E0.0540
G1 X-3.481 Y2.741 E0.1695
G1 X-2.916 Y2.741 E0.1784
G1 X-9.629 Y-3.972 E0.3284
G1 X-9.536 Y-4.445 E0.3360
G1 X-2.350 Y2.741 E0.4965
G1 X-1.784 Y2.741 E0.5055
G1 X-9.443 Y-4.917 E0.6766
G1 X-9.350 Y-5.390 E0.6842
G1 X-1.219 Y2.741 E0.8659
G1 X-0.653 Y2.741 E0.8748
G1 X-9.256 Y-5.862 E1.0670
G1 X-9.163 Y-6.335 E1.0746
G1 X-0.087 Y2.741 E1.2774
G1 X0.478 Y2.741 E1.2864
G1 X-9.070 Y-6.807 E1.4997
G1 X-8.977 Y-7.280 E1.5073
G1 X1.044 Y2.741 E1.7312
G1 X1.610 Y2.741 E1.7401
G1 X-8.884 Y-7.752 E1.9746
G1 X-8.791 Y-8.225 E1.9822
G1 X2.175 Y2.741 E2.2272
G1 X2.741 Y2.741 E2.2361
G1 X-8.697 Y-8.697 E2.4917
G1 X-8.604 Y-9.170 E2.4993
G1 X3.307 Y2.741 E2.7654
G1 X3.873 Y2.741 E2.7744
G1 X-8.511 Y-9.642 E3.0511
G1 X-8.492 Y-9.738 E3.0526
G1 X-8.040 Y-9.738 E3.0597
G1 X4.438 Y2.741 E3.3385
G1 X5.004 Y2.741 E3.3475
G1 X-7.475 Y-9.738 E3.6263
G1 X-7.214 Y-9.738 E3.6304
G1 X-7.164 Y-9.993 E3.6345
G1 X5.570 Y2.741 E3.9190
G1 X6.135 Y2.741 E3.9279
G1 X-7.072 Y-10.466 E4.2230
G1 X-6.979 Y-10.939 E4.2306
G1 X6.701 Y2.741 E4.5363
G1 X7.267 Y2.741 E4.5452
G1 X-6.887 Y-11.412 E4.8614
G1 X-6.794 Y-11.885 E4.8691
G1 X7.832 Y2.741 E5.1959
G1 X8.398 Y2.741 E5.2048
G1 X-6.702 Y-12.358 E5.5422
G1 X-6.609 Y-12.832 E5.5498
G1 X8.954 Y2.731 E5.8975
G1 X8.953 Y2.165 E5.9064
G1 X-6.516 Y-13.305 E6.2520
G1 X-6.424 Y-13.778 E6.2597
G1 X8.953 Y1.599 E6.6032
G1 X8.953 Y1.033 E6.6122
G1 X-6.331 Y-14.251 E6.9536
G1 X-6.239 Y-14.724 E6.9613
G1 X8.952 Y0.467 E7.3007
G1 X8.952 Y-0.099 E7.3096
G1 X-6.146 Y-15.197 E7.6469
G1 X-6.054 Y-15.670 E7.6546
G1 X8.952 Y-0.665 E7.9898
G1 X8.952 Y-0.873 E7.9931
G1 X8.865 Y-1.318 E8.0003
G1 X-5.961 Y-16.143 E8.3315
G1 X-5.868 Y-16.616 E8.3391
G1 X8.727 Y-2.021 E8.6652
G1 X8.630 Y-2.515 E8.6732
G1 X8.799 Y-2.515 E8.6758
G1 X-5.776 Y-17.090 E9.0015
G1 X-5.683 Y-17.563 E9.0091
G1 X9.365 Y-2.515 E9.3453
G1 X9.916 Y-2.515 E9.3540
G1 X9.913 Y-2.532 E9.3543
G1 X-5.591 Y-18.036 E9.7007
G1 X-5.498 Y-18.509 E9.7083
G1 X9.774 Y-3.237 E10.0495
G1 X9.635 Y-3.941 E10.0609
G1 X-5.406 Y-18.982 E10.3969
G1 X-5.313 Y-19.455 E10.4045
G1 X9.496 Y-4.646 E10.7354
G1 X9.357 Y-5.351 E10.7467
G1 X-5.220 Y-19.928 E11.0724
G1 X-5.128 Y-20.401 E11.0801
G1 X9.218 Y-6.055 E11.4006
G1 X9.079 Y-6.760 E11.4119
G1 X-5.035 Y-20.874 E11.7273
G1 X-4.943 Y-21.348 E11.7349
G1 X8.940 Y-7.464 E12.0451
G1 X8.802 Y-8.169 E12.0564
G1 X7.233 Y-9.738 E12.0915
G1 X7.214 Y-9.738 E12.0918
G1 X7.210 Y-9.761 E12.0922
G1 X-4.850 Y-21.821 E12.3616
G1 X-4.758 Y-22.294 E12.3692
G1 X7.072 Y-10.464 E12.6335
G1 X6.935 Y-11.167 E12.6449
G1 X-4.665 Y-22.767 E12.9040
G1 X-4.572 Y-23.240 E12.9116
G1 X6.797 Y-11.871 E13.1657
G1 X6.659 Y-12.574 E13.1770
G1 X-4.480 Y-23.713 E13.4259
G1 X-4.387 Y-24.186 E13.4335
G1 X6.522 Y-13.277 E13.6772
G1 X6.384 Y-13.981 E13.6885
G1 X-4.295 Y-24.659 E13.9271
G1 X-4.202 Y-25.133 E13.9347
G1 X6.247 Y-14.684 E14.1682
G1 X6.109 Y-15.387 E14.1795
G1 X-3.848 Y-25.344 E14.4020
G1 X-3.283 Y-25.344 E14.4109
G1 X5.971 Y-16.090 E14.6177
G1 X5.834 Y-16.794 E14.6290
G1 X-2.717 Y-25.344 E14.8200
G1 X-2.151 Y-25.344 E14.8290
G1 X5.696 Y-17.497 E15.0043
G1 X5.558 Y-18.200 E15.0156
G1 X-1.586 Y-25.344 E15.1752
G1 X-1.020 Y-25.344 E15.1842
G1 X5.421 Y-18.904 E15.3281
G1 X5.283 Y-19.607 E15.3394
G1 X-0.454 Y-25.344 E15.4676
G1 X0.112 Y-25.344 E15.4765
G1 X5.146 Y-20.310 E15.5890
G1 X5.008 Y-21.013 E15.6003
G1 X0.677 Y-25.344 E15.6971
G1 X1.243 Y-25.344 E15.7060
G1 X4.870 Y-21.717 E15.7871
G1 X4.733 Y-22.420 E15.7984
G1 X1.809 Y-25.344 E15.8637
G1 X2.374 Y-25.344 E15.8727
G1 X4.595 Y-23.123 E15.9223
G1 X4.458 Y-23.827 E15.9336
G1 X2.940 Y-25.344 E15.9675
G1 X3.506 Y-25.344 E15.9764
G1 X4.320 Y-24.530 E15.9946
G1 X4.182 Y-25.233 E16.0060
G1 X4.071 Y-25.344 E16.0084
G1 X7.799 Y-9.738 F3200
G92 E0
G1 X8.663 Y-8.874 E0.0193 F1280
G1 X8.524 Y-9.578 E0.0306
G1 X8.364 Y-9.738 E0.0342
G1 X-8.740 Y-1.952 F3200
G92 E0
G1 X-4.047 Y2.741 E0.1049 F1280
G1 X-4.613 Y2.741 E0.1138
G1 X-8.833 Y-1.479 E0.2081
G1 X-8.926 Y-1.006 E0.2157
G1 X-5.178 Y2.741 E0.2994
G1 X-5.744 Y2.741 E0.3084
G1 X-8.952 Y-0.467 E0.3800
G1 X-8.952 Y0.099 E0.3890
G1 X-6.310 Y2.741 E0.4480
G1 X-6.875 Y2.741 E0.4569
G1 X-8.953 Y0.664 E0.5033
G1 X-8.953 Y1.230 E0.5123
G1 X-7.441 Y2.741 E0.5461
G1 X-8.007 Y2.741 E0.5550
G1 X-8.953 Y1.795 E0.5761
G1 X-8.953 Y2.360 E0.5851
G1 X-8.573 Y2.741 E0.5936
G92 E0
G1 E-8.0000 F3000
; inner perimeter
G1 X-12.356 Y8.301 F3200
G1 E0.0000 F3000
G92 E0
G1 X-10.143 Y11.463 E0.0610 F1280
G1 X-9.186 Y16.004 E0.1343
G1 X-9.225 Y16.105 E0.1360
G1 X-9.154 Y16.155 E0.1374
G1 X-9.132 Y16.259 E0.1391
G1 X-9.055 Y16.226 E0.1404
G1 X-7.034 Y17.656 E0.1795
G1 X-10.256 Y18.904 E0.2341
G1 X-10.612 Y18.829 E0.2398
G1 X-12.307 Y18.721 E0.2667
G1 X-12.464 Y18.859 E0.2700
G1 X-12.583 Y18.387 E0.2777
G1 X-12.225 Y18.265 E0.2837
G1 X-11.621 Y17.907 E0.2947
G1 X-11.100 Y17.428 E0.3059
G1 X-10.867 Y17.090 E0.3124
G1 X-9.786 Y16.577 E0.3313
G1 X-10.245 Y15.566 E0.3489
G1 X-10.242 Y15.554 E0.3491
G1 X-10.204 Y14.849 E0.3602
G1 X-10.296 Y14.148 E0.3714
G1 X-10.521 Y13.471 E0.3826
G1 X-10.874 Y12.849 E0.3940
G1 X-11.343 Y12.307 E0.4053
G1 X-11.908 Y11.867 E0.4166
G1 X-11.937 Y11.852 E0.4171
G1 X-13.331 Y8.780 E0.4704
G1 X-12.356 Y8.301 E0.4876
G1 X-12.971 Y7.707 F3200
G1 X-13.225 Y7.832 F3200
G1 X-13.471 Y7.224 F3200
G1 X-14.895 Y5.847 F3200
G92 E0
G1 X-15.377 Y6.083 E0.0085 F1280
G1 X-16.726 Y2.652 E0.0667
G1 X-14.981 Y5.633 E0.1213
G1 X-14.895 Y5.847 E0.1249
G1 X-17.357 Y1.046 F3200
G92 E0
G1 X-17.700 Y0.173 E0.0148 F1280
G1 X-19.776 Y-1.917 E0.0614
G1 X-22.445 Y-1.455 E0.1042
G1 X-22.266 Y-1.568 E0.1075
G1 X-20.215 Y-2.366 E0.1423
G1 X-19.166 Y-2.446 E0.1589
G1 X-17.648 Y-2.327 E0.1830
G1 X-18.240 Y-1.865 E0.1948
G1 X-17.357 Y1.046 E0.2429
G1 X-18.269 Y0.924 F3200
G1 X-18.388 Y0.621 F3200
G1 X-20.051 Y-1.053 F3200
G1 X-22.915 Y-0.557 F3200
G1 X-23.752 Y0.186 F3200
G1 X-24.804 Y0.044 F3200
G92 E0
G1 X-26.232 Y1.312 E0.0302 F1280
G1 X-21.788 Y11.225 E0.2018
G1 X-22.148 Y16.404 E0.2838
G1 X-20.839 Y19.610 E0.3385
G1 X-21.583 Y18.933 E0.3545
G1 X-34.668 Y4.301 E0.6646
G1 X-28.226 Y-1.460 E0.8011
G1 X-26.092 Y0.863 E0.8509
G1 X-24.804 Y0.044 E0.8750
G1 X-24.523 Y0.870 F3200
G1 X-25.257 Y1.522 F3200
G1 X-21.317 Y10.309 F3200
G1 X-20.986 Y11.285 F3200
G1 X-21.333 Y16.274 F3200
G1 X-19.792 Y20.046 F3200
G1 X-17.575 Y21.326 F3200
G1 X-17.182 Y22.481 F3200
G92 E0
G1 X-15.623 Y23.382 E0.0285 F1280
G1 X-14.113 Y21.229 E0.0700
G1 X-14.189 Y22.178 E0.0850
G1 X-14.348 Y24.639 E0.1240
G1 X-17.182 Y22.481 E0.1803
G1 X-15.740 Y22.852 F3200
G92 E0
G1 X-14.138 Y20.568 E0.0441 F1280
G1 X-13.652 Y20.480 E0.0519
G1 X-13.790 Y22.207 E0.0793
G1 X-13.997 Y25.409 E0.1300
G1 X-20.508 Y20.453 E0.2592
G1 X-21.868 Y19.214 E0.2883
G1 X-35.233 Y4.269 E0.6050
G1 X-28.198 Y-2.022 E0.7541
G1 X-26.024 Y0.346 E0.8049
G1 X-22.448 Y-1.927 E0.8719
G1 X-20.305 Y-2.761 E0.9082
G1 X-19.166 Y-2.847 E0.9262
G1 X-17.081 Y-2.684 E0.9593
