; G-Code generated by Simplify3D(R) Version 4.0.0
; Mar 8, 2018 at 5:32:37 PM
; Settings Summary
;   processName,Process1
;   applyToModels,Backguard
;   profileName,MP Mini Delta23 (modified)
;   profileVersion,2017-10-15 16:31:22
;   baseProfile,Monoprice MP Mini Delta
;   printMaterial,eSun PLA+ - Solid Red
;   printQuality,0.08
;   printExtruders,
;   extruderName,Primary Extruder
;   extruderToolheadNumber,0
;   extruderDiameter,0.4
;   extruderAutoWidth,0
;   extruderWidth,0.4
;   extrusionMultiplier,0.95
;   extruderUseRetract,1
;   extruderRetractionDistance,8
;   extruderExtraRestartDistance,0
;   extruderRetractionZLift,0
;   extruderRetractionSpeed,3000
;   extruderUseCoasting,0
;   extruderCoastingDistance,0.2
;   extruderUseWipe,0
;   extruderWipeDistance,5
;   primaryExtruder,0
;   layerHeight,0.2
;   topSolidLayers,10
;   bottomSolidLayers,3
;   perimeterOutlines,3
;   printPerimetersInsideOut,0
;   startPointOption,2
;   startPointOriginX,0
;   startPointOriginY,0
;   sequentialIslands,0
;   spiralVaseMode,0
;   firstLayerHeightPercentage,100
;   firstLayerWidthPercentage,100
;   firstLayerUnderspeed,0.4
;   useRaft,1
;   raftExtruder,0
;   raftTopLayers,3
;   raftBaseLayers,2
;   raftOffset,2
;   raftSeparationDistance,0.1
;   raftTopInfill,100
;   aboveRaftSpeedMultiplier,0.3
;   useSkirt,0
;   skirtExtruder,0
;   skirtLayers,3
;   skirtOutlines,5
;   skirtOffset,0
;   usePrimePillar,0
;   primePillarExtruder,999
;   primePillarWidth,6
;   primePillarLocation,0
;   primePillarSpeedMultiplier,1
;   useOozeShield,0
;   oozeShieldExtruder,999
;   oozeShieldOffset,2
;   oozeShieldOutlines,1
;   oozeShieldSidewallShape,1
;   oozeShieldSidewallAngle,30
;   oozeShieldSpeedMultiplier,1
;   infillExtruder,0
;   internalInfillPattern,Rectilinear
;   externalInfillPattern,Rectilinear
;   infillPercentage,20
;   outlineOverlapPercentage,45
;   infillExtrusionWidthPercentage,100
;   minInfillLength,5
;   infillLayerInterval,1
;   internalInfillAngles,45,-45
;   overlapInternalInfillAngles,0
;   externalInfillAngles,45,-45
;   generateSupport,1
;   supportExtruder,0
;   supportInfillPercentage,40
;   supportExtraInflation,0.2
;   supportBaseLayers,0
;   denseSupportExtruder,0
;   denseSupportLayers,0
;   denseSupportInfillPercentage,70
;   supportLayerInterval,1
;   supportHorizontalPartOffset,0.2
;   supportUpperSeparationLayers,1
;   supportLowerSeparationLayers,1
;   supportType,0
;   supportGridSpacing,1
;   maxOverhangAngle,45
;   supportAngles,90
;   temperatureName,Primary Extruder,Heated Bed
;   temperatureNumber,0,0
;   temperatureSetpointCount,1,1
;   temperatureSetpointLayers,1,1
;   temperatureSetpointTemperatures,200,30
;   temperatureStabilizeAtStartup,1,1
;   temperatureHeatedBed,0,1
;   temperatureRelayBetweenLayers,0,0
;   temperatureRelayBetweenLoops,0,0
;   fanLayers,1,2,3
;   fanSpeeds,0,60,100
;   blipFanToFullPower,1
;   adjustSpeedForCooling,1
;   minSpeedLayerTime,15
;   minCoolingSpeedSlowdown,20
;   increaseFanForCooling,0
;   minFanLayerTime,45
;   maxCoolingFanSpeed,100
;   increaseFanForBridging,0
;   bridgingFanSpeed,100
;   use5D,1
;   relativeEdistances,0
;   allowEaxisZeroing,1
;   independentExtruderAxes,0
;   includeM10123,0
;   stickySupport,1
;   applyToolheadOffsets,0
;   gcodeXoffset,0
;   gcodeYoffset,0
;   gcodeZoffset,0.25
;   overrideMachineDefinition,1
;   machineTypeOverride,1
;   strokeXoverride,77.8
;   strokeYoverride,77.8
;   strokeZoverride,120
;   originOffsetXoverride,38.9
;   originOffsetYoverride,38.9
;   originOffsetZoverride,0
;   homeXdirOverride,0
;   homeYdirOverride,0
;   homeZdirOverride,-1
;   flipXoverride,1
;   flipYoverride,-1
;   flipZoverride,1
;   toolheadOffsets,0,0|0,0|0,0|0,0|0,0|0,0
;   overrideFirmwareConfiguration,1
;   firmwareTypeOverride,RepRap (Marlin/Repetier/Sprinter)
;   GPXconfigOverride,r2
;   baudRateOverride,115200
;   overridePrinterModels,1
;   printerModelsOverride,MP_Mini_Delta_Platform.stl
;   startingGcode,G90 ; absolute positioning - this line was added in case Cura doesn't include it by default,M82 ; set extruder to absolute mode - this line was added in case Cura doesn't include it by default (may not be needed),M107; start with the fan off (I don't think this is possible),G28 ; Start from home position,G29 C-0.8 Z0.3 ; probe the bed at 3 points with a 0.3mm overall vertical offset and an additional -0.8mm center offset ,G1 Z15.0 F4800  ; move the nozzle up 15mm,G92 E0 ; reset extrusion distance,G1 F200 E3 ; extrude 3mm of feed stock,G92 E0 ; reset extrusion distance again,G1 F4800
;   layerChangeGcode,
;   retractionGcode,
;   toolChangeGcode,
;   endingGcode,M104 S0 ; turn off hotend heater,M140 S0 ; turn off bed heater,G91 ; Switch to use Relative Coordinates,G1 E-3 F700 ; retract the filament a bit before lifting the nozzle to release some of the pressure,G1 Z2 F1000 ; raise platform 2mm from current position,G1 E-2 F700 ; retract filament even more,G90 ; Switch back to using absolute coordinates,G28 X ; Return to home position. Without an X Y or Z after G28 the print completion time will not be displayed on the Mini Delta's display.,M84 ; disable motors,G4 S360 ; pause for 360 seconds to keep fan running to cool hotend and allow the fan to be turned off,M107 ; turn off fan. Some say M107 doesn't work for them but if the hotend is cool enough it should work,;M106 S1 ; turn off fan. Remove the semicolon in front of M106 if M107 doesn't work for you
;   exportFileFormat,gcode
;   celebration,0
;   celebrationSong,Random Song
;   postProcessing,
;   defaultSpeed,2400
;   outlineUnderspeed,1
;   solidInfillUnderspeed,1
;   supportUnderspeed,1
;   rapidXYspeed,2400
;   rapidZspeed,1002
;   minBridgingArea,50
;   bridgingExtraInflation,0
;   bridgingExtrusionMultiplier,0.9
;   bridgingSpeedMultiplier,1
;   useFixedBridgingAngle,0
;   fixedBridgingAngle,0
;   applyBridgingToPerimeters,0
;   filamentDiameters,1.75|1.75|1.75|1.75|1.75|1.75
;   filamentPricesPerKg,48|25|25|25|25|25
;   filamentDensities,1.25|1.25|1.25|1.25|1.25|1.25
;   useMinPrintHeight,0
;   minPrintHeight,42
;   useMaxPrintHeight,0
;   maxPrintHeight,0
;   useDiaphragm,0
;   diaphragmLayerInterval,20
;   robustSlicing,1
;   mergeAllIntoSolid,0
;   onlyRetractWhenCrossingOutline,1
;   retractBetweenLayers,1
;   useRetractionMinTravel,0
;   retractionMinTravel,3
;   retractWhileWiping,1
;   onlyWipeOutlines,1
;   avoidCrossingOutline,0
;   maxMovementDetourFactor,5
;   toolChangeRetractionDistance,12
;   toolChangeExtraRestartDistance,-0.5
;   toolChangeRetractionSpeed,600
;   externalThinWallType,1
;   internalThinWallType,1
;   thinWallAllowedOverlapPercentage,100
;   singleExtrusionMinLength,0.4
;   singleExtrusionMinPrintingWidthPercentage,50
;   singleExtrusionMaxPrintingWidthPercentage,200
;   singleExtrusionEndpointExtension,0.2
;   horizontalSizeCompensation,0
G90
M82
M106 S255
G4 P500
M106 S0
M140 S30
M190 S30
M104 S200 T0
M109 S200 T0
G90 ; absolute positioning - this line was added in case Cura doesn't include it by default
M82 ; set extruder to absolute mode - this line was added in case Cura doesn't include it by default (may not be needed)
M107; start with the fan off (I don't think this is possible)
G28 ; Start from home position
G29 C-0.8 Z0.3 ; probe the bed at 3 points with a 0.3mm overall vertical offset and an additional -0.8mm center offset 
G1 Z15.0 F4800  ; move the nozzle up 15mm
G92 E0 ; reset extrusion distance
G1 F200 E3 ; extrude 3mm of feed stock
G92 E0 ; reset extrusion distance again
G1 F4800
G92 E0
G1 E-8.0000 F3000
G1 Z0.750 F1002
; process Process1
; layer 1, Z = 0.500
T0
; tool H0.500 W0.800
; raft
G1 X-3.964 Y12.178 F2400
G1 E0.0000 F900
G92 E0
G1 X5.352 Y12.178 E1.4718 F240
G1 X30.155 Y-25.594 E8.6108
G1 X31.533 Y-25.825 E8.8316
G1 X35.392 Y-22.846 E9.6017
G1 X35.599 Y-21.609 E9.7999
G1 X9.391 Y18.282 E17.3407
G1 X8.679 Y18.666 E17.4683
G1 X-7.292 Y18.666 E19.9915
G1 X-8.003 Y18.282 E20.1192
G1 X-34.212 Y-21.609 E27.6599
G1 X-34.004 Y-22.846 E27.8581
G1 X-30.146 Y-25.825 E28.6282
G1 X-28.767 Y-25.594 E28.8490
G1 X-3.964 Y12.178 E35.9880
G92 E0
G1 E-8.0000 F3000
G1 X-13.816 Y14.710 F2400
G1 E0.0000 F3000
G92 E0
G1 X-13.800 Y14.797 E0.0141 F240
G1 X-13.704 Y15.512 E0.1280
G1 X-13.697 Y15.610 E0.1435
G1 X-13.690 Y16.309 E0.2539
G1 X-13.697 Y16.420 E0.2714
G1 X-13.784 Y17.090 E0.3783
G1 X-13.810 Y17.214 E0.3981
G1 X-13.995 Y17.845 E0.5021
G1 X-14.047 Y17.977 E0.5246
G1 X-14.335 Y18.553 E0.6263
G1 X-14.420 Y18.688 E0.6515
G1 X-14.811 Y19.189 E0.7518
G1 X-14.931 Y19.312 E0.7790
G1 X-15.383 Y19.687 E0.8718
G1 X-15.454 Y19.740 E0.8857
G1 X-23.682 Y25.165 E2.4428
G1 X-23.758 Y25.210 E2.4568
G1 X-24.281 Y25.477 E2.5495
G1 X-24.441 Y25.539 E2.5767
G1 X-25.056 Y25.701 E2.6771
G1 X-25.213 Y25.726 E2.7022
G1 X-25.856 Y25.764 E2.8039
G1 X-25.998 Y25.759 E2.8265
G1 X-26.651 Y25.681 E2.9304
G1 X-26.775 Y25.657 E2.9503
G1 X-27.426 Y25.472 E3.0572
G1 X-27.530 Y25.435 E3.0747
G1 X-28.169 Y25.153 E3.1850
G1 X-28.257 Y25.108 E3.2006
G1 X-28.876 Y24.739 E3.3145
G1 X-28.950 Y24.689 E3.3286
G1 X-29.541 Y24.240 E3.4458
G1 X-29.604 Y24.188 E3.4588
G1 X-30.159 Y23.669 E3.5788
G1 X-30.213 Y23.613 E3.5911
G1 X-30.724 Y23.034 E3.7131
G1 X-30.770 Y22.976 E3.7249
G1 X-31.218 Y22.361 E3.8450
G1 X-31.239 Y22.331 E3.8508
G1 X-39.589 Y9.668 E6.2471
G1 X-39.608 Y9.637 E6.2529
G1 X-39.997 Y8.983 E6.3730
G1 X-40.032 Y8.917 E6.3849
G1 X-40.363 Y8.220 E6.5068
G1 X-40.393 Y8.148 E6.5191
G1 X-40.651 Y7.434 E6.6391
G1 X-40.675 Y7.355 E6.6521
G1 X-40.855 Y6.635 E6.7694
G1 X-40.871 Y6.547 E6.7834
G1 X-40.967 Y5.833 E6.8974
G1 X-40.974 Y5.734 E6.9129
G1 X-40.981 Y5.036 E7.0233
G1 X-40.974 Y4.925 E7.0408
G1 X-40.887 Y4.254 E7.1477
G1 X-40.861 Y4.131 E7.1675
G1 X-40.676 Y3.500 E7.2715
G1 X-40.624 Y3.367 E7.2940
G1 X-40.336 Y2.792 E7.3957
G1 X-40.250 Y2.657 E7.4209
G1 X-39.860 Y2.156 E7.5212
G1 X-39.740 Y2.033 E7.5484
G1 X-39.288 Y1.658 E7.6412
G1 X-39.217 Y1.605 E7.6551
G1 X-30.987 Y-3.822 E9.2126
G1 X-30.910 Y-3.866 E9.2266
G1 X-30.390 Y-4.132 E9.3189
G1 X-30.229 Y-4.194 E9.3461
G1 X-29.615 Y-4.356 E9.4464
G1 X-29.458 Y-4.381 E9.4716
G1 X-28.815 Y-4.419 E9.5733
G1 X-28.673 Y-4.415 E9.5958
G1 X-28.019 Y-4.336 E9.6998
G1 X-27.896 Y-4.312 E9.7196
G1 X-27.245 Y-4.127 E9.8265
G1 X-27.141 Y-4.090 E9.8440
G1 X-26.502 Y-3.808 E9.9544
G1 X-26.414 Y-3.763 E9.9700
G1 X-25.795 Y-3.394 E10.0839
G1 X-25.721 Y-3.344 E10.0979
G1 X-25.130 Y-2.896 E10.2152
G1 X-25.067 Y-2.843 E10.2281
G1 X-24.512 Y-2.324 E10.3482
G1 X-24.458 Y-2.268 E10.3605
G1 X-23.947 Y-1.689 E10.4824
G1 X-23.900 Y-1.631 E10.4943
G1 X-23.453 Y-1.016 E10.6144
G1 X-23.432 Y-0.986 E10.6202
G1 X-15.082 Y11.677 E13.0165
G1 X-15.063 Y11.708 E13.0223
G1 X-14.674 Y12.362 E13.1424
G1 X-14.639 Y12.428 E13.1542
G1 X-14.307 Y13.125 E13.2763
G1 X-14.278 Y13.197 E13.2885
G1 X-14.020 Y13.911 E13.4085
G1 X-13.996 Y13.990 E13.4215
G1 X-13.816 Y14.710 E13.5387
G92 E0
G1 E-8.0000 F3000
G1 X13.697 Y15.615 F2400
G1 E0.0000 F3000
G92 E0
G1 X13.704 Y15.517 E0.0156 F240
G1 X13.799 Y14.802 E0.1295
G1 X13.816 Y14.715 E0.1436
G1 X13.994 Y13.995 E0.2608
G1 X14.018 Y13.916 E0.2738
G1 X14.276 Y13.201 E0.3938
G1 X14.306 Y13.130 E0.4060
G1 X14.637 Y12.432 E0.5280
G1 X14.672 Y12.366 E0.5398
G1 X15.060 Y11.712 E0.6600
G1 X15.080 Y11.681 E0.6659
G1 X23.432 Y-0.986 E3.0628
G1 X23.453 Y-1.016 E3.0686
G1 X23.898 Y-1.627 E3.1881
G1 X23.944 Y-1.685 E3.1998
G1 X24.454 Y-2.265 E3.3218
G1 X24.508 Y-2.320 E3.3340
G1 X25.063 Y-2.839 E3.4541
G1 X25.126 Y-2.892 E3.4670
G1 X25.717 Y-3.341 E3.5843
G1 X25.791 Y-3.391 E3.5984
G1 X26.410 Y-3.761 E3.7123
G1 X26.497 Y-3.806 E3.7278
G1 X27.137 Y-4.088 E3.8382
G1 X27.241 Y-4.125 E3.8557
G1 X27.892 Y-4.310 E3.9626
G1 X28.015 Y-4.335 E3.9825
G1 X28.668 Y-4.414 E4.0864
G1 X28.810 Y-4.419 E4.1089
G1 X29.453 Y-4.381 E4.2107
G1 X29.610 Y-4.356 E4.2358
G1 X30.225 Y-4.195 E4.3361
G1 X30.385 Y-4.134 E4.3633
G1 X30.909 Y-3.867 E4.4562
G1 X30.986 Y-3.822 E4.4703
G1 X39.217 Y1.605 E6.0278
G1 X39.288 Y1.658 E6.0418
G1 X39.740 Y2.033 E6.1346
G1 X39.860 Y2.156 E6.1618
G1 X40.250 Y2.657 E6.2621
G1 X40.335 Y2.792 E6.2873
G1 X40.624 Y3.367 E6.3890
G1 X40.676 Y3.500 E6.4116
G1 X40.861 Y4.131 E6.5154
G1 X40.887 Y4.254 E6.5353
G1 X40.974 Y4.925 E6.6422
G1 X40.981 Y5.036 E6.6597
G1 X40.974 Y5.734 E6.7701
G1 X40.967 Y5.833 E6.7856
G1 X40.872 Y6.544 E6.8990
G1 X40.855 Y6.631 E6.9129
G1 X40.676 Y7.351 E7.0302
G1 X40.653 Y7.429 E7.0431
G1 X40.395 Y8.144 E7.1631
G1 X40.365 Y8.215 E7.1754
G1 X40.034 Y8.913 E7.2974
G1 X39.999 Y8.979 E7.3092
G1 X39.610 Y9.633 E7.4294
G1 X39.591 Y9.664 E7.4352
G1 X31.239 Y22.330 E9.8321
G1 X31.218 Y22.361 E9.8379
G1 X30.773 Y22.972 E9.9575
G1 X30.727 Y23.030 E9.9692
G1 X30.216 Y23.610 E10.0912
G1 X30.162 Y23.665 E10.1034
G1 X29.607 Y24.184 E10.2234
G1 X29.545 Y24.237 E10.2364
G1 X28.954 Y24.686 E10.3537
G1 X28.880 Y24.736 E10.3677
G1 X28.260 Y25.106 E10.4817
G1 X28.173 Y25.151 E10.4972
G1 X27.534 Y25.433 E10.6076
G1 X27.430 Y25.470 E10.6251
G1 X26.779 Y25.655 E10.7320
G1 X26.656 Y25.680 E10.7518
G1 X26.003 Y25.759 E10.8558
G1 X25.860 Y25.763 E10.8783
G1 X25.217 Y25.726 E10.9800
G1 X25.060 Y25.701 E11.0052
G1 X24.446 Y25.540 E11.1055
G1 X24.285 Y25.479 E11.1327
G1 X23.762 Y25.212 E11.2255
G1 X23.684 Y25.167 E11.2396
G1 X15.454 Y19.740 E12.7972
G1 X15.383 Y19.687 E12.8111
G1 X14.933 Y19.314 E12.9034
G1 X14.814 Y19.191 E12.9304
G1 X14.423 Y18.691 E13.0307
G1 X14.338 Y18.557 E13.0558
G1 X14.049 Y17.982 E13.1576
G1 X13.997 Y17.849 E13.1801
G1 X13.811 Y17.218 E13.2840
G1 X13.785 Y17.095 E13.3039
G1 X13.697 Y16.424 E13.4108
G1 X13.691 Y16.313 E13.4283
G1 X13.697 Y15.615 E13.5386
G92 E0
G1 E-8.0000 F3000
G1 X6.801 Y11.429 F2400
G1 E0.0000 F3000
G92 E0
G1 X12.936 Y11.429 E0.9692 F240
G1 X14.438 Y9.143 E1.4013
G1 X8.302 Y9.143 E2.3706
G1 X9.803 Y6.857 E2.8026
G1 X15.940 Y6.857 E3.7721
G1 X17.441 Y4.571 E4.2042
G1 X11.304 Y4.571 E5.1738
G1 X12.805 Y2.286 E5.6058
G1 X18.943 Y2.286 E6.5755
G1 X20.445 Y0.000 E7.0076
G1 X14.306 Y0.000 E7.9774
G1 X15.807 Y-2.286 E8.4095
G1 X21.946 Y-2.286 E9.3794
G1 X23.448 Y-4.571 E9.8115
G1 X17.308 Y-4.571 E10.7816
G1 X18.809 Y-6.857 E11.2136
G1 X24.950 Y-6.857 E12.1839
G1 X26.452 Y-9.143 E12.6160
G1 X20.309 Y-9.143 E13.5863
G1 X21.810 Y-11.429 E14.0183
G1 X27.953 Y-11.429 E14.9888
G1 X29.455 Y-13.714 E15.4209
G1 X23.311 Y-13.714 E16.3915
G1 X24.812 Y-16.000 E16.8236
G1 X30.957 Y-16.000 E17.7943
G1 X32.459 Y-18.286 E18.2264
G1 X26.313 Y-18.286 E19.1973
G1 X27.814 Y-20.571 E19.6293
G1 X33.960 Y-20.571 E20.6003
G1 X34.758 Y-21.786 E20.8299
G1 X34.655 Y-22.405 E20.9290
G1 X34.069 Y-22.857 E21.0460
G1 X29.315 Y-22.857 E21.7970
G92 E0
G1 E-8.0000 F3000
G1 X25.650 Y-2.286 F2400
G1 E0.0000 F3000
G92 E0
G1 X31.863 Y-2.286 E0.9816 F240
G1 X35.330 Y0.000 E1.6376
G1 X23.740 Y0.000 E3.4685
G1 X22.233 Y2.286 E3.9011
G1 X38.792 Y2.286 E6.5172
G1 X38.794 Y2.287 E6.5175
G1 X39.196 Y2.621 E6.6000
G1 X39.255 Y2.682 E6.6136
G1 X39.595 Y3.118 E6.7009
G1 X39.638 Y3.185 E6.7134
G1 X39.892 Y3.694 E6.8032
G1 X39.918 Y3.760 E6.8145
G1 X40.085 Y4.327 E6.9078
G1 X40.098 Y4.388 E6.9177
G1 X40.121 Y4.571 E6.9469
G1 X20.726 Y4.571 E10.0111
G1 X19.219 Y6.857 E10.4437
G1 X39.975 Y6.857 E13.7228
G1 X39.905 Y7.138 E13.7685
G1 X39.893 Y7.177 E13.7750
G1 X39.649 Y7.854 E13.8887
G1 X39.634 Y7.890 E13.8948
G1 X39.319 Y8.553 E14.0108
G1 X39.302 Y8.587 E14.0167
G1 X38.971 Y9.143 E14.1190
G1 X17.712 Y9.143 E17.4776
G1 X16.205 Y11.429 E17.9102
G1 X37.469 Y11.429 E21.2696
G1 X35.962 Y13.714 E21.7022
G1 X14.941 Y13.714 E25.0231
G1 X14.778 Y14.168 E25.0993
G1 X14.766 Y14.207 E25.1058
G1 X14.597 Y14.886 E25.2163
G1 X14.589 Y14.929 E25.2233
G1 X14.500 Y15.598 E25.3298
G1 X14.497 Y15.647 E25.3376
G1 X14.494 Y16.000 E25.3934
G1 X34.455 Y16.000 E28.5469
G1 X32.948 Y18.286 E28.9795
G1 X15.121 Y18.286 E31.7958
G1 X15.418 Y18.665 E31.8718
G1 X15.478 Y18.726 E31.8853
G1 X15.877 Y19.058 E31.9673
G1 X15.912 Y19.084 E31.9743
G1 X18.168 Y20.571 E32.4012
G1 X31.440 Y20.571 E34.4980
G1 X30.576 Y21.882 E34.7461
G1 X30.566 Y21.897 E34.7489
G1 X30.137 Y22.487 E34.8641
G1 X30.114 Y22.515 E34.8699
G1 X29.813 Y22.857 E34.9419
