; G-Code generated by Simplify3D(R) Version 4.0.0
; Jan 26, 2018 at 4:08:50 AM
; Settings Summary
;   processName,Process1
;   applyToModels,barrelsideparts,barrelsideparts(2)
;   profileName,MP Mini Delta23 (modified)
;   profileVersion,2017-10-15 16:31:22
;   baseProfile,Monoprice MP Mini Delta
;   printMaterial,eSun PLA+ - Solid Red
;   printQuality,0.08
;   printExtruders,
;   extruderName,Primary Extruder
;   extruderToolheadNumber,0
;   extruderDiameter,0.4
;   extruderAutoWidth,0
;   extruderWidth,0.4
;   extrusionMultiplier,0.95
;   extruderUseRetract,1
;   extruderRetractionDistance,8
;   extruderExtraRestartDistance,0
;   extruderRetractionZLift,0
;   extruderRetractionSpeed,3000
;   extruderUseCoasting,0
;   extruderCoastingDistance,0.2
;   extruderUseWipe,0
;   extruderWipeDistance,5
;   primaryExtruder,0
;   layerHeight,0.1
;   topSolidLayers,8
;   bottomSolidLayers,3
;   perimeterOutlines,3
;   printPerimetersInsideOut,1
;   startPointOption,2
;   startPointOriginX,0
;   startPointOriginY,0
;   sequentialIslands,0
;   spiralVaseMode,0
;   firstLayerHeightPercentage,100
;   firstLayerWidthPercentage,100
;   firstLayerUnderspeed,0.4
;   useRaft,0
;   raftExtruder,0
;   raftTopLayers,3
;   raftBaseLayers,2
;   raftOffset,2
;   raftSeparationDistance,0.14
;   raftTopInfill,100
;   aboveRaftSpeedMultiplier,0.3
;   useSkirt,0
;   skirtExtruder,0
;   skirtLayers,3
;   skirtOutlines,5
;   skirtOffset,0
;   usePrimePillar,0
;   primePillarExtruder,999
;   primePillarWidth,6
;   primePillarLocation,0
;   primePillarSpeedMultiplier,1
;   useOozeShield,0
;   oozeShieldExtruder,999
;   oozeShieldOffset,2
;   oozeShieldOutlines,1
;   oozeShieldSidewallShape,1
;   oozeShieldSidewallAngle,30
;   oozeShieldSpeedMultiplier,1
;   infillExtruder,0
;   internalInfillPattern,Rectilinear
;   externalInfillPattern,Rectilinear
;   infillPercentage,20
;   outlineOverlapPercentage,45
;   infillExtrusionWidthPercentage,100
;   minInfillLength,5
;   infillLayerInterval,3
;   internalInfillAngles,45,-45
;   overlapInternalInfillAngles,0
;   externalInfillAngles,45,-45
;   generateSupport,1
;   supportExtruder,0
;   supportInfillPercentage,40
;   supportExtraInflation,0.2
;   supportBaseLayers,0
;   denseSupportExtruder,0
;   denseSupportLayers,0
;   denseSupportInfillPercentage,70
;   supportLayerInterval,3
;   supportHorizontalPartOffset,0.2
;   supportUpperSeparationLayers,1
;   supportLowerSeparationLayers,1
;   supportType,0
;   supportGridSpacing,1
;   maxOverhangAngle,45
;   supportAngles,0
;   temperatureName,Primary Extruder,Heated Bed
;   temperatureNumber,0,0
;   temperatureSetpointCount,1,1
;   temperatureSetpointLayers,1,1
;   temperatureSetpointTemperatures,195,30
;   temperatureStabilizeAtStartup,1,1
;   temperatureHeatedBed,0,1
;   temperatureRelayBetweenLayers,0,0
;   temperatureRelayBetweenLoops,0,0
;   fanLayers,1,2,3
;   fanSpeeds,0,60,100
;   blipFanToFullPower,1
;   adjustSpeedForCooling,1
;   minSpeedLayerTime,15
;   minCoolingSpeedSlowdown,20
;   increaseFanForCooling,0
;   minFanLayerTime,45
;   maxCoolingFanSpeed,100
;   increaseFanForBridging,0
;   bridgingFanSpeed,100
;   use5D,1
;   relativeEdistances,0
;   allowEaxisZeroing,1
;   independentExtruderAxes,0
;   includeM10123,0
;   stickySupport,1
;   applyToolheadOffsets,0
;   gcodeXoffset,0
;   gcodeYoffset,0
;   gcodeZoffset,0.23
;   overrideMachineDefinition,1
;   machineTypeOverride,1
;   strokeXoverride,77.8
;   strokeYoverride,77.8
;   strokeZoverride,120
;   originOffsetXoverride,38.9
;   originOffsetYoverride,38.9
;   originOffsetZoverride,0
;   homeXdirOverride,0
;   homeYdirOverride,0
;   homeZdirOverride,-1
;   flipXoverride,1
;   flipYoverride,-1
;   flipZoverride,1
;   toolheadOffsets,0,0|0,0|0,0|0,0|0,0|0,0
;   overrideFirmwareConfiguration,1
;   firmwareTypeOverride,RepRap (Marlin/Repetier/Sprinter)
;   GPXconfigOverride,r2
;   baudRateOverride,115200
;   overridePrinterModels,1
;   printerModelsOverride,MP_Mini_Delta_Platform.stl
;   startingGcode,G90 ; absolute positioning - this line was added in case Cura doesn't include it by default,M82 ; set extruder to absolute mode - this line was added in case Cura doesn't include it by default (may not be needed),M107; start with the fan off (I don't think this is possible),G28 ; Start from home position,G29 C-0.8 Z0.3 ; probe the bed at 3 points with a 0.3mm overall vertical offset and an additional -0.8mm center offset ,G1 Z15.0 F4800  ; move the nozzle up 15mm,G92 E0 ; reset extrusion distance,G1 F200 E3 ; extrude 3mm of feed stock,G92 E0 ; reset extrusion distance again,G1 F4800
;   layerChangeGcode,
;   retractionGcode,
;   toolChangeGcode,
;   endingGcode,M104 S0 ; turn off hotend heater,M140 S0 ; turn off bed heater,G91 ; Switch to use Relative Coordinates,G1 E-3 F700 ; retract the filament a bit before lifting the nozzle to release some of the pressure,G1 Z2 F1000 ; raise platform 2mm from current position,G1 E-2 F700 ; retract filament even more,G90 ; Switch back to using absolute coordinates,G28 X ; Return to home position. Without an X Y or Z after G28 the print completion time will not be displayed on the Mini Delta's display.,M84 ; disable motors,G4 S360 ; pause for 360 seconds to keep fan running to cool hotend and allow the fan to be turned off,M107 ; turn off fan. Some say M107 doesn't work for them but if the hotend is cool enough it should work,;M106 S1 ; turn off fan. Remove the semicolon in front of M106 if M107 doesn't work for you
;   exportFileFormat,gcode
;   celebration,0
;   celebrationSong,Random Song
;   postProcessing,
;   defaultSpeed,3200
;   outlineUnderspeed,1
;   solidInfillUnderspeed,1
;   supportUnderspeed,1
;   rapidXYspeed,3200
;   rapidZspeed,1002
;   minBridgingArea,50
;   bridgingExtraInflation,0
;   bridgingExtrusionMultiplier,1
;   bridgingSpeedMultiplier,1
;   useFixedBridgingAngle,0
;   fixedBridgingAngle,0
;   applyBridgingToPerimeters,0
;   filamentDiameters,1.75|1.75|1.75|1.75|1.75|1.75
;   filamentPricesPerKg,48|25|25|25|25|25
;   filamentDensities,1.25|1.25|1.25|1.25|1.25|1.25
;   useMinPrintHeight,0
;   minPrintHeight,42
;   useMaxPrintHeight,0
;   maxPrintHeight,0
;   useDiaphragm,0
;   diaphragmLayerInterval,20
;   robustSlicing,1
;   mergeAllIntoSolid,0
;   onlyRetractWhenCrossingOutline,1
;   retractBetweenLayers,1
;   useRetractionMinTravel,0
;   retractionMinTravel,3
;   retractWhileWiping,1
;   onlyWipeOutlines,1
;   avoidCrossingOutline,1
;   maxMovementDetourFactor,5
;   toolChangeRetractionDistance,12
;   toolChangeExtraRestartDistance,-0.5
;   toolChangeRetractionSpeed,600
;   externalThinWallType,1
;   internalThinWallType,1
;   thinWallAllowedOverlapPercentage,100
;   singleExtrusionMinLength,0.4
;   singleExtrusionMinPrintingWidthPercentage,50
;   singleExtrusionMaxPrintingWidthPercentage,200
;   singleExtrusionEndpointExtension,0.2
;   horizontalSizeCompensation,0
G90
M82
M106 S255
G4 P500
M106 S0
M140 S30
M190 S30
M104 S195 T0
M109 S195 T0
G90 ; absolute positioning - this line was added in case Cura doesn't include it by default
M82 ; set extruder to absolute mode - this line was added in case Cura doesn't include it by default (may not be needed)
M107; start with the fan off (I don't think this is possible)
G28 ; Start from home position
G29 C-0.8 Z0.3 ; probe the bed at 3 points with a 0.3mm overall vertical offset and an additional -0.8mm center offset 
G1 Z15.0 F4800  ; move the nozzle up 15mm
G92 E0 ; reset extrusion distance
G1 F200 E3 ; extrude 3mm of feed stock
G92 E0 ; reset extrusion distance again
G1 F4800
G92 E0
G1 E-8.0000 F3000
G1 Z0.330 F1002
; process Process1
; layer 1, Z = 0.100
T0
; tool H0.100 W0.400
; inner perimeter
G1 X-4.512 Y-2.665 F3200
G1 E0.0000 F900
G92 E0
G1 X-4.512 Y21.928 E0.3885 F1280
G1 X-5.769 Y21.696 E0.4087
G1 X-5.769 Y-17.223 E1.0236
G1 X-4.961 Y-17.558 E1.0374
G1 X-4.961 Y-2.677 E1.2725
G1 X-4.512 Y-2.665 E1.2796
G1 X-4.561 Y-3.066 F3200
G92 E0
G1 X-4.112 Y-3.053 E0.0071 F1280
G1 X-4.112 Y22.409 E0.4094
G1 X-6.169 Y22.029 E0.4424
G1 X-6.169 Y-17.490 E1.0667
G1 X-4.561 Y-18.157 E1.0942
G1 X-4.561 Y-3.066 E1.3327
; outer perimeter
G1 X-4.161 Y-3.455 F3200
G92 E0
G1 X-3.712 Y-3.442 E0.0071 F1280
G1 X-3.712 Y22.889 E0.4231
G1 X-6.569 Y22.362 E0.4690
G1 X-6.569 Y-17.758 E1.1028
G1 X-4.161 Y-18.756 E1.1440
G1 X-4.161 Y-3.455 E1.3857
; solid layer
G1 X-4.869 Y-2.455 F3200
G92 E0
G1 X-4.732 Y-2.318 E0.0031 F1280
G1 X-5.407 Y-17.135 F3200
G92 E0
G1 X-5.181 Y-16.909 E0.0051 F1280
G1 X-5.181 Y-16.343 E0.0140
G1 X-5.549 Y-16.711 E0.0222
G1 X-5.549 Y-16.145 E0.0311
G1 X-5.181 Y-15.777 E0.0394
G1 X-5.181 Y-15.212 E0.0483
G1 X-5.549 Y-15.580 E0.0565
G1 X-5.549 Y-15.014 E0.0655
G1 X-5.181 Y-14.646 E0.0737
G1 X-5.181 Y-14.080 E0.0826
G1 X-5.549 Y-14.448 E0.0908
G1 X-5.549 Y-13.882 E0.0998
G1 X-5.181 Y-13.515 E0.1080
G1 X-5.181 Y-12.949 E0.1169
G1 X-5.549 Y-13.317 E0.1251
G1 X-5.549 Y-12.751 E0.1341
G1 X-5.181 Y-12.383 E0.1423
G1 X-5.181 Y-11.818 E0.1512
G1 X-5.549 Y-12.185 E0.1595
G1 X-5.549 Y-11.620 E0.1684
G1 X-5.181 Y-11.252 E0.1766
G1 X-5.181 Y-10.686 E0.1856
G1 X-5.549 Y-11.054 E0.1938
G1 X-5.549 Y-10.488 E0.2027
G1 X-5.181 Y-10.121 E0.2109
G1 X-5.181 Y-9.555 E0.2199
G1 X-5.549 Y-9.923 E0.2281
G1 X-5.549 Y-9.357 E0.2370
G1 X-5.181 Y-8.989 E0.2452
G1 X-5.181 Y-8.423 E0.2542
G1 X-5.549 Y-8.791 E0.2624
G1 X-5.549 Y-8.226 E0.2713
G1 X-5.181 Y-7.858 E0.2795
G1 X-5.181 Y-7.292 E0.2885
G1 X-5.549 Y-7.660 E0.2967
G1 X-5.549 Y-7.094 E0.3056
G1 X-5.181 Y-6.726 E0.3139
G1 X-5.181 Y-6.161 E0.3228
G1 X-5.549 Y-6.529 E0.3310
G1 X-5.549 Y-5.963 E0.3400
G1 X-5.181 Y-5.595 E0.3482
G1 X-5.181 Y-5.029 E0.3571
G1 X-5.549 Y-5.397 E0.3653
G1 X-5.549 Y-4.832 E0.3743
G1 X-5.181 Y-4.464 E0.3825
G1 X-5.181 Y-3.898 E0.3914
G1 X-5.549 Y-4.266 E0.3996
G1 X-5.549 Y-3.700 E0.4086
G1 X-5.181 Y-3.332 E0.4168
G1 X-5.181 Y-2.767 E0.4257
G1 X-5.549 Y-3.134 E0.4340
G1 X-5.549 Y-2.569 E0.4429
G1 X-4.732 Y-1.752 E0.4611
G1 X-4.732 Y-1.186 E0.4701
G1 X-5.549 Y-2.003 E0.4883
G1 X-5.549 Y-1.437 E0.4973
G1 X-4.732 Y-0.621 E0.5155
G1 X-4.732 Y-0.055 E0.5244
G1 X-5.549 Y-0.872 E0.5427
G1 X-5.549 Y-0.306 E0.5516
G1 X-4.732 Y0.511 E0.5699
G1 X-4.732 Y1.076 E0.5788
G1 X-5.549 Y0.260 E0.5970
G1 X-5.549 Y0.825 E0.6060
G1 X-4.732 Y1.642 E0.6242
G1 X-4.732 Y2.208 E0.6332
G1 X-5.549 Y1.391 E0.6514
G1 X-5.549 Y1.957 E0.6603
G1 X-4.732 Y2.773 E0.6786
G1 X-4.732 Y3.339 E0.6875
G1 X-5.549 Y2.522 E0.7058
G1 X-5.549 Y3.088 E0.7147
G1 X-4.732 Y3.905 E0.7330
G1 X-4.732 Y4.470 E0.7419
G1 X-5.549 Y3.654 E0.7601
G1 X-5.549 Y4.219 E0.7691
G1 X-4.732 Y5.036 E0.7873
G1 X-4.732 Y5.602 E0.7963
G1 X-5.549 Y4.785 E0.8145
G1 X-5.549 Y5.351 E0.8234
G1 X-4.732 Y6.167 E0.8417
G1 X-4.732 Y6.733 E0.8506
G1 X-5.549 Y5.916 E0.8689
G1 X-5.549 Y6.482 E0.8778
G1 X-4.732 Y7.299 E0.8961
G1 X-4.732 Y7.864 E0.9050
G1 X-5.549 Y7.048 E0.9232
G1 X-5.549 Y7.614 E0.9322
G1 X-4.732 Y8.430 E0.9504
G1 X-4.732 Y8.996 E0.9594
G1 X-5.549 Y8.179 E0.9776
G1 X-5.549 Y8.745 E0.9865
G1 X-4.732 Y9.562 E1.0048
G1 X-4.732 Y10.127 E1.0137
G1 X-5.549 Y9.311 E1.0320
G1 X-5.549 Y9.876 E1.0409
G1 X-4.732 Y10.693 E1.0591
G1 X-4.732 Y11.259 E1.0681
G1 X-5.549 Y10.442 E1.0863
G1 X-5.549 Y11.008 E1.0953
G1 X-4.732 Y11.824 E1.1135
G1 X-4.732 Y12.390 E1.1224
G1 X-5.549 Y11.573 E1.1407
G1 X-5.549 Y12.139 E1.1496
G1 X-4.732 Y12.956 E1.1679
G1 X-4.732 Y13.521 E1.1768
G1 X-5.549 Y12.705 E1.1951
G1 X-5.549 Y13.270 E1.2040
G1 X-4.732 Y14.087 E1.2222
G1 X-4.732 Y14.653 E1.2312
G1 X-5.549 Y13.836 E1.2494
G1 X-5.549 Y14.402 E1.2584
G1 X-4.732 Y15.218 E1.2766
G1 X-4.732 Y15.784 E1.2855
G1 X-5.549 Y14.967 E1.3038
G1 X-5.549 Y15.533 E1.3127
G1 X-4.732 Y16.350 E1.3310
G1 X-4.732 Y16.915 E1.3399
G1 X-5.549 Y16.099 E1.3582
G1 X-5.549 Y16.665 E1.3671
G1 X-4.732 Y17.481 E1.3853
G1 X-4.732 Y18.047 E1.3943
G1 X-5.549 Y17.230 E1.4125
G1 X-5.549 Y17.796 E1.4215
G1 X-4.732 Y18.613 E1.4397
G1 X-4.732 Y19.178 E1.4486
G1 X-5.549 Y18.362 E1.4669
G1 X-5.549 Y18.927 E1.4758
G1 X-4.732 Y19.744 E1.4941
G1 X-4.732 Y20.310 E1.5030
G1 X-5.549 Y19.493 E1.5212
G1 X-5.549 Y20.059 E1.5302
G1 X-4.732 Y20.875 E1.5484
G1 X-4.732 Y21.441 E1.5574
G1 X-5.549 Y20.624 E1.5756
G1 X-5.549 Y21.190 E1.5845
G1 X-5.153 Y21.586 E1.5934
G92 E0
G1 E-8.0000 F3000
; inner perimeter
G1 X2.527 Y19.564 F3200
G1 E0.0000 F3000
G92 E0
G1 X5.141 Y16.842 E0.0596 F1280
G1 X9.719 Y16.743 E0.1320
G1 X9.728 Y16.820 E0.1332
G1 X10.065 Y17.848 E0.1503
G1 X10.595 Y18.791 E0.1674
G1 X11.099 Y19.380 E0.1796
G1 X2.527 Y19.564 E0.3151
G92 E0
G1 E-8.0000 F3000
G1 X19.292 Y19.203 F3200
G1 E0.0000 F3000
G92 E0
G1 X19.771 Y18.593 E0.0122 F1280
G1 X20.260 Y17.628 E0.0293
G1 X20.552 Y16.586 E0.0464
G1 X20.558 Y16.510 E0.0476
G1 X24.192 Y16.431 E0.1051
G1 X24.637 Y16.394 E0.1121
G1 X25.120 Y16.299 E0.1199
G1 X25.601 Y16.154 E0.1278
G1 X26.075 Y15.963 E0.1359
G1 X26.535 Y15.732 E0.1441
G1 X26.975 Y15.462 E0.1522
G1 X27.386 Y15.159 E0.1603
G1 X27.763 Y14.827 E0.1682
G1 X28.098 Y14.466 E0.1760
G1 X28.364 Y14.107 E0.1830
G1 X28.756 Y13.503 E0.1944
G1 X28.688 Y14.386 E0.2084
G1 X28.817 Y15.460 E0.2255
G1 X29.154 Y16.488 E0.2426
G1 X29.684 Y17.431 E0.2597
G1 X30.389 Y18.252 E0.2768
G1 X31.239 Y18.921 E0.2939
G1 X31.286 Y18.944 E0.2947
G1 X19.292 Y19.203 E0.4842
G1 X33.363 Y18.899 F3200
G1 X33.387 Y18.906 F3200
G1 X34.308 Y18.977 F3200
G1 X35.225 Y18.866 F3200
G1 X35.248 Y18.859 F3200
G1 X37.325 Y18.814 F3200
G92 E0
G1 X37.371 Y18.788 E0.0008 F1280
G1 X38.192 Y18.084 E0.0179
G1 X38.860 Y17.233 E0.0350
G1 X39.349 Y16.268 E0.0521
G1 X39.641 Y15.228 E0.0692
G1 X39.724 Y14.148 E0.0863
G1 X39.595 Y13.073 E0.1034
G1 X39.258 Y12.045 E0.1205
G1 X38.728 Y11.102 E0.1376
G1 X38.024 Y10.281 E0.1547
G1 X37.817 Y10.118 E0.1588
G1 X38.692 Y10.099 E0.1726
G1 X43.384 Y15.017 E0.2800
G1 X40.115 Y18.754 E0.3585
G1 X37.325 Y18.814 E0.4025
G1 X37.140 Y18.459 F3200
G92 E0
G1 X37.902 Y17.806 E0.0158 F1280
G1 X38.521 Y17.017 E0.0317
G1 X38.975 Y16.122 E0.0475
G1 X39.245 Y15.158 E0.0634
G1 X39.322 Y14.156 E0.0792
G1 X39.202 Y13.160 E0.0951
G1 X38.890 Y12.207 E0.1109
G1 X38.399 Y11.332 E0.1268
G1 X37.746 Y10.571 E0.1426
G1 X36.957 Y9.951 E0.1585
G1 X36.550 Y9.745 E0.1657
G1 X38.860 Y9.696 E0.2022
G1 X43.925 Y15.005 E0.3181
G1 X40.300 Y19.150 E0.4051
G1 X35.330 Y19.257 E0.4836
G1 X36.266 Y18.951 E0.4992
G1 X37.140 Y18.459 E0.5150
G1 X33.298 Y19.301 F3200
G92 E0
G1 X18.278 Y19.625 E0.2374 F1280
G1 X18.812 Y19.166 E0.2485
G1 X19.432 Y18.377 E0.2643
G1 X19.886 Y17.483 E0.2802
G1 X20.156 Y16.517 E0.2960
G1 X20.187 Y16.118 E0.3024
G1 X24.171 Y16.032 E0.3653
G1 X24.582 Y15.997 E0.3718
G1 X25.024 Y15.910 E0.3789
G1 X25.469 Y15.776 E0.3863
G1 X25.910 Y15.598 E0.3938
G1 X26.341 Y15.382 E0.4014
G1 X26.751 Y15.130 E0.4090
G1 X27.135 Y14.848 E0.4165
G1 X27.483 Y14.540 E0.4239
G1 X27.790 Y14.210 E0.4310
G1 X28.035 Y13.879 E0.4375
G1 X30.636 Y9.873 E0.5130
G1 X31.669 Y9.851 E0.5293
G1 X31.272 Y10.074 E0.5365
G1 X30.510 Y10.727 E0.5523
G1 X29.891 Y11.516 E0.5682
G1 X29.437 Y12.411 E0.5840
G1 X29.167 Y13.377 E0.5999
G1 X29.090 Y14.377 E0.6157
G1 X29.210 Y15.373 E0.6316
G1 X29.522 Y16.326 E0.6474
G1 X30.014 Y17.201 E0.6633
G1 X30.667 Y17.962 E0.6791
G1 X31.456 Y18.582 E0.6950
G1 X32.350 Y19.035 E0.7108
G1 X33.298 Y19.301 E0.7264
G92 E0
G1 E-8.0000 F3000
G1 X12.131 Y19.757 F3200
G1 E0.0000 F3000
G92 E0
G1 X1.568 Y19.985 E0.1669 F1280
G1 X4.967 Y16.446 E0.2444
G1 X10.073 Y16.336 E0.3251
G1 X10.121 Y16.733 E0.3315
G1 X10.432 Y17.687 E0.3473
G1 X10.924 Y18.561 E0.3632
G1 X11.577 Y19.322 E0.3790
G1 X12.131 Y19.757 E0.3901
; outer perimeter
G1 X12.582 Y19.603 F3200
G92 E0
G1 X13.407 Y20.021 E0.0146 F1280
G1 X13.768 Y20.122 E0.0205
G1 X0.610 Y20.406 E0.2285
G1 X4.743 Y16.101 E0.3228
G1 X4.794 Y16.049 E0.3239
G1 X10.427 Y15.928 E0.4129
G1 X10.513 Y16.646 E0.4243
G1 X10.800 Y17.525 E0.4389
G1 X11.254 Y18.330 E0.4535
G1 X11.855 Y19.032 E0.4681
G1 X12.582 Y19.603 E0.4827
G92 E0
G1 E-8.0000 F3000
G1 X16.658 Y20.060 F3200
G1 E0.0000 F3000
G92 E0
G1 X17.015 Y19.943 E0.0059 F1280
G1 X17.820 Y19.490 E0.0205
G1 X18.522 Y18.888 E0.0351
G1 X19.093 Y18.161 E0.0497
G1 X19.511 Y17.337 E0.0643
G1 X19.760 Y16.447 E0.0789
