; G-Code generated by Simplify3D(R) Version 4.0.0
; Jan 26, 2018 at 6:27:19 PM
; Settings Summary
;   processName,Process1
;   applyToModels,barrelsideparts
;   profileName,MP Mini Delta23 (modified)
;   profileVersion,2017-10-15 16:31:22
;   baseProfile,Monoprice MP Mini Delta
;   printMaterial,eSun PLA+ - Solid Red
;   printQuality,0.08
;   printExtruders,
;   extruderName,Primary Extruder
;   extruderToolheadNumber,0
;   extruderDiameter,0.4
;   extruderAutoWidth,0
;   extruderWidth,0.4
;   extrusionMultiplier,0.95
;   extruderUseRetract,1
;   extruderRetractionDistance,8
;   extruderExtraRestartDistance,0
;   extruderRetractionZLift,0
;   extruderRetractionSpeed,3000
;   extruderUseCoasting,0
;   extruderCoastingDistance,0.2
;   extruderUseWipe,0
;   extruderWipeDistance,5
;   primaryExtruder,0
;   layerHeight,0.1
;   topSolidLayers,8
;   bottomSolidLayers,3
;   perimeterOutlines,3
;   printPerimetersInsideOut,1
;   startPointOption,2
;   startPointOriginX,0
;   startPointOriginY,0
;   sequentialIslands,0
;   spiralVaseMode,0
;   firstLayerHeightPercentage,100
;   firstLayerWidthPercentage,100
;   firstLayerUnderspeed,0.4
;   useRaft,0
;   raftExtruder,0
;   raftTopLayers,3
;   raftBaseLayers,2
;   raftOffset,2
;   raftSeparationDistance,0.14
;   raftTopInfill,100
;   aboveRaftSpeedMultiplier,0.3
;   useSkirt,0
;   skirtExtruder,0
;   skirtLayers,3
;   skirtOutlines,5
;   skirtOffset,0
;   usePrimePillar,0
;   primePillarExtruder,999
;   primePillarWidth,6
;   primePillarLocation,0
;   primePillarSpeedMultiplier,1
;   useOozeShield,0
;   oozeShieldExtruder,999
;   oozeShieldOffset,2
;   oozeShieldOutlines,1
;   oozeShieldSidewallShape,1
;   oozeShieldSidewallAngle,30
;   oozeShieldSpeedMultiplier,1
;   infillExtruder,0
;   internalInfillPattern,Rectilinear
;   externalInfillPattern,Rectilinear
;   infillPercentage,20
;   outlineOverlapPercentage,45
;   infillExtrusionWidthPercentage,100
;   minInfillLength,5
;   infillLayerInterval,3
;   internalInfillAngles,45,-45
;   overlapInternalInfillAngles,0
;   externalInfillAngles,45,-45
;   generateSupport,1
;   supportExtruder,0
;   supportInfillPercentage,40
;   supportExtraInflation,0.2
;   supportBaseLayers,0
;   denseSupportExtruder,0
;   denseSupportLayers,0
;   denseSupportInfillPercentage,70
;   supportLayerInterval,3
;   supportHorizontalPartOffset,0.2
;   supportUpperSeparationLayers,1
;   supportLowerSeparationLayers,1
;   supportType,0
;   supportGridSpacing,1
;   maxOverhangAngle,45
;   supportAngles,0
;   temperatureName,Primary Extruder,Heated Bed
;   temperatureNumber,0,0
;   temperatureSetpointCount,1,1
;   temperatureSetpointLayers,1,1
;   temperatureSetpointTemperatures,195,30
;   temperatureStabilizeAtStartup,1,1
;   temperatureHeatedBed,0,1
;   temperatureRelayBetweenLayers,0,0
;   temperatureRelayBetweenLoops,0,0
;   fanLayers,1,2,3
;   fanSpeeds,0,60,100
;   blipFanToFullPower,1
;   adjustSpeedForCooling,1
;   minSpeedLayerTime,15
;   minCoolingSpeedSlowdown,20
;   increaseFanForCooling,0
;   minFanLayerTime,45
;   maxCoolingFanSpeed,100
;   increaseFanForBridging,0
;   bridgingFanSpeed,100
;   use5D,1
;   relativeEdistances,0
;   allowEaxisZeroing,1
;   independentExtruderAxes,0
;   includeM10123,0
;   stickySupport,1
;   applyToolheadOffsets,0
;   gcodeXoffset,0
;   gcodeYoffset,0
;   gcodeZoffset,0.25
;   overrideMachineDefinition,1
;   machineTypeOverride,1
;   strokeXoverride,77.8
;   strokeYoverride,77.8
;   strokeZoverride,120
;   originOffsetXoverride,38.9
;   originOffsetYoverride,38.9
;   originOffsetZoverride,0
;   homeXdirOverride,0
;   homeYdirOverride,0
;   homeZdirOverride,-1
;   flipXoverride,1
;   flipYoverride,-1
;   flipZoverride,1
;   toolheadOffsets,0,0|0,0|0,0|0,0|0,0|0,0
;   overrideFirmwareConfiguration,1
;   firmwareTypeOverride,RepRap (Marlin/Repetier/Sprinter)
;   GPXconfigOverride,r2
;   baudRateOverride,115200
;   overridePrinterModels,1
;   printerModelsOverride,MP_Mini_Delta_Platform.stl
;   startingGcode,G90 ; absolute positioning - this line was added in case Cura doesn't include it by default,M82 ; set extruder to absolute mode - this line was added in case Cura doesn't include it by default (may not be needed),M107; start with the fan off (I don't think this is possible),G28 ; Start from home position,G29 C-0.8 Z0.3 ; probe the bed at 3 points with a 0.3mm overall vertical offset and an additional -0.8mm center offset ,G1 Z15.0 F4800  ; move the nozzle up 15mm,G92 E0 ; reset extrusion distance,G1 F200 E3 ; extrude 3mm of feed stock,G92 E0 ; reset extrusion distance again,G1 F4800
;   layerChangeGcode,
;   retractionGcode,
;   toolChangeGcode,
;   endingGcode,M104 S0 ; turn off hotend heater,M140 S0 ; turn off bed heater,G91 ; Switch to use Relative Coordinates,G1 E-3 F700 ; retract the filament a bit before lifting the nozzle to release some of the pressure,G1 Z2 F1000 ; raise platform 2mm from current position,G1 E-2 F700 ; retract filament even more,G90 ; Switch back to using absolute coordinates,G28 X ; Return to home position. Without an X Y or Z after G28 the print completion time will not be displayed on the Mini Delta's display.,M84 ; disable motors,G4 S360 ; pause for 360 seconds to keep fan running to cool hotend and allow the fan to be turned off,M107 ; turn off fan. Some say M107 doesn't work for them but if the hotend is cool enough it should work,;M106 S1 ; turn off fan. Remove the semicolon in front of M106 if M107 doesn't work for you
;   exportFileFormat,gcode
;   celebration,0
;   celebrationSong,Random Song
;   postProcessing,
;   defaultSpeed,1800
;   outlineUnderspeed,1
;   solidInfillUnderspeed,1
;   supportUnderspeed,1
;   rapidXYspeed,1800
;   rapidZspeed,1002
;   minBridgingArea,50
;   bridgingExtraInflation,0
;   bridgingExtrusionMultiplier,1
;   bridgingSpeedMultiplier,1
;   useFixedBridgingAngle,0
;   fixedBridgingAngle,0
;   applyBridgingToPerimeters,0
;   filamentDiameters,1.75|1.75|1.75|1.75|1.75|1.75
;   filamentPricesPerKg,48|25|25|25|25|25
;   filamentDensities,1.25|1.25|1.25|1.25|1.25|1.25
;   useMinPrintHeight,0
;   minPrintHeight,42
;   useMaxPrintHeight,0
;   maxPrintHeight,0
;   useDiaphragm,0
;   diaphragmLayerInterval,20
;   robustSlicing,1
;   mergeAllIntoSolid,0
;   onlyRetractWhenCrossingOutline,1
;   retractBetweenLayers,1
;   useRetractionMinTravel,0
;   retractionMinTravel,3
;   retractWhileWiping,1
;   onlyWipeOutlines,1
;   avoidCrossingOutline,1
;   maxMovementDetourFactor,5
;   toolChangeRetractionDistance,12
;   toolChangeExtraRestartDistance,-0.5
;   toolChangeRetractionSpeed,600
;   externalThinWallType,1
;   internalThinWallType,1
;   thinWallAllowedOverlapPercentage,100
;   singleExtrusionMinLength,0.4
;   singleExtrusionMinPrintingWidthPercentage,50
;   singleExtrusionMaxPrintingWidthPercentage,200
;   singleExtrusionEndpointExtension,0.2
;   horizontalSizeCompensation,0
G90
M82
M106 S255
G4 P500
M106 S0
M140 S30
M190 S30
M104 S195 T0
M109 S195 T0
G90 ; absolute positioning - this line was added in case Cura doesn't include it by default
M82 ; set extruder to absolute mode - this line was added in case Cura doesn't include it by default (may not be needed)
M107; start with the fan off (I don't think this is possible)
G28 ; Start from home position
G29 C-0.8 Z0.3 ; probe the bed at 3 points with a 0.3mm overall vertical offset and an additional -0.8mm center offset 
G1 Z15.0 F4800  ; move the nozzle up 15mm
G92 E0 ; reset extrusion distance
G1 F200 E3 ; extrude 3mm of feed stock
G92 E0 ; reset extrusion distance again
G1 F4800
G92 E0
G1 E-8.0000 F3000
G1 Z0.350 F1002
; process Process1
; layer 1, Z = 0.100
T0
; tool H0.100 W0.400
; inner perimeter
G1 X-8.141 Y3.224 F1800
G1 E0.0000 F900
G92 E0
G1 X-7.882 Y3.910 E0.0116 F720
G1 X-7.763 Y4.634 E0.0232
G1 X-7.787 Y5.367 E0.0347
G1 X-7.953 Y6.081 E0.0463
G1 X-8.256 Y6.748 E0.0579
G1 X-8.683 Y7.344 E0.0695
G1 X-9.218 Y7.846 E0.0811
G1 X-9.841 Y8.233 E0.0927
G1 X-10.527 Y8.491 E0.1042
G1 X-11.250 Y8.610 E0.1158
G1 X-11.983 Y8.587 E0.1274
G1 X-12.697 Y8.420 E0.1390
G1 X-13.365 Y8.117 E0.1506
G1 X-13.961 Y7.690 E0.1622
G1 X-14.462 Y7.155 E0.1737
G1 X-14.849 Y6.533 E0.1853
G1 X-15.108 Y5.846 E0.1969
G1 X-15.227 Y5.123 E0.2085
G1 X-15.203 Y4.390 E0.2201
G1 X-15.036 Y3.676 E0.2317
G1 X-14.734 Y3.008 E0.2432
G1 X-14.307 Y2.413 E0.2548
G1 X-13.772 Y1.911 E0.2664
G1 X-13.149 Y1.524 E0.2780
G1 X-12.463 Y1.266 E0.2896
G1 X-11.740 Y1.146 E0.3012
G1 X-11.007 Y1.170 E0.3127
G1 X-10.293 Y1.337 E0.3243
G1 X-9.625 Y1.640 E0.3359
G1 X-9.029 Y2.067 E0.3475
G1 X-8.528 Y2.602 E0.3591
G1 X-8.141 Y3.224 E0.3707
; outer perimeter
G1 X-7.780 Y3.047 F1800
G92 E0
G1 X-7.494 Y3.806 E0.0128 F720
G1 X-7.362 Y4.608 E0.0257
G1 X-7.388 Y5.419 E0.0385
G1 X-7.573 Y6.210 E0.0513
G1 X-7.908 Y6.949 E0.0641
G1 X-8.381 Y7.609 E0.0770
G1 X-8.973 Y8.165 E0.0898
G1 X-9.663 Y8.593 E0.1026
G1 X-10.423 Y8.879 E0.1155
G1 X-11.224 Y9.012 E0.1283
G1 X-12.036 Y8.985 E0.1411
G1 X-12.826 Y8.801 E0.1539
G1 X-13.566 Y8.466 E0.1668
G1 X-14.226 Y7.993 E0.1796
G1 X-14.781 Y7.400 E0.1924
G1 X-15.210 Y6.710 E0.2052
G1 X-15.496 Y5.951 E0.2181
G1 X-15.628 Y5.149 E0.2309
G1 X-15.601 Y4.338 E0.2437
G1 X-15.417 Y3.547 E0.2566
G1 X-15.082 Y2.808 E0.2694
G1 X-14.609 Y2.147 E0.2822
G1 X-14.016 Y1.592 E0.2950
G1 X-13.327 Y1.164 E0.3079
G1 X-12.567 Y0.878 E0.3207
G1 X-11.766 Y0.745 E0.3335
G1 X-10.954 Y0.772 E0.3464
G1 X-10.164 Y0.956 E0.3592
G1 X-9.424 Y1.291 E0.3720
G1 X-8.764 Y1.764 E0.3848
G1 X-8.209 Y2.357 E0.3977
G1 X-7.780 Y3.047 E0.4105
; inner perimeter
G1 X-8.284 Y3.295 F1800
G92 E0
G1 X-8.655 Y2.699 E0.0111 F720
G1 X-9.134 Y2.187 E0.0222
G1 X-9.705 Y1.778 E0.0333
G1 X-10.344 Y1.488 E0.0444
G1 X-11.028 Y1.329 E0.0554
G1 X-11.729 Y1.306 E0.0665
G1 X-12.422 Y1.420 E0.0776
G1 X-13.078 Y1.667 E0.0887
G1 X-13.674 Y2.038 E0.0998
G1 X-14.187 Y2.518 E0.1109
G1 X-14.595 Y3.088 E0.1220
G1 X-14.885 Y3.728 E0.1331
G1 X-15.044 Y4.411 E0.1441
G1 X-15.067 Y5.113 E0.1552
G1 X-14.953 Y5.805 E0.1663
G1 X-14.706 Y6.462 E0.1774
G1 X-14.335 Y7.058 E0.1885
G1 X-13.856 Y7.570 E0.1996
G1 X-13.285 Y7.979 E0.2107
G1 X-12.646 Y8.269 E0.2218
G1 X-11.962 Y8.428 E0.2329
G1 X-11.261 Y8.451 E0.2439
G1 X-10.568 Y8.337 E0.2550
G1 X-9.911 Y8.089 E0.2661
G1 X-9.315 Y7.719 E0.2772
G1 X-8.803 Y7.239 E0.2883
G1 X-8.394 Y6.669 E0.2994
G1 X-8.105 Y6.029 E0.3105
G1 X-7.945 Y5.346 E0.3216
G1 X-7.922 Y4.644 E0.3326
G1 X-8.037 Y3.952 E0.3437
G1 X-8.284 Y3.295 E0.3548
; outer perimeter
G1 X-8.644 Y3.473 F1800
G92 E0
G1 X-8.973 Y2.944 E0.0098 F720
G1 X-9.399 Y2.489 E0.0197
G1 X-9.906 Y2.126 E0.0295
G1 X-10.473 Y1.869 E0.0394
G1 X-11.080 Y1.727 E0.0492
G1 X-11.703 Y1.707 E0.0591
G1 X-12.318 Y1.808 E0.0689
G1 X-12.901 Y2.028 E0.0787
G1 X-13.430 Y2.357 E0.0886
G1 X-13.884 Y2.783 E0.0984
G1 X-14.247 Y3.289 E0.1083
G1 X-14.505 Y3.857 E0.1181
G1 X-14.646 Y4.464 E0.1280
G1 X-14.666 Y5.086 E0.1378
G1 X-14.565 Y5.701 E0.1476
G1 X-14.345 Y6.284 E0.1575
G1 X-14.016 Y6.813 E0.1673
G1 X-13.591 Y7.268 E0.1772
G1 X-13.084 Y7.631 E0.1870
G1 X-12.517 Y7.888 E0.1969
G1 X-11.910 Y8.030 E0.2067
G1 X-11.287 Y8.050 E0.2166
G1 X-10.672 Y7.948 E0.2264
G1 X-10.089 Y7.729 E0.2362
G1 X-9.560 Y7.400 E0.2461
G1 X-9.105 Y6.974 E0.2559
G1 X-8.742 Y6.468 E0.2658
G1 X-8.485 Y5.900 E0.2756
G1 X-8.344 Y5.293 E0.2855
G1 X-8.323 Y4.671 E0.2953
G1 X-8.425 Y4.056 E0.3051
G1 X-8.644 Y3.473 E0.3150
G92 E0
G1 E-8.0000 F3000
; inner perimeter
G1 X-10.448 Y4.362 F1800
G1 E0.0000 F3000
G92 E0
G1 X-10.367 Y4.576 E0.0036 F720
G1 X-10.330 Y4.802 E0.0072
G1 X-10.338 Y5.031 E0.0108
G1 X-10.390 Y5.254 E0.0145
G1 X-10.484 Y5.462 E0.0181
G1 X-10.617 Y5.648 E0.0217
G1 X-10.784 Y5.804 E0.0253
G1 X-10.979 Y5.925 E0.0289
G1 X-11.193 Y6.006 E0.0325
G1 X-11.419 Y6.043 E0.0361
G1 X-11.647 Y6.036 E0.0398
G1 X-11.870 Y5.984 E0.0434
G1 X-12.079 Y5.889 E0.0470
G1 X-12.265 Y5.756 E0.0506
G1 X-12.421 Y5.589 E0.0542
G1 X-12.542 Y5.395 E0.0578
G1 X-12.622 Y5.181 E0.0615
G1 X-12.660 Y4.955 E0.0651
G1 X-12.652 Y4.726 E0.0687
G1 X-12.600 Y4.503 E0.0723
G1 X-12.506 Y4.295 E0.0759
G1 X-12.372 Y4.109 E0.0795
G1 X-12.205 Y3.952 E0.0831
G1 X-12.011 Y3.832 E0.0868
G1 X-11.797 Y3.751 E0.0904
G1 X-11.571 Y3.714 E0.0940
G1 X-11.343 Y3.721 E0.0976
G1 X-11.120 Y3.773 E0.1012
G1 X-10.911 Y3.868 E0.1048
G1 X-10.725 Y4.001 E0.1084
G1 X-10.569 Y4.168 E0.1121
G1 X-10.448 Y4.362 E0.1157
G1 X-10.088 Y4.184 F1800
G92 E0
G1 X-9.979 Y4.472 E0.0049 F720
G1 X-9.929 Y4.776 E0.0097
G1 X-9.939 Y5.083 E0.0146
G1 X-10.009 Y5.383 E0.0194
G1 X-10.136 Y5.663 E0.0243
G1 X-10.315 Y5.913 E0.0292
G1 X-10.540 Y6.123 E0.0340
G1 X-10.801 Y6.286 E0.0389
G1 X-11.089 Y6.394 E0.0437
G1 X-11.392 Y6.444 E0.0486
G1 X-11.700 Y6.434 E0.0535
G1 X-11.999 Y6.364 E0.0583
G1 X-12.280 Y6.237 E0.0632
G1 X-12.530 Y6.058 E0.0680
G1 X-12.740 Y5.834 E0.0729
G1 X-12.902 Y5.572 E0.0778
G1 X-13.011 Y5.285 E0.0826
G1 X-13.061 Y4.981 E0.0875
G1 X-13.051 Y4.674 E0.0923
G1 X-12.981 Y4.374 E0.0972
G1 X-12.854 Y4.094 E0.1021
G1 X-12.675 Y3.844 E0.1069
G1 X-12.450 Y3.634 E0.1118
G1 X-12.189 Y3.471 E0.1166
G1 X-11.901 Y3.363 E0.1215
G1 X-11.598 Y3.313 E0.1264
G1 X-11.290 Y3.323 E0.1312
G1 X-10.991 Y3.393 E0.1361
G1 X-10.710 Y3.520 E0.1409
G1 X-10.460 Y3.699 E0.1458
G1 X-10.250 Y3.923 E0.1507
G1 X-10.088 Y4.184 E0.1555
; outer perimeter
G1 X-9.727 Y4.007 F1800
G92 E0
G1 X-9.591 Y4.368 E0.0061 F720
G1 X-9.528 Y4.750 E0.0122
G1 X-9.541 Y5.136 E0.0183
G1 X-9.628 Y5.512 E0.0244
G1 X-9.788 Y5.864 E0.0305
G1 X-10.013 Y6.178 E0.0366
G1 X-10.295 Y6.442 E0.0427
G1 X-10.623 Y6.646 E0.0488
G1 X-10.985 Y6.782 E0.0549
G1 X-11.366 Y6.845 E0.0610
G1 X-11.752 Y6.833 E0.0671
G1 X-12.129 Y6.745 E0.0733
G1 X-12.480 Y6.585 E0.0794
G1 X-12.795 Y6.360 E0.0855
G1 X-13.059 Y6.078 E0.0916
G1 X-13.263 Y5.750 E0.0977
G1 X-13.399 Y5.389 E0.1038
G1 X-13.462 Y5.007 E0.1099
G1 X-13.449 Y4.621 E0.1160
G1 X-13.361 Y4.245 E0.1221
G1 X-13.202 Y3.893 E0.1282
G1 X-12.977 Y3.579 E0.1343
G1 X-12.695 Y3.315 E0.1404
G1 X-12.367 Y3.111 E0.1465
G1 X-12.005 Y2.975 E0.1526
G1 X-11.624 Y2.912 E0.1587
G1 X-11.238 Y2.924 E0.1648
G1 X-10.861 Y3.012 E0.1709
G1 X-10.509 Y3.171 E0.1770
G1 X-10.195 Y3.397 E0.1831
G1 X-9.931 Y3.679 E0.1892
G1 X-9.727 Y4.007 E0.1953
; solid layer
G1 X-11.492 Y3.936 F1800
G92 E0
G1 X-10.553 Y4.875 E0.0210 F720
G1 X-10.557 Y5.002 E0.0230
G1 X-10.599 Y5.183 E0.0259
G1 X-10.665 Y5.329 E0.0284
G1 X-11.945 Y4.049 E0.0570
G1 X-12.071 Y4.128 E0.0594
G1 X-12.206 Y4.255 E0.0623
G1 X-12.247 Y4.312 E0.0634
G1 X-10.926 Y5.633 E0.0929
G1 X-11.077 Y5.727 E0.0957
G1 X-11.250 Y5.792 E0.0987
G1 X-11.321 Y5.804 E0.0998
G1 X-12.421 Y4.704 E0.1244
G1 X-12.433 Y4.755 E0.1252
G1 X-12.439 Y4.940 E0.1281
G1 X-12.409 Y5.123 E0.1311
G1 X-12.344 Y5.297 E0.1340
G1 X-12.261 Y5.430 E0.1365
G1 X-12.056 Y5.635 E0.1411
G92 E0
G1 E-8.0000 F3000
; inner perimeter
G1 X-16.876 Y6.004 F1800
G1 E0.0000 F3000
G92 E0
G1 X-24.301 Y1.717 E0.1355 F720
G1 X-20.653 Y0.746 E0.1951
G1 X-16.689 Y3.034 E0.2674
G1 X-16.721 Y3.104 E0.2686
G1 X-16.967 Y4.158 E0.2857
G1 X-17.002 Y5.239 E0.3028
G1 X-16.876 Y6.004 E0.3150
G92 E0
G1 E-8.0000 F3000
G1 X-9.779 Y10.101 F1800
G1 E0.0000 F3000
G92 E0
G1 X-9.054 Y9.828 E0.0122 F720
G1 X-8.135 Y9.257 E0.0293
G1 X-7.345 Y8.517 E0.0464
G1 X-7.300 Y8.455 E0.0476
G1 X-4.146 Y10.275 E0.1052
G1 X-3.744 Y10.474 E0.1123
G1 X-3.282 Y10.642 E0.1200
G1 X-2.795 Y10.767 E0.1280
G1 X-2.291 Y10.850 E0.1361
G1 X-1.777 Y10.889 E0.1442
G1 X-1.262 Y10.886 E0.1523
G1 X-0.754 Y10.840 E0.1604
G1 X-0.260 Y10.750 E0.1683
G1 X0.212 Y10.615 E0.1761
G1 X0.620 Y10.448 E0.1830
G1 X1.268 Y10.136 E0.1944
G1 X0.753 Y10.855 E0.2084
G1 X0.306 Y11.842 E0.2255
G1 X0.061 Y12.894 E0.2426
G1 X0.025 Y13.975 E0.2597
G1 X0.201 Y15.043 E0.2768
G1 X0.583 Y16.055 E0.2939
G1 X0.610 Y16.099 E0.2947
G1 X-9.779 Y10.101 E0.4842
G1 X2.409 Y17.138 F1800
G1 X2.426 Y17.156 F1800
G1 X3.177 Y17.694 F1800
G1 X4.018 Y18.076 F1800
G1 X4.042 Y18.081 F1800
G1 X5.842 Y19.120 F1800
G92 E0
G1 X5.893 Y19.122 E0.0008 F720
G1 X6.961 Y18.945 E0.0179
G1 X7.974 Y18.564 E0.0350
G1 X8.892 Y17.993 E0.0521
G1 X9.681 Y17.254 E0.0692
G1 X10.312 Y16.374 E0.0863
G1 X10.759 Y15.388 E0.1034
G1 X11.004 Y14.335 E0.1205
