; G-Code generated by Simplify3D(R) Version 4.0.0
; Jan 19, 2018 at 3:11:43 AM
; Settings Summary
;   processName,Process1
;   applyToModels,barrelback,frontbarrel
;   profileName,MP Mini Delta23 (modified)
;   profileVersion,2017-10-15 16:31:22
;   baseProfile,Monoprice MP Mini Delta
;   printMaterial,eSun PLA+ - Solid Red
;   printQuality,0.08
;   printExtruders,
;   extruderName,Primary Extruder
;   extruderToolheadNumber,0
;   extruderDiameter,0.4
;   extruderAutoWidth,0
;   extruderWidth,0.4
;   extrusionMultiplier,0.95
;   extruderUseRetract,1
;   extruderRetractionDistance,8
;   extruderExtraRestartDistance,0
;   extruderRetractionZLift,0
;   extruderRetractionSpeed,3000
;   extruderUseCoasting,0
;   extruderCoastingDistance,0.2
;   extruderUseWipe,0
;   extruderWipeDistance,5
;   primaryExtruder,0
;   layerHeight,0.1
;   topSolidLayers,6
;   bottomSolidLayers,3
;   perimeterOutlines,3
;   printPerimetersInsideOut,1
;   startPointOption,2
;   startPointOriginX,0
;   startPointOriginY,0
;   sequentialIslands,0
;   spiralVaseMode,0
;   firstLayerHeightPercentage,100
;   firstLayerWidthPercentage,100
;   firstLayerUnderspeed,0.4
;   useRaft,0
;   raftExtruder,0
;   raftTopLayers,3
;   raftBaseLayers,2
;   raftOffset,5
;   raftSeparationDistance,0.14
;   raftTopInfill,100
;   aboveRaftSpeedMultiplier,0.3
;   useSkirt,0
;   skirtExtruder,0
;   skirtLayers,1
;   skirtOutlines,5
;   skirtOffset,0
;   usePrimePillar,0
;   primePillarExtruder,999
;   primePillarWidth,6
;   primePillarLocation,0
;   primePillarSpeedMultiplier,1
;   useOozeShield,0
;   oozeShieldExtruder,999
;   oozeShieldOffset,2
;   oozeShieldOutlines,1
;   oozeShieldSidewallShape,1
;   oozeShieldSidewallAngle,30
;   oozeShieldSpeedMultiplier,1
;   infillExtruder,0
;   internalInfillPattern,Fast Honeycomb
;   externalInfillPattern,Rectilinear
;   infillPercentage,20
;   outlineOverlapPercentage,45
;   infillExtrusionWidthPercentage,100
;   minInfillLength,5
;   infillLayerInterval,1
;   internalInfillAngles,0
;   overlapInternalInfillAngles,0
;   externalInfillAngles,45,-45
;   generateSupport,1
;   supportExtruder,0
;   supportInfillPercentage,40
;   supportExtraInflation,0
;   supportBaseLayers,0
;   denseSupportExtruder,0
;   denseSupportLayers,0
;   denseSupportInfillPercentage,70
;   supportLayerInterval,3
;   supportHorizontalPartOffset,0.3
;   supportUpperSeparationLayers,1
;   supportLowerSeparationLayers,1
;   supportType,0
;   supportGridSpacing,1
;   maxOverhangAngle,75
;   supportAngles,0
;   temperatureName,Primary Extruder,Heated Bed
;   temperatureNumber,0,0
;   temperatureSetpointCount,3,1
;   temperatureSetpointLayers,1,3,5,1
;   temperatureSetpointTemperatures,195,192,189,30
;   temperatureStabilizeAtStartup,1,1
;   temperatureHeatedBed,0,1
;   temperatureRelayBetweenLayers,0,0
;   temperatureRelayBetweenLoops,0,0
;   fanLayers,1,2,3
;   fanSpeeds,0,60,100
;   blipFanToFullPower,1
;   adjustSpeedForCooling,1
;   minSpeedLayerTime,15
;   minCoolingSpeedSlowdown,20
;   increaseFanForCooling,0
;   minFanLayerTime,45
;   maxCoolingFanSpeed,100
;   increaseFanForBridging,0
;   bridgingFanSpeed,100
;   use5D,1
;   relativeEdistances,0
;   allowEaxisZeroing,1
;   independentExtruderAxes,0
;   includeM10123,0
;   stickySupport,1
;   applyToolheadOffsets,0
;   gcodeXoffset,0
;   gcodeYoffset,0
;   gcodeZoffset,0.23
;   overrideMachineDefinition,1
;   machineTypeOverride,1
;   strokeXoverride,77.8
;   strokeYoverride,77.8
;   strokeZoverride,120
;   originOffsetXoverride,38.9
;   originOffsetYoverride,38.9
;   originOffsetZoverride,0
;   homeXdirOverride,0
;   homeYdirOverride,0
;   homeZdirOverride,-1
;   flipXoverride,1
;   flipYoverride,-1
;   flipZoverride,1
;   toolheadOffsets,0,0|0,0|0,0|0,0|0,0|0,0
;   overrideFirmwareConfiguration,1
;   firmwareTypeOverride,RepRap (Marlin/Repetier/Sprinter)
;   GPXconfigOverride,r2
;   baudRateOverride,115200
;   overridePrinterModels,1
;   printerModelsOverride,MP_Mini_Delta_Platform.stl
;   startingGcode,G90 ; absolute positioning - this line was added in case Cura doesn't include it by default,M82 ; set extruder to absolute mode - this line was added in case Cura doesn't include it by default (may not be needed),M107; start with the fan off (I don't think this is possible),G28 ; Start from home position,G29 C-0.8 Z0.3 ; probe the bed at 3 points with a 0.3mm overall vertical offset and an additional -0.8mm center offset ,G1 Z15.0 F4800  ; move the nozzle up 15mm,G92 E0 ; reset extrusion distance,G1 F200 E3 ; extrude 3mm of feed stock,G92 E0 ; reset extrusion distance again,G1 F4800
;   layerChangeGcode,
;   retractionGcode,
;   toolChangeGcode,
;   endingGcode,M104 S0 ; turn off hotend heater,M140 S0 ; turn off bed heater,G91 ; Switch to use Relative Coordinates,G1 E-3 F700 ; retract the filament a bit before lifting the nozzle to release some of the pressure,G1 Z2 F1000 ; raise platform 2mm from current position,G1 E-2 F700 ; retract filament even more,G90 ; Switch back to using absolute coordinates,G28 X ; Return to home position. Without an X Y or Z after G28 the print completion time will not be displayed on the Mini Delta's display.,M84 ; disable motors,G4 S360 ; pause for 360 seconds to keep fan running to cool hotend and allow the fan to be turned off,M107 ; turn off fan. Some say M107 doesn't work for them but if the hotend is cool enough it should work,;M106 S1 ; turn off fan. Remove the semicolon in front of M106 if M107 doesn't work for you
;   exportFileFormat,gcode
;   celebration,0
;   celebrationSong,Random Song
;   postProcessing,
;   defaultSpeed,3200
;   outlineUnderspeed,1
;   solidInfillUnderspeed,1
;   supportUnderspeed,1
;   rapidXYspeed,3200
;   rapidZspeed,1002
;   minBridgingArea,50
;   bridgingExtraInflation,0
;   bridgingExtrusionMultiplier,1
;   bridgingSpeedMultiplier,1
;   useFixedBridgingAngle,0
;   fixedBridgingAngle,0
;   applyBridgingToPerimeters,0
;   filamentDiameters,1.75|1.75|1.75|1.75|1.75|1.75
;   filamentPricesPerKg,48|25|25|25|25|25
;   filamentDensities,1.25|1.25|1.25|1.25|1.25|1.25
;   useMinPrintHeight,0
;   minPrintHeight,42
;   useMaxPrintHeight,0
;   maxPrintHeight,0
;   useDiaphragm,0
;   diaphragmLayerInterval,20
;   robustSlicing,1
;   mergeAllIntoSolid,0
;   onlyRetractWhenCrossingOutline,1
;   retractBetweenLayers,1
;   useRetractionMinTravel,0
;   retractionMinTravel,3
;   retractWhileWiping,1
;   onlyWipeOutlines,1
;   avoidCrossingOutline,0
;   maxMovementDetourFactor,3
;   toolChangeRetractionDistance,12
;   toolChangeExtraRestartDistance,-0.5
;   toolChangeRetractionSpeed,600
;   externalThinWallType,1
;   internalThinWallType,1
;   thinWallAllowedOverlapPercentage,100
;   singleExtrusionMinLength,0.4
;   singleExtrusionMinPrintingWidthPercentage,50
;   singleExtrusionMaxPrintingWidthPercentage,200
;   singleExtrusionEndpointExtension,0.2
;   horizontalSizeCompensation,0
G90
M82
M106 S255
G4 P500
M106 S0
M140 S30
M190 S30
M104 S195 T0
M109 S195 T0
G90 ; absolute positioning - this line was added in case Cura doesn't include it by default
M82 ; set extruder to absolute mode - this line was added in case Cura doesn't include it by default (may not be needed)
M107; start with the fan off (I don't think this is possible)
G28 ; Start from home position
G29 C-0.8 Z0.3 ; probe the bed at 3 points with a 0.3mm overall vertical offset and an additional -0.8mm center offset 
G1 Z15.0 F4800  ; move the nozzle up 15mm
G92 E0 ; reset extrusion distance
G1 F200 E3 ; extrude 3mm of feed stock
G92 E0 ; reset extrusion distance again
G1 F4800
G92 E0
G1 E-8.0000 F3000
G1 Z0.330 F1002
; process Process1
; layer 1, Z = 0.100
T0
; tool H0.100 W0.400
; outer perimeter
G1 X0.387 Y-0.753 F3200
G1 E0.0000 F900
G92 E0
G1 X-0.228 Y-1.258 E0.0126 F1280
G1 X-0.733 Y-1.873 E0.0251
G1 X-1.108 Y-2.575 E0.0377
G1 X-1.339 Y-3.336 E0.0503
G1 X-1.417 Y-4.128 E0.0629
G1 X-1.339 Y-4.920 E0.0754
G1 X-1.108 Y-5.682 E0.0880
G1 X-0.733 Y-6.384 E0.1006
G1 X-0.228 Y-6.999 E0.1131
G1 X0.387 Y-7.504 E0.1257
G1 X1.089 Y-7.879 E0.1383
G1 X1.851 Y-8.110 E0.1509
G1 X2.643 Y-8.188 E0.1634
G1 X3.435 Y-8.110 E0.1760
G1 X4.196 Y-7.879 E0.1886
G1 X4.898 Y-7.504 E0.2012
G1 X5.513 Y-6.999 E0.2137
G1 X6.018 Y-6.384 E0.2263
G1 X6.393 Y-5.682 E0.2389
G1 X6.624 Y-4.920 E0.2514
G1 X6.702 Y-4.128 E0.2640
G1 X6.624 Y-3.336 E0.2766
G1 X6.393 Y-2.575 E0.2892
G1 X6.018 Y-1.873 E0.3017
G1 X5.513 Y-1.258 E0.3143
G1 X4.898 Y-0.753 E0.3269
G1 X4.196 Y-0.378 E0.3394
G1 X3.435 Y-0.147 E0.3520
G1 X2.643 Y-0.069 E0.3646
G1 X1.851 Y-0.147 E0.3772
G1 X1.089 Y-0.378 E0.3897
G1 X0.387 Y-0.753 E0.4023
G1 X0.758 Y-1.307 F3200
G92 E0
G1 X1.344 Y-0.994 E0.0105 F1280
G1 X1.981 Y-0.801 E0.0210
G1 X2.643 Y-0.736 E0.0315
G1 X3.305 Y-0.801 E0.0420
G1 X3.941 Y-0.994 E0.0525
G1 X4.528 Y-1.307 E0.0630
G1 X5.042 Y-1.729 E0.0736
G1 X5.464 Y-2.243 E0.0841
G1 X5.777 Y-2.830 E0.0946
G1 X5.970 Y-3.466 E0.1051
G1 X6.035 Y-4.128 E0.1156
G1 X5.970 Y-4.790 E0.1261
G1 X5.777 Y-5.427 E0.1366
G1 X5.464 Y-6.013 E0.1471
G1 X5.042 Y-6.527 E0.1576
G1 X4.528 Y-6.949 E0.1681
G1 X3.941 Y-7.263 E0.1786
G1 X3.305 Y-7.456 E0.1891
G1 X2.643 Y-7.521 E0.1996
G1 X1.981 Y-7.456 E0.2101
G1 X1.344 Y-7.263 E0.2207
G1 X0.758 Y-6.949 E0.2312
G1 X0.244 Y-6.527 E0.2417
G1 X-0.178 Y-6.013 E0.2522
G1 X-0.492 Y-5.427 E0.2627
G1 X-0.685 Y-4.790 E0.2732
G1 X-0.750 Y-4.128 E0.2837
G1 X-0.685 Y-3.466 E0.2942
G1 X-0.492 Y-2.830 E0.3047
G1 X-0.178 Y-2.243 E0.3152
G1 X0.244 Y-1.729 E0.3257
G1 X0.758 Y-1.307 E0.3362
; internal single extrusion
G1 X0.628 Y-1.000 F3200
G92 E0
; tool H0.100 W0.256
G1 X0.573 Y-1.030 E0.0006 F1280
G1 X0.524 Y-1.070 E0.0013
G1 X0.057 Y-1.454 E0.0074
G1 X0.008 Y-1.494 E0.0080
G1 X-0.032 Y-1.542 E0.0087
G1 X-0.415 Y-2.009 E0.0148
G1 X-0.455 Y-2.058 E0.0154
G1 X-0.485 Y-2.114 E0.0161
G1 X-0.770 Y-2.647 E0.0222
G1 X-0.800 Y-2.702 E0.0228
G1 X-0.818 Y-2.763 E0.0234
G1 X-0.993 Y-3.341 E0.0296
G1 X-1.012 Y-3.401 E0.0302
G1 X-1.018 Y-3.464 E0.0308
G1 X-1.077 Y-4.066 E0.0369
G1 X-1.083 Y-4.128 E0.0376
G1 X-1.077 Y-4.191 E0.0382
G1 X-1.018 Y-4.792 E0.0443
G1 X-1.012 Y-4.855 E0.0450
G1 X-0.993 Y-4.915 E0.0456
G1 X-0.818 Y-5.494 E0.0517
G1 X-0.800 Y-5.554 E0.0524
G1 X-0.770 Y-5.610 E0.0530
G1 X-0.485 Y-6.143 E0.0591
G1 X-0.455 Y-6.198 E0.0597
G1 X-0.415 Y-6.247 E0.0604
G1 X-0.032 Y-6.714 E0.0665
G1 X0.008 Y-6.763 E0.0671
G1 X0.057 Y-6.803 E0.0678
G1 X0.524 Y-7.186 E0.0739
G1 X0.573 Y-7.226 E0.0745
G1 X0.628 Y-7.256 E0.0752
G1 X1.161 Y-7.541 E0.0813
G1 X1.217 Y-7.571 E0.0819
G1 X1.277 Y-7.589 E0.0825
G1 X1.856 Y-7.764 E0.0887
G1 X1.916 Y-7.783 E0.0893
G1 X1.978 Y-7.789 E0.0899
G1 X2.580 Y-7.848 E0.0960
G1 X2.643 Y-7.854 E0.0967
G1 X2.705 Y-7.848 E0.0973
G1 X3.232 Y-7.796 E0.1027
G1 X3.370 Y-7.783 E0.1041
G1 X3.430 Y-7.764 E0.1047
G1 X4.008 Y-7.589 E0.1108
G1 X4.069 Y-7.571 E0.1115
G1 X4.124 Y-7.541 E0.1121
G1 X4.657 Y-7.256 E0.1182
G1 X4.713 Y-7.226 E0.1188
G1 X4.761 Y-7.186 E0.1195
G1 X5.229 Y-6.803 E0.1256
G1 X5.277 Y-6.763 E0.1262
G1 X5.317 Y-6.714 E0.1269
G1 X5.701 Y-6.247 E0.1330
G1 X5.741 Y-6.198 E0.1336
G1 X5.771 Y-6.143 E0.1343
G1 X6.055 Y-5.610 E0.1404
G1 X6.085 Y-5.554 E0.1410
G1 X6.103 Y-5.494 E0.1417
G1 X6.279 Y-4.915 E0.1478
G1 X6.297 Y-4.855 E0.1484
G1 X6.303 Y-4.792 E0.1490
G1 X6.363 Y-4.191 E0.1552
G1 X6.369 Y-4.128 E0.1558
G1 X6.363 Y-4.066 E0.1564
G1 X6.303 Y-3.464 E0.1625
G1 X6.297 Y-3.401 E0.1632
G1 X6.279 Y-3.341 E0.1638
G1 X6.103 Y-2.763 E0.1699
G1 X6.085 Y-2.702 E0.1706
G1 X6.055 Y-2.647 E0.1712
G1 X5.771 Y-2.114 E0.1773
G1 X5.741 Y-2.058 E0.1780
G1 X5.701 Y-2.009 E0.1786
G1 X5.317 Y-1.542 E0.1847
G1 X5.277 Y-1.494 E0.1853
G1 X5.229 Y-1.454 E0.1860
G1 X4.761 Y-1.070 E0.1921
G1 X4.713 Y-1.030 E0.1927
G1 X4.657 Y-1.000 E0.1934
G1 X4.124 Y-0.716 E0.1995
G1 X4.069 Y-0.686 E0.2001
G1 X4.008 Y-0.668 E0.2008
G1 X3.430 Y-0.492 E0.2069
G1 X3.370 Y-0.474 E0.2075
G1 X3.307 Y-0.468 E0.2081
G1 X2.705 Y-0.408 E0.2143
G1 X2.643 Y-0.402 E0.2149
G1 X2.580 Y-0.408 E0.2155
G1 X1.978 Y-0.468 E0.2216
G1 X1.916 Y-0.474 E0.2223
G1 X1.856 Y-0.492 E0.2229
G1 X1.277 Y-0.668 E0.2290
G1 X1.217 Y-0.686 E0.2297
G1 X1.161 Y-0.716 E0.2303
G1 X0.628 Y-1.000 E0.2364
G92 E0
G1 E-8.0000 F3000
; tool H0.100 W0.400
; outer perimeter
G1 X1.571 Y-2.524 F3200
G1 E0.0000 F3000
G92 E0
G1 X1.279 Y-2.764 E0.0060 F1280
G1 X1.039 Y-3.057 E0.0119
G1 X0.861 Y-3.390 E0.0179
G1 X0.751 Y-3.752 E0.0239
G1 X0.714 Y-4.128 E0.0299
G1 X0.751 Y-4.505 E0.0358
G1 X0.861 Y-4.866 E0.0418
G1 X1.039 Y-5.200 E0.0478
G1 X1.279 Y-5.492 E0.0538
G1 X1.571 Y-5.732 E0.0597
G1 X1.905 Y-5.910 E0.0657
G1 X2.266 Y-6.020 E0.0717
G1 X2.643 Y-6.057 E0.0777
G1 X3.019 Y-6.020 E0.0836
G1 X3.381 Y-5.910 E0.0896
G1 X3.714 Y-5.732 E0.0956
G1 X4.007 Y-5.492 E0.1016
G1 X4.247 Y-5.200 E0.1075
G1 X4.425 Y-4.866 E0.1135
G1 X4.535 Y-4.505 E0.1195
G1 X4.572 Y-4.128 E0.1255
G1 X4.535 Y-3.752 E0.1314
G1 X4.425 Y-3.390 E0.1374
G1 X4.247 Y-3.057 E0.1434
G1 X4.007 Y-2.764 E0.1493
G1 X3.714 Y-2.524 E0.1553
G1 X3.381 Y-2.346 E0.1613
G1 X3.019 Y-2.236 E0.1673
G1 X2.643 Y-2.199 E0.1732
G1 X2.266 Y-2.236 E0.1792
G1 X1.905 Y-2.346 E0.1852
G1 X1.571 Y-2.524 E0.1912
G1 X1.938 Y-3.074 F3200
G92 E0
G1 X2.157 Y-2.956 E0.0039 F1280
G1 X2.395 Y-2.884 E0.0079
G1 X2.643 Y-2.860 E0.0118
G1 X2.890 Y-2.884 E0.0157
G1 X3.128 Y-2.956 E0.0196
G1 X3.347 Y-3.074 E0.0236
G1 X3.540 Y-3.231 E0.0275
G1 X3.697 Y-3.424 E0.0314
G1 X3.815 Y-3.643 E0.0354
G1 X3.887 Y-3.881 E0.0393
G1 X3.911 Y-4.128 E0.0432
G1 X3.887 Y-4.376 E0.0471
G1 X3.815 Y-4.614 E0.0511
G1 X3.697 Y-4.833 E0.0550
G1 X3.540 Y-5.025 E0.0589
G1 X3.347 Y-5.183 E0.0629
G1 X3.128 Y-5.300 E0.0668
G1 X2.890 Y-5.372 E0.0707
G1 X2.643 Y-5.397 E0.0746
G1 X2.395 Y-5.372 E0.0786
G1 X2.157 Y-5.300 E0.0825
G1 X1.938 Y-5.183 E0.0864
G1 X1.746 Y-5.025 E0.0904
G1 X1.588 Y-4.833 E0.0943
G1 X1.471 Y-4.614 E0.0982
G1 X1.399 Y-4.376 E0.1021
G1 X1.374 Y-4.128 E0.1061
G1 X1.399 Y-3.881 E0.1100
G1 X1.471 Y-3.643 E0.1139
G1 X1.588 Y-3.424 E0.1179
G1 X1.746 Y-3.231 E0.1218
G1 X1.938 Y-3.074 E0.1257
; internal single extrusion
G1 X1.803 Y-2.773 F3200
G92 E0
; tool H0.100 W0.250
G1 X1.755 Y-2.799 E0.0005 F1280
G1 X1.712 Y-2.834 E0.0011
G1 X1.555 Y-2.963 E0.0031
G1 X1.512 Y-2.998 E0.0036
G1 X1.477 Y-3.041 E0.0042
G1 X1.349 Y-3.197 E0.0062
G1 X1.314 Y-3.240 E0.0067
G1 X1.287 Y-3.289 E0.0073
G1 X1.192 Y-3.468 E0.0093
G1 X1.166 Y-3.517 E0.0098
G1 X1.150 Y-3.569 E0.0104
G1 X1.091 Y-3.763 E0.0124
G1 X1.075 Y-3.816 E0.0129
G1 X1.069 Y-3.871 E0.0135
G1 X1.049 Y-4.073 E0.0155
G1 X1.044 Y-4.128 E0.0160
G1 X1.049 Y-4.183 E0.0166
G1 X1.069 Y-4.385 E0.0186
G1 X1.075 Y-4.440 E0.0191
G1 X1.091 Y-4.493 E0.0196
G1 X1.150 Y-4.687 E0.0216
G1 X1.166 Y-4.740 E0.0222
G1 X1.192 Y-4.789 E0.0227
G1 X1.287 Y-4.968 E0.0247
G1 X1.314 Y-5.016 E0.0253
G1 X1.349 Y-5.059 E0.0258
G1 X1.477 Y-5.216 E0.0278
G1 X1.512 Y-5.259 E0.0284
G1 X1.555 Y-5.294 E0.0289
G1 X1.712 Y-5.422 E0.0309
G1 X1.755 Y-5.457 E0.0315
G1 X1.803 Y-5.484 E0.0320
G1 X1.982 Y-5.579 E0.0340
G1 X2.031 Y-5.605 E0.0346
G1 X2.084 Y-5.621 E0.0351
G1 X2.278 Y-5.680 E0.0371
G1 X2.331 Y-5.696 E0.0377
G1 X2.386 Y-5.702 E0.0382
G1 X2.588 Y-5.721 E0.0402
G1 X2.643 Y-5.727 E0.0408
G1 X2.698 Y-5.721 E0.0413
G1 X2.765 Y-5.715 E0.0420
G1 X2.955 Y-5.696 E0.0438
G1 X3.007 Y-5.680 E0.0444
G1 X3.202 Y-5.621 E0.0464
G1 X3.254 Y-5.605 E0.0469
G1 X3.303 Y-5.579 E0.0475
G1 X3.482 Y-5.484 E0.0495
G1 X3.531 Y-5.457 E0.0500
G1 X3.574 Y-5.422 E0.0506
G1 X3.730 Y-5.294 E0.0526
G1 X3.773 Y-5.259 E0.0531
G1 X3.808 Y-5.216 E0.0537
G1 X3.937 Y-5.059 E0.0557
G1 X3.972 Y-5.016 E0.0562
G1 X3.998 Y-4.968 E0.0568
G1 X4.094 Y-4.789 E0.0588
G1 X4.120 Y-4.740 E0.0593
G1 X4.136 Y-4.687 E0.0599
G1 X4.195 Y-4.493 E0.0619
G1 X4.211 Y-4.440 E0.0624
G1 X4.216 Y-4.385 E0.0629
G1 X4.236 Y-4.183 E0.0649
G1 X4.241 Y-4.128 E0.0655
G1 X4.236 Y-4.073 E0.0660
G1 X4.216 Y-3.871 E0.0680
G1 X4.211 Y-3.816 E0.0686
G1 X4.195 Y-3.763 E0.0691
G1 X4.136 Y-3.569 E0.0711
G1 X4.120 Y-3.516 E0.0717
G1 X4.094 Y-3.468 E0.0722
G1 X3.998 Y-3.289 E0.0742
G1 X3.972 Y-3.240 E0.0748
G1 X3.937 Y-3.197 E0.0753
G1 X3.808 Y-3.041 E0.0773
G1 X3.773 Y-2.998 E0.0779
G1 X3.730 Y-2.963 E0.0784
G1 X3.574 Y-2.834 E0.0804
G1 X3.531 Y-2.799 E0.0810
