; G-Code generated by Simplify3D(R) Version 4.0.0
; Feb 12, 2018 at 3:19:42 AM
; Settings Summary
;   processName,colorfab black jupiter
;   applyToModels,bottomMGparts_1
;   profileName,MP Mini Delta23 (modified)
;   profileVersion,2017-10-15 16:31:22
;   baseProfile,Monoprice MP Mini Delta
;   printMaterial,eSun PLA+ - Solid Red
;   printQuality,0.08
;   printExtruders,
;   extruderName,Primary Extruder
;   extruderToolheadNumber,0
;   extruderDiameter,0.4
;   extruderAutoWidth,0
;   extruderWidth,0.4
;   extrusionMultiplier,0.95
;   extruderUseRetract,1
;   extruderRetractionDistance,8
;   extruderExtraRestartDistance,0
;   extruderRetractionZLift,0
;   extruderRetractionSpeed,3000
;   extruderUseCoasting,0
;   extruderCoastingDistance,0.2
;   extruderUseWipe,0
;   extruderWipeDistance,5
;   primaryExtruder,0
;   layerHeight,0.1
;   topSolidLayers,8
;   bottomSolidLayers,8
;   perimeterOutlines,3
;   printPerimetersInsideOut,0
;   startPointOption,2
;   startPointOriginX,0
;   startPointOriginY,0
;   sequentialIslands,0
;   spiralVaseMode,0
;   firstLayerHeightPercentage,100
;   firstLayerWidthPercentage,100
;   firstLayerUnderspeed,0.4
;   useRaft,0
;   raftExtruder,0
;   raftTopLayers,3
;   raftBaseLayers,2
;   raftOffset,2
;   raftSeparationDistance,0.14
;   raftTopInfill,100
;   aboveRaftSpeedMultiplier,0.3
;   useSkirt,0
;   skirtExtruder,0
;   skirtLayers,3
;   skirtOutlines,5
;   skirtOffset,0
;   usePrimePillar,0
;   primePillarExtruder,999
;   primePillarWidth,6
;   primePillarLocation,0
;   primePillarSpeedMultiplier,1
;   useOozeShield,0
;   oozeShieldExtruder,999
;   oozeShieldOffset,2
;   oozeShieldOutlines,1
;   oozeShieldSidewallShape,1
;   oozeShieldSidewallAngle,30
;   oozeShieldSpeedMultiplier,1
;   infillExtruder,0
;   internalInfillPattern,Fast Honeycomb
;   externalInfillPattern,Rectilinear
;   infillPercentage,20
;   outlineOverlapPercentage,45
;   infillExtrusionWidthPercentage,100
;   minInfillLength,5
;   infillLayerInterval,3
;   internalInfillAngles,0
;   overlapInternalInfillAngles,0
;   externalInfillAngles,45,-45
;   generateSupport,1
;   supportExtruder,0
;   supportInfillPercentage,40
;   supportExtraInflation,0.6
;   supportBaseLayers,1
;   denseSupportExtruder,0
;   denseSupportLayers,0
;   denseSupportInfillPercentage,70
;   supportLayerInterval,3
;   supportHorizontalPartOffset,0.2
;   supportUpperSeparationLayers,0
;   supportLowerSeparationLayers,0
;   supportType,0
;   supportGridSpacing,1
;   maxOverhangAngle,45
;   supportAngles,90
;   temperatureName,Primary Extruder,Heated Bed
;   temperatureNumber,0,0
;   temperatureSetpointCount,1,1
;   temperatureSetpointLayers,1,1
;   temperatureSetpointTemperatures,195,30
;   temperatureStabilizeAtStartup,1,1
;   temperatureHeatedBed,0,1
;   temperatureRelayBetweenLayers,0,0
;   temperatureRelayBetweenLoops,0,0
;   fanLayers,1,2,3
;   fanSpeeds,0,60,100
;   blipFanToFullPower,1
;   adjustSpeedForCooling,1
;   minSpeedLayerTime,15
;   minCoolingSpeedSlowdown,20
;   increaseFanForCooling,0
;   minFanLayerTime,45
;   maxCoolingFanSpeed,100
;   increaseFanForBridging,0
;   bridgingFanSpeed,100
;   use5D,1
;   relativeEdistances,0
;   allowEaxisZeroing,1
;   independentExtruderAxes,0
;   includeM10123,0
;   stickySupport,1
;   applyToolheadOffsets,0
;   gcodeXoffset,0
;   gcodeYoffset,0
;   gcodeZoffset,0.25
;   overrideMachineDefinition,1
;   machineTypeOverride,1
;   strokeXoverride,77.8
;   strokeYoverride,77.8
;   strokeZoverride,120
;   originOffsetXoverride,38.9
;   originOffsetYoverride,38.9
;   originOffsetZoverride,0
;   homeXdirOverride,0
;   homeYdirOverride,0
;   homeZdirOverride,-1
;   flipXoverride,1
;   flipYoverride,-1
;   flipZoverride,1
;   toolheadOffsets,0,0|0,0|0,0|0,0|0,0|0,0
;   overrideFirmwareConfiguration,1
;   firmwareTypeOverride,RepRap (Marlin/Repetier/Sprinter)
;   GPXconfigOverride,r2
;   baudRateOverride,115200
;   overridePrinterModels,1
;   printerModelsOverride,MP_Mini_Delta_Platform.stl
;   startingGcode,G90 ; absolute positioning - this line was added in case Cura doesn't include it by default,M82 ; set extruder to absolute mode - this line was added in case Cura doesn't include it by default (may not be needed),M107; start with the fan off (I don't think this is possible),G28 ; Start from home position,G29 C-0.8 Z0.3 ; probe the bed at 3 points with a 0.3mm overall vertical offset and an additional -0.8mm center offset ,G1 Z15.0 F4800  ; move the nozzle up 15mm,G92 E0 ; reset extrusion distance,G1 F200 E3 ; extrude 3mm of feed stock,G92 E0 ; reset extrusion distance again,G1 F4800
;   layerChangeGcode,
;   retractionGcode,
;   toolChangeGcode,
;   endingGcode,M104 S0 ; turn off hotend heater,M140 S0 ; turn off bed heater,G91 ; Switch to use Relative Coordinates,G1 E-3 F700 ; retract the filament a bit before lifting the nozzle to release some of the pressure,G1 Z2 F1000 ; raise platform 2mm from current position,G1 E-2 F700 ; retract filament even more,G90 ; Switch back to using absolute coordinates,G28 X ; Return to home position. Without an X Y or Z after G28 the print completion time will not be displayed on the Mini Delta's display.,M84 ; disable motors,G4 S360 ; pause for 360 seconds to keep fan running to cool hotend and allow the fan to be turned off,M107 ; turn off fan. Some say M107 doesn't work for them but if the hotend is cool enough it should work,;M106 S1 ; turn off fan. Remove the semicolon in front of M106 if M107 doesn't work for you
;   exportFileFormat,gcode
;   celebration,0
;   celebrationSong,Random Song
;   postProcessing,
;   defaultSpeed,2400
;   outlineUnderspeed,1
;   solidInfillUnderspeed,1
;   supportUnderspeed,1
;   rapidXYspeed,2400
;   rapidZspeed,1002
;   minBridgingArea,50
;   bridgingExtraInflation,0
;   bridgingExtrusionMultiplier,0.9
;   bridgingSpeedMultiplier,1
;   useFixedBridgingAngle,0
;   fixedBridgingAngle,0
;   applyBridgingToPerimeters,0
;   filamentDiameters,1.75|1.75|1.75|1.75|1.75|1.75
;   filamentPricesPerKg,48|25|25|25|25|25
;   filamentDensities,1.25|1.25|1.25|1.25|1.25|1.25
;   useMinPrintHeight,0
;   minPrintHeight,42
;   useMaxPrintHeight,0
;   maxPrintHeight,0
;   useDiaphragm,0
;   diaphragmLayerInterval,20
;   robustSlicing,1
;   mergeAllIntoSolid,0
;   onlyRetractWhenCrossingOutline,1
;   retractBetweenLayers,1
;   useRetractionMinTravel,0
;   retractionMinTravel,3
;   retractWhileWiping,1
;   onlyWipeOutlines,1
;   avoidCrossingOutline,1
;   maxMovementDetourFactor,5
;   toolChangeRetractionDistance,12
;   toolChangeExtraRestartDistance,-0.5
;   toolChangeRetractionSpeed,600
;   externalThinWallType,1
;   internalThinWallType,1
;   thinWallAllowedOverlapPercentage,100
;   singleExtrusionMinLength,0.4
;   singleExtrusionMinPrintingWidthPercentage,50
;   singleExtrusionMaxPrintingWidthPercentage,200
;   singleExtrusionEndpointExtension,0.2
;   horizontalSizeCompensation,0
G90
M82
M106 S255
G4 P500
M106 S0
M140 S30
M190 S30
M104 S195 T0
M109 S195 T0
G90 ; absolute positioning - this line was added in case Cura doesn't include it by default
M82 ; set extruder to absolute mode - this line was added in case Cura doesn't include it by default (may not be needed)
M107; start with the fan off (I don't think this is possible)
G28 ; Start from home position
G29 C-0.8 Z0.3 ; probe the bed at 3 points with a 0.3mm overall vertical offset and an additional -0.8mm center offset 
G1 Z15.0 F4800  ; move the nozzle up 15mm
G92 E0 ; reset extrusion distance
G1 F200 E3 ; extrude 3mm of feed stock
G92 E0 ; reset extrusion distance again
G1 F4800
G92 E0
G1 E-8.0000 F3000
G1 Z0.350 F1002
; process colorfab black jupiter
; layer 1, Z = 0.100
T0
; tool H0.100 W0.400
; outer perimeter
G1 X-17.901 Y0.341 F2400
G1 E0.0000 F900
G92 E0
G1 X-25.563 Y11.493 E0.2138 F960
G1 X-24.339 Y16.885 E0.3011
G1 X-19.432 Y25.670 E0.4601
G1 X-21.930 Y24.641 E0.5028
G1 X-27.035 Y15.501 E0.6682
G1 X-26.388 Y11.103 E0.7384
G1 X-18.747 Y-0.019 E0.9516
G1 X-15.438 Y-26.721 E1.3767
G1 X-14.592 Y-26.373 E1.3911
G1 X-17.901 Y0.341 E1.8164
; inner perimeter
G1 X-18.286 Y0.195 F2400
G92 E0
G1 X-25.992 Y11.411 E0.2150 F960
G1 X-24.716 Y17.030 E0.3060
G1 X-20.341 Y24.863 E0.4478
G1 X-21.648 Y24.324 E0.4701
G1 X-26.620 Y15.425 E0.6311
G1 X-26.005 Y11.253 E0.6978
G1 X-18.362 Y0.127 E0.9110
G1 X-15.106 Y-26.152 E1.3294
G1 X-15.026 Y-26.119 E1.3307
G1 X-18.286 Y0.195 E1.7496
G1 X-20.802 Y4.570 F2400
G1 X-25.559 Y11.494 F2400
G1 X-25.339 Y12.461 F2400
G1 X-25.930 Y13.489 F2400
G92 E0
G1 X-25.093 Y17.175 E0.0597 F960
G1 X-21.250 Y24.056 E0.1842
G1 X-21.367 Y24.008 E0.1862
G1 X-26.204 Y15.349 E0.3429
G1 X-25.930 Y13.489 E0.3726
; solid layer
G1 X-25.905 Y14.825 F2400
G92 E0
G1 X-25.837 Y14.892 E0.0015 F960
G1 X-25.671 Y15.624 E0.0134
G1 X-25.959 Y15.336 E0.0198
G92 E0
G1 E-8.0000 F3000
; outer perimeter
G1 X-24.778 Y14.932 F2400
G1 X-25.559 Y11.494 F2400
G1 X-17.898 Y0.343 F2400
G1 X17.901 Y0.341 F2400
G1 E0.0000 F3000
G92 E0
G1 X14.592 Y-26.373 E0.4253 F960
G1 X15.438 Y-26.721 E0.4397
G1 X18.747 Y-0.019 E0.8648
G1 X26.388 Y11.103 E1.0780
G1 X27.035 Y15.501 E1.1482
G1 X21.930 Y24.641 E1.3136
G1 X19.432 Y25.670 E1.3563
G1 X24.339 Y16.885 E1.5153
G1 X25.563 Y11.493 E1.6026
G1 X17.901 Y0.341 E1.8164
; inner perimeter
G1 X18.286 Y0.195 F2400
G92 E0
G1 X15.026 Y-26.119 E0.4189 F960
G1 X15.106 Y-26.152 E0.4203
G1 X18.362 Y0.127 E0.8386
G1 X26.005 Y11.253 E1.0519
G1 X26.620 Y15.425 E1.1185
G1 X21.648 Y24.324 E1.2795
G1 X20.341 Y24.863 E1.3019
G1 X24.716 Y17.030 E1.4436
G1 X25.992 Y11.411 E1.5346
G1 X18.286 Y0.195 E1.7496
G1 X20.802 Y4.570 F2400
G1 X25.559 Y11.494 F2400
G1 X25.339 Y12.461 F2400
G1 X25.930 Y13.489 F2400
G92 E0
G1 X26.204 Y15.349 E0.0297 F960
G1 X21.367 Y24.008 E0.1864
G1 X21.250 Y24.056 E0.1884
G1 X25.093 Y17.175 E0.3129
G1 X25.930 Y13.489 E0.3726
; solid layer
G1 X25.801 Y15.053 F2400
G92 E0
G1 X25.962 Y15.214 E0.0036 F960
G1 X25.975 Y15.307 E0.0051
G1 X25.801 Y15.619 E0.0107
G1 X25.696 Y15.514 E0.0131
G1 X25.592 Y15.975 E0.0205
G1 X25.598 Y15.982 E0.0207
G92 E0
G1 E-8.0000 F3000
; support
G1 X24.400 Y11.380 F2400
G1 E0.0000 F3000
G92 E0
G1 X24.400 Y13.906 E0.0399 F960
G1 X24.000 Y15.668 E0.0684
G1 X24.000 Y11.380 E0.1362
G1 X23.620 Y11.380 E0.1422
G1 X23.620 Y10.380 E0.1580
G1 X23.600 Y10.380 E0.1583
G1 X23.600 Y16.978 E0.2625
G1 X23.200 Y17.694 E0.2755
G1 X23.200 Y10.380 E0.3910
G1 X22.800 Y10.380 E0.3974
G1 X22.800 Y18.410 E0.5242
G1 X22.400 Y19.126 E0.5372
G1 X22.400 Y9.380 E0.6912
G1 X22.000 Y9.380 E0.6975
G1 X22.000 Y19.842 E0.8628
G1 X21.600 Y20.558 E0.8757
G1 X21.600 Y7.380 E1.0839
G1 X21.200 Y7.380 E1.0902
G1 X21.200 Y21.274 E1.3097
G1 X20.800 Y21.990 E1.3227
G1 X20.800 Y7.380 E1.5535
G1 X20.620 Y7.380 E1.5564
G1 X20.620 Y6.380 E1.5722
G1 X20.400 Y6.380 E1.5756
G1 X20.400 Y22.706 E1.8336
G1 X20.000 Y23.423 E1.8465
G1 X20.000 Y6.380 E2.1158
G1 X19.620 Y6.380 E2.1218
G1 X19.620 Y5.380 E2.1376
G1 X19.600 Y5.380 E2.1379
G1 X19.600 Y24.139 E2.4343
G1 X19.200 Y24.855 E2.4472
G1 X19.200 Y5.380 E2.7549
G1 X18.800 Y5.380 E2.7612
G1 X18.800 Y25.571 E3.0802
G1 X18.490 Y26.126 E3.0903
G1 X18.800 Y26.476 E3.0976
G1 X18.800 Y26.620 E3.0999
G1 X18.400 Y26.620 E3.1062
G1 X18.400 Y4.380 E3.4576
G1 X18.000 Y4.380 E3.4639
G1 X18.000 Y26.620 E3.8153
G1 X17.600 Y26.620 E3.8216
G1 X17.600 Y2.380 E4.2046
G1 X17.200 Y2.380 E4.2109
G1 X17.200 Y26.620 E4.5938
G1 X16.800 Y26.620 E4.6001
G1 X16.800 Y2.380 E4.9831
G1 X16.620 Y2.380 E4.9859
G1 X16.620 Y1.620 E4.9980
G1 X16.800 Y1.620 E5.0008
G1 X16.800 Y-3.669 E5.0844
G1 X17.200 Y-0.440 E5.1358
G1 X17.200 Y1.620 E5.1683
G1 X17.600 Y1.620 E5.1746
G1 X17.600 Y0.962 E5.1850
G92 E0
G1 E-8.0000 F3000
G1 X16.400 Y-6.897 F2400
G1 E0.0000 F3000
G92 E0
G1 X16.400 Y27.620 E0.5453 F960
G1 X16.000 Y27.620 E0.5516
G1 X16.000 Y-10.126 E1.1480
G1 X15.600 Y-13.355 E1.1994
G1 X15.600 Y27.620 E1.8467
G1 X15.200 Y27.620 E1.8530
G1 X15.200 Y-16.584 E2.5514
G1 X14.800 Y-19.812 E2.6028
G1 X14.800 Y27.620 E3.3522
G1 X14.400 Y27.620 E3.3585
G1 X14.400 Y-23.041 E4.1588
G1 X14.000 Y-26.270 E4.2102
G1 X14.000 Y27.620 E5.0616
G1 X13.600 Y27.620 E5.0679
G1 X13.600 Y-26.620 E5.9249
G1 X13.200 Y-26.620 E5.9312
G1 X13.200 Y27.620 E6.7881
G1 X12.800 Y27.620 E6.7944
G1 X12.800 Y-26.620 E7.6513
G1 X12.400 Y-26.620 E7.6576
G1 X12.400 Y27.620 E8.5146
G1 X12.000 Y27.620 E8.5209
G1 X12.000 Y-26.620 E9.3778
G1 X11.600 Y-26.620 E9.3841
G1 X11.600 Y27.620 E10.2410
G1 X11.380 Y27.620 E10.2445
G1 X11.380 Y26.620 E10.2603
G1 X11.200 Y26.620 E10.2631
G1 X11.200 Y-26.620 E11.1043
G1 X10.800 Y-26.620 E11.1106
G1 X10.800 Y26.620 E11.9517
G1 X10.400 Y26.620 E11.9580
G1 X10.400 Y-26.620 E12.7991
G1 X10.000 Y-26.620 E12.8054
G1 X10.000 Y25.620 E13.6308
G1 X9.600 Y25.620 E13.6371
G1 X9.600 Y-26.620 E14.4624
G1 X9.200 Y-26.620 E14.4687
G1 X9.200 Y25.620 E15.2940
G1 X8.800 Y25.620 E15.3004
G1 X8.800 Y-26.620 E16.1257
G1 X8.400 Y-26.620 E16.1320
G1 X8.400 Y25.620 E16.9573
G1 X8.380 Y25.620 E16.9576
G1 X8.380 Y24.620 E16.9734
G1 X8.000 Y24.620 E16.9794
G1 X8.000 Y-26.620 E17.7889
G1 X7.600 Y-26.620 E17.7953
G1 X7.600 Y24.620 E18.6048
G1 X7.380 Y24.620 E18.6083
G1 X7.380 Y23.620 E18.6241
G1 X7.200 Y23.620 E18.6269
G1 X7.200 Y-25.620 E19.4048
G1 X6.800 Y-25.620 E19.4111
G1 X6.800 Y23.620 E20.1891
G1 X6.400 Y23.620 E20.1954
G1 X6.400 Y-25.620 E20.9733
G1 X6.000 Y-25.620 E20.9796
G1 X6.000 Y23.620 E21.7575
G1 X5.600 Y23.620 E21.7639
G1 X5.600 Y-25.620 E22.5418
G1 X5.200 Y-25.620 E22.5481
G1 X5.200 Y-8.380 E22.8205
G1 X4.800 Y-8.380 E22.8268
G1 X4.800 Y-25.620 E23.0992
G1 X4.400 Y-25.620 E23.1055
G1 X4.400 Y-8.380 E23.3778
G92 E0
G1 E-8.0000 F3000
G1 X-4.400 Y-25.620 F2400
G1 E0.0000 F3000
G92 E0
G1 X-4.400 Y-8.380 E0.2724 F960
G1 X-4.800 Y-8.380 E0.2787
G1 X-4.800 Y-25.620 E0.5511
G1 X-5.200 Y-25.620 E0.5574
G1 X-5.200 Y-8.380 E0.8297
G1 X-5.380 Y-8.380 E0.8326
G1 X-5.380 Y15.380 E1.2080
G1 X-5.200 Y15.380 E1.2108
G1 X-5.200 Y22.620 E1.3252
G1 X-5.380 Y22.620 E1.3280
G1 X-5.380 Y23.620 E1.3438
G1 X-5.600 Y23.620 E1.3473
G1 X-5.600 Y-25.620 E2.1252
G1 X-6.000 Y-25.620 E2.1315
G1 X-6.000 Y23.620 E2.9095
G1 X-6.400 Y23.620 E2.9158
G1 X-6.400 Y-25.620 E3.6937
G1 X-6.800 Y-25.620 E3.7000
G1 X-6.800 Y23.620 E4.4779
G1 X-7.200 Y23.620 E4.4843
G1 X-7.200 Y-25.620 E5.2622
G1 X-7.380 Y-25.620 E5.2650
G1 X-7.380 Y-26.620 E5.2808
G1 X-7.600 Y-26.620 E5.2843
G1 X-7.600 Y24.620 E6.0938
G1 X-8.000 Y24.620 E6.1001
G1 X-8.000 Y-26.620 E6.9097
G1 X-8.400 Y-26.620 E6.9160
G1 X-8.400 Y25.620 E7.7413
G1 X-8.800 Y25.620 E7.7476
G1 X-8.800 Y-26.620 E8.5729
G1 X-9.200 Y-26.620 E8.5793
G1 X-9.200 Y25.620 E9.4046
G1 X-9.600 Y25.620 E9.4109
G1 X-9.600 Y-26.620 E10.2362
G1 X-10.000 Y-26.620 E10.2425
G1 X-10.000 Y25.620 E11.0678
G1 X-10.380 Y25.620 E11.0738
G1 X-10.380 Y26.620 E11.0896
G1 X-10.400 Y26.620 E11.0900
G1 X-10.400 Y-26.620 E11.9311
G1 X-10.800 Y-26.620 E11.9374
G1 X-10.800 Y26.620 E12.7785
G1 X-11.200 Y26.620 E12.7848
G1 X-11.200 Y-26.620 E13.6259
G1 X-11.600 Y-26.620 E13.6323
G1 X-11.600 Y27.620 E14.4892
G1 X-12.000 Y27.620 E14.4955
G1 X-12.000 Y-26.620 E15.3524
G1 X-12.400 Y-26.620 E15.3587
G1 X-12.400 Y27.620 E16.2156
G1 X-12.800 Y27.620 E16.2220
G1 X-12.800 Y-26.620 E17.0789
G1 X-13.200 Y-26.620 E17.0852
G1 X-13.200 Y27.620 E17.9421
G1 X-13.600 Y27.620 E17.9484
G1 X-13.600 Y-26.620 E18.8053
G1 X-13.957 Y-26.620 E18.8110
G1 X-14.000 Y-26.270 E18.8165
G1 X-14.000 Y27.620 E19.6679
G1 X-14.400 Y27.620 E19.6743
G1 X-14.400 Y-23.041 E20.4746
G1 X-14.800 Y-19.813 E20.5260
G1 X-14.800 Y27.620 E21.2754
G1 X-15.200 Y27.620 E21.2817
G1 X-15.200 Y-16.584 E21.9801
G1 X-15.600 Y-13.355 E22.0315
G1 X-15.600 Y27.620 E22.6788
G1 X-16.000 Y27.620 E22.6851
G1 X-16.000 Y-10.127 E23.2815
G1 X-16.400 Y-6.898 E23.3329
G1 X-16.400 Y27.620 E23.8782
G1 X-16.620 Y27.620 E23.8817
G1 X-16.620 Y26.620 E23.8975
G1 X-16.800 Y26.620 E23.9003
G1 X-16.800 Y2.380 E24.2833
G1 X-16.620 Y2.380 E24.2861
G1 X-16.620 Y1.620 E24.2981
G1 X-16.800 Y1.620 E24.3010
G1 X-16.800 Y-3.669 E24.3845
G1 X-17.200 Y-0.440 E24.4359
G1 X-17.200 Y1.620 E24.4685
G1 X-17.600 Y1.620 E24.4748
G1 X-17.600 Y0.962 E24.4852
G92 E0
G1 E-8.0000 F3000
G1 X-17.200 Y2.380 F2400
