; G-Code generated by Simplify3D(R) Version 4.0.0
; Jan 24, 2018 at 3:17:22 PM
; Settings Summary
;   processName,Process1
;   applyToModels,bottomMGslot
;   profileName,MP Mini Delta23 (modified)
;   profileVersion,2017-10-15 16:31:22
;   baseProfile,Monoprice MP Mini Delta
;   printMaterial,eSun PLA+ - Solid Red
;   printQuality,0.08
;   printExtruders,
;   extruderName,Primary Extruder
;   extruderToolheadNumber,0
;   extruderDiameter,0.4
;   extruderAutoWidth,0
;   extruderWidth,0.4
;   extrusionMultiplier,0.95
;   extruderUseRetract,1
;   extruderRetractionDistance,8
;   extruderExtraRestartDistance,0
;   extruderRetractionZLift,0
;   extruderRetractionSpeed,3000
;   extruderUseCoasting,0
;   extruderCoastingDistance,0.2
;   extruderUseWipe,0
;   extruderWipeDistance,5
;   primaryExtruder,0
;   layerHeight,0.1
;   topSolidLayers,8
;   bottomSolidLayers,3
;   perimeterOutlines,3
;   printPerimetersInsideOut,1
;   startPointOption,2
;   startPointOriginX,0
;   startPointOriginY,0
;   sequentialIslands,0
;   spiralVaseMode,0
;   firstLayerHeightPercentage,100
;   firstLayerWidthPercentage,100
;   firstLayerUnderspeed,0.4
;   useRaft,0
;   raftExtruder,0
;   raftTopLayers,3
;   raftBaseLayers,2
;   raftOffset,5
;   raftSeparationDistance,0.14
;   raftTopInfill,100
;   aboveRaftSpeedMultiplier,0.3
;   useSkirt,0
;   skirtExtruder,0
;   skirtLayers,1
;   skirtOutlines,5
;   skirtOffset,0
;   usePrimePillar,0
;   primePillarExtruder,999
;   primePillarWidth,6
;   primePillarLocation,0
;   primePillarSpeedMultiplier,1
;   useOozeShield,0
;   oozeShieldExtruder,999
;   oozeShieldOffset,2
;   oozeShieldOutlines,1
;   oozeShieldSidewallShape,1
;   oozeShieldSidewallAngle,30
;   oozeShieldSpeedMultiplier,1
;   infillExtruder,0
;   internalInfillPattern,Rectilinear
;   externalInfillPattern,Rectilinear
;   infillPercentage,20
;   outlineOverlapPercentage,45
;   infillExtrusionWidthPercentage,100
;   minInfillLength,5
;   infillLayerInterval,3
;   internalInfillAngles,45,-45
;   overlapInternalInfillAngles,0
;   externalInfillAngles,45,-45
;   generateSupport,1
;   supportExtruder,0
;   supportInfillPercentage,40
;   supportExtraInflation,0.2
;   supportBaseLayers,0
;   denseSupportExtruder,0
;   denseSupportLayers,0
;   denseSupportInfillPercentage,70
;   supportLayerInterval,2
;   supportHorizontalPartOffset,0.4
;   supportUpperSeparationLayers,1
;   supportLowerSeparationLayers,1
;   supportType,0
;   supportGridSpacing,1
;   maxOverhangAngle,45
;   supportAngles,0
;   temperatureName,Primary Extruder,Heated Bed
;   temperatureNumber,0,0
;   temperatureSetpointCount,1,1
;   temperatureSetpointLayers,1,1
;   temperatureSetpointTemperatures,195,30
;   temperatureStabilizeAtStartup,1,1
;   temperatureHeatedBed,0,1
;   temperatureRelayBetweenLayers,0,0
;   temperatureRelayBetweenLoops,0,0
;   fanLayers,1,2,3
;   fanSpeeds,0,60,100
;   blipFanToFullPower,1
;   adjustSpeedForCooling,1
;   minSpeedLayerTime,15
;   minCoolingSpeedSlowdown,20
;   increaseFanForCooling,0
;   minFanLayerTime,45
;   maxCoolingFanSpeed,100
;   increaseFanForBridging,0
;   bridgingFanSpeed,100
;   use5D,1
;   relativeEdistances,0
;   allowEaxisZeroing,1
;   independentExtruderAxes,0
;   includeM10123,0
;   stickySupport,1
;   applyToolheadOffsets,0
;   gcodeXoffset,0
;   gcodeYoffset,0
;   gcodeZoffset,0.23
;   overrideMachineDefinition,1
;   machineTypeOverride,1
;   strokeXoverride,77.8
;   strokeYoverride,77.8
;   strokeZoverride,120
;   originOffsetXoverride,38.9
;   originOffsetYoverride,38.9
;   originOffsetZoverride,0
;   homeXdirOverride,0
;   homeYdirOverride,0
;   homeZdirOverride,-1
;   flipXoverride,1
;   flipYoverride,-1
;   flipZoverride,1
;   toolheadOffsets,0,0|0,0|0,0|0,0|0,0|0,0
;   overrideFirmwareConfiguration,1
;   firmwareTypeOverride,RepRap (Marlin/Repetier/Sprinter)
;   GPXconfigOverride,r2
;   baudRateOverride,115200
;   overridePrinterModels,1
;   printerModelsOverride,MP_Mini_Delta_Platform.stl
;   startingGcode,G90 ; absolute positioning - this line was added in case Cura doesn't include it by default,M82 ; set extruder to absolute mode - this line was added in case Cura doesn't include it by default (may not be needed),M107; start with the fan off (I don't think this is possible),G28 ; Start from home position,G29 C-0.8 Z0.3 ; probe the bed at 3 points with a 0.3mm overall vertical offset and an additional -0.8mm center offset ,G1 Z15.0 F4800  ; move the nozzle up 15mm,G92 E0 ; reset extrusion distance,G1 F200 E3 ; extrude 3mm of feed stock,G92 E0 ; reset extrusion distance again,G1 F4800
;   layerChangeGcode,
;   retractionGcode,
;   toolChangeGcode,
;   endingGcode,M104 S0 ; turn off hotend heater,M140 S0 ; turn off bed heater,G91 ; Switch to use Relative Coordinates,G1 E-3 F700 ; retract the filament a bit before lifting the nozzle to release some of the pressure,G1 Z2 F1000 ; raise platform 2mm from current position,G1 E-2 F700 ; retract filament even more,G90 ; Switch back to using absolute coordinates,G28 X ; Return to home position. Without an X Y or Z after G28 the print completion time will not be displayed on the Mini Delta's display.,M84 ; disable motors,G4 S360 ; pause for 360 seconds to keep fan running to cool hotend and allow the fan to be turned off,M107 ; turn off fan. Some say M107 doesn't work for them but if the hotend is cool enough it should work,;M106 S1 ; turn off fan. Remove the semicolon in front of M106 if M107 doesn't work for you
;   exportFileFormat,gcode
;   celebration,0
;   celebrationSong,Random Song
;   postProcessing,
;   defaultSpeed,3200
;   outlineUnderspeed,1
;   solidInfillUnderspeed,1
;   supportUnderspeed,1
;   rapidXYspeed,3200
;   rapidZspeed,1002
;   minBridgingArea,50
;   bridgingExtraInflation,0
;   bridgingExtrusionMultiplier,1
;   bridgingSpeedMultiplier,1
;   useFixedBridgingAngle,0
;   fixedBridgingAngle,0
;   applyBridgingToPerimeters,0
;   filamentDiameters,1.75|1.75|1.75|1.75|1.75|1.75
;   filamentPricesPerKg,48|25|25|25|25|25
;   filamentDensities,1.25|1.25|1.25|1.25|1.25|1.25
;   useMinPrintHeight,0
;   minPrintHeight,42
;   useMaxPrintHeight,0
;   maxPrintHeight,0
;   useDiaphragm,0
;   diaphragmLayerInterval,20
;   robustSlicing,1
;   mergeAllIntoSolid,0
;   onlyRetractWhenCrossingOutline,1
;   retractBetweenLayers,1
;   useRetractionMinTravel,0
;   retractionMinTravel,3
;   retractWhileWiping,1
;   onlyWipeOutlines,1
;   avoidCrossingOutline,1
;   maxMovementDetourFactor,5
;   toolChangeRetractionDistance,12
;   toolChangeExtraRestartDistance,-0.5
;   toolChangeRetractionSpeed,600
;   externalThinWallType,1
;   internalThinWallType,1
;   thinWallAllowedOverlapPercentage,100
;   singleExtrusionMinLength,0.4
;   singleExtrusionMinPrintingWidthPercentage,50
;   singleExtrusionMaxPrintingWidthPercentage,200
;   singleExtrusionEndpointExtension,0.2
;   horizontalSizeCompensation,0
G90
M82
M106 S255
G4 P500
M106 S0
M140 S30
M190 S30
M104 S195 T0
M109 S195 T0
G90 ; absolute positioning - this line was added in case Cura doesn't include it by default
M82 ; set extruder to absolute mode - this line was added in case Cura doesn't include it by default (may not be needed)
M107; start with the fan off (I don't think this is possible)
G28 ; Start from home position
G29 C-0.8 Z0.3 ; probe the bed at 3 points with a 0.3mm overall vertical offset and an additional -0.8mm center offset 
G1 Z15.0 F4800  ; move the nozzle up 15mm
G92 E0 ; reset extrusion distance
G1 F200 E3 ; extrude 3mm of feed stock
G92 E0 ; reset extrusion distance again
G1 F4800
G92 E0
G1 E-8.0000 F3000
G1 Z0.330 F1002
; process Process1
; layer 1, Z = 0.100
T0
; tool H0.100 W0.400
; inner perimeter
G1 X8.452 Y-2.051 F3200
G1 E0.0000 F900
G92 E0
G1 X0.022 Y-28.542 E0.4392 F1280
G1 X-8.712 Y-28.510 E0.5772
G1 X-15.532 Y-24.253 E0.7042
G1 X-15.876 Y-17.698 E0.8079
G1 X-9.568 Y-0.685 E1.0946
G1 X-11.553 Y-0.127 E1.1271
G1 X-6.611 Y15.636 E1.3881
G1 X-6.795 Y16.104 E1.3961
G1 X-7.075 Y17.642 E1.4208
G1 X-7.048 Y19.205 E1.4455
G1 X-6.718 Y20.734 E1.4702
G1 X-6.097 Y22.165 E1.4948
G1 X-5.221 Y23.448 E1.5194
G1 X-4.131 Y24.544 E1.5438
G1 X-3.755 Y24.802 E1.5510
G1 X-3.194 Y26.597 E1.5807
G1 X-1.293 Y26.036 E1.6120
G1 X-0.005 Y26.351 E1.6330
G1 X1.512 Y26.372 E1.6569
G1 X2.990 Y26.082 E1.6807
G1 X4.384 Y25.487 E1.7047
G1 X5.059 Y25.019 E1.7176
G1 X7.669 Y30.001 E1.8065
G1 X5.124 Y30.025 E1.8467
G1 X2.544 Y32.646 E1.9048
G1 X1.760 Y33.712 E1.9257
G1 X-10.046 Y38.158 E2.1250
G1 X-8.070 Y29.547 E2.2646
G1 X-9.822 Y28.647 E2.2957
G1 X-8.524 Y28.219 E2.3173
G1 X-14.124 Y18.483 E2.4948
G1 X-15.532 Y6.679 E2.6826
G1 X-12.235 Y5.756 E2.7367
G1 X-14.854 Y-1.525 E2.8589
G1 X-16.867 Y-11.448 E3.0189
G1 X-17.695 Y-13.479 E3.0535
G1 X-21.045 Y-20.688 E3.1791
G1 X-23.710 Y-20.509 E3.2213
G1 X-24.439 Y-22.078 E3.2486
G1 X-20.333 Y-26.374 E3.3425
G1 X-17.844 Y-28.281 E3.3921
G1 X-12.043 Y-30.455 E3.4899
G1 X-1.463 Y-32.201 E3.6593
G1 X-1.351 Y-40.745 E3.7943
G1 X24.634 Y-40.745 E4.2049
G1 X24.634 Y12.626 E5.0480
G1 X24.132 Y17.495 E5.1254
G1 X19.846 Y39.725 E5.4830
G1 X13.056 Y33.052 E5.6335
G1 X9.834 Y29.981 E5.7038
G1 X8.224 Y29.996 E5.7292
G1 X11.167 Y28.193 E5.7837
G1 X18.032 Y29.797 E5.8951
G1 X21.954 Y17.862 E6.0936
G1 X18.266 Y7.497 E6.2674
G1 X8.452 Y-2.051 E6.4837
G1 X25.034 Y12.646 F3200
G92 E0
G1 X24.528 Y17.554 E0.0779 F1280
G1 X20.098 Y40.533 E0.4477
G1 X12.777 Y33.339 E0.6098
G1 X9.676 Y30.382 E0.6775
G1 X5.293 Y30.423 E0.7468
G1 X2.849 Y32.906 E0.8018
G1 X2.012 Y34.045 E0.8241
G1 X-10.772 Y38.859 E1.0399
G1 X-12.196 Y38.925 E1.0625
G1 X-10.444 Y38.103 E1.0930
G1 X-8.530 Y29.761 E1.2283
G1 X-10.854 Y28.567 E1.2695
G1 X-9.116 Y27.993 E1.2985
G1 X-14.511 Y18.611 E1.4694
G1 X-15.970 Y6.386 E1.6639
G1 X-12.757 Y5.487 E1.7167
G1 X-15.240 Y-1.417 E1.8326
G1 X-17.251 Y-11.332 E1.9924
G1 X-18.062 Y-13.319 E2.0263
G1 X-21.292 Y-20.270 E2.1474
G1 X-23.957 Y-20.091 E2.1896
G1 X-24.917 Y-22.157 E2.2256
G1 X-20.600 Y-26.672 E2.3243
G1 X-18.040 Y-28.635 E2.3753
G1 X-12.147 Y-30.843 E2.4747
G1 X-1.859 Y-32.541 E2.6394
G1 X-1.745 Y-41.145 E2.7754
G1 X25.034 Y-41.145 E3.1984
G1 X25.034 Y12.646 E4.0483
; outer perimeter
G1 X25.434 Y12.667 F3200
G92 E0
G1 X24.924 Y17.612 E0.0785 F1280
G1 X20.350 Y41.341 E0.4603
G1 X12.499 Y33.627 E0.6342
G1 X9.517 Y30.784 E0.6993
G1 X5.462 Y30.822 E0.7634
G1 X3.154 Y33.166 E0.8153
G1 X2.264 Y34.378 E0.8391
G1 X-10.690 Y39.255 E1.0578
G1 X-13.221 Y39.374 E1.0978
G1 X-13.285 Y38.995 E1.1039
G1 X-10.790 Y37.824 E1.1474
G1 X-8.989 Y29.974 E1.2746
G1 X-11.886 Y28.487 E1.3261
G1 X-9.707 Y27.767 E1.3624
G1 X-14.899 Y18.740 E1.5269
G1 X-16.350 Y6.580 E1.7203
G1 X-16.853 Y6.544 E1.7283
G1 X-16.623 Y6.154 E1.7355
G1 X-13.279 Y5.217 E1.7903
G1 X-15.627 Y-1.309 E1.8999
G1 X-17.636 Y-11.216 E2.0596
G1 X-18.429 Y-13.159 E2.0928
G1 X-21.539 Y-19.853 E2.2094
G1 X-24.204 Y-19.674 E2.2516
G1 X-25.395 Y-22.236 E2.2962
G1 X-20.868 Y-26.971 E2.3997
G1 X-18.236 Y-28.988 E2.4521
G1 X-12.250 Y-31.232 E2.5531
G1 X-2.254 Y-32.881 E2.7131
G1 X-2.140 Y-41.545 E2.8500
G1 X25.434 Y-41.545 E3.2857
G1 X25.434 Y12.667 E4.1421
; inner perimeter
G1 X21.531 Y17.867 F3200
G92 E0
G1 X17.921 Y7.718 E0.1702 F1280
G1 X8.101 Y-1.834 E0.3866
G1 X-0.270 Y-28.141 E0.8228
G1 X-8.597 Y-28.110 E0.9543
G1 X-15.143 Y-24.024 E1.0762
G1 X-15.472 Y-17.760 E1.1753
G1 X-9.042 Y-0.417 E1.4675
G1 X-11.048 Y0.147 E1.5005
G1 X-6.187 Y15.652 E1.7572
G1 X-6.409 Y16.214 E1.7667
G1 X-6.674 Y17.675 E1.7902
G1 X-6.649 Y19.159 E1.8136
G1 X-6.335 Y20.611 E1.8371
G1 X-5.745 Y21.971 E1.8605
G1 X-4.912 Y23.192 E1.8839
G1 X-3.874 Y24.235 E1.9071
G1 X-3.415 Y24.550 E1.9159
G1 X-2.930 Y26.102 E1.9416
G1 X-1.303 Y25.622 E1.9684
G1 X0.046 Y25.952 E1.9903
G1 X1.476 Y25.972 E2.0129
G1 X2.872 Y25.697 E2.0354
G1 X4.190 Y25.135 E2.0580
G1 X5.203 Y24.432 E2.0775
G1 X7.957 Y29.690 E2.1713
G1 X11.098 Y27.766 E2.2295
G1 X17.766 Y29.325 E2.3377
G1 X21.531 Y17.867 E2.5282
; outer perimeter
G1 X21.109 Y17.873 F3200
G92 E0
G1 X17.575 Y7.940 E0.1666 F1280
G1 X7.751 Y-1.617 E0.3831
G1 X-0.562 Y-27.740 E0.8162
G1 X-8.482 Y-27.711 E0.9413
G1 X-14.755 Y-23.795 E1.0581
G1 X-15.068 Y-17.821 E1.1526
G1 X-8.516 Y-0.150 E1.4504
G1 X-10.543 Y0.420 E1.4837
G1 X-5.763 Y15.667 E1.7361
G1 X-6.022 Y16.324 E1.7473
G1 X-6.273 Y17.708 E1.7695
G1 X-6.250 Y19.113 E1.7917
G1 X-5.953 Y20.487 E1.8139
G1 X-5.393 Y21.777 E1.8361
G1 X-4.602 Y22.936 E1.8583
G1 X-3.617 Y23.926 E1.8803
G1 X-3.074 Y24.299 E1.8907
G1 X-2.665 Y25.607 E1.9124
G1 X-1.313 Y25.208 E1.9347
G1 X0.097 Y25.552 E1.9576
G1 X1.440 Y25.571 E1.9788
G1 X2.754 Y25.313 E2.0000
G1 X3.995 Y24.784 E2.0213
G1 X5.124 Y24.000 E2.0430
G1 X5.321 Y23.795 E2.0475
G1 X8.113 Y29.125 E2.1425
G1 X11.030 Y27.339 E2.1966
G1 X17.500 Y28.852 E2.3016
G1 X21.109 Y17.873 E2.4841
; solid layer
G1 X21.102 Y17.879 F3200
G1 X17.498 Y28.847 F3200
G1 X11.649 Y27.480 F3200
G1 X9.400 Y29.765 F3200
G92 E0
G1 X9.257 Y29.621 E0.0032 F1280
G1 X9.607 Y29.406 E0.0097
G1 X10.766 Y30.565 E0.0356
G1 X13.209 Y32.894 E0.0889
G1 X19.708 Y39.280 E0.2329
G1 X19.763 Y38.996 E0.2374
G1 X9.958 Y29.192 E0.4565
G1 X10.309 Y28.977 E0.4630
G1 X19.854 Y38.522 E0.6763
G1 X19.946 Y38.048 E0.6839
G1 X10.660 Y28.762 E0.8914
G1 X11.011 Y28.547 E0.8979
G1 X20.037 Y37.573 E1.0995
G1 X20.129 Y37.099 E1.1072
G1 X11.534 Y28.505 E1.2992
G1 X12.273 Y28.677 E1.3112
G1 X20.220 Y36.625 E1.4887
G1 X20.311 Y36.151 E1.4964
G1 X13.011 Y28.850 E1.6595
G1 X13.749 Y29.022 E1.6714
G1 X20.403 Y35.676 E1.8201
G1 X20.494 Y35.202 E1.8277
G1 X14.487 Y29.195 E1.9620
G1 X15.225 Y29.368 E1.9739
G1 X20.586 Y34.728 E2.0937
G1 X20.677 Y34.254 E2.1013
G1 X15.964 Y29.540 E2.2066
G1 X16.702 Y29.713 E2.2186
G1 X20.769 Y33.779 E2.3095
G1 X20.860 Y33.305 E2.3171
G1 X17.440 Y29.885 E2.3935
G1 X18.178 Y30.058 E2.4055
G1 X20.951 Y32.831 E2.4674
G1 X21.043 Y32.357 E2.4751
G1 X18.318 Y29.631 E2.5360
G1 X18.458 Y29.206 E2.5430
G1 X21.134 Y31.882 E2.6028
G1 X21.226 Y31.408 E2.6105
G1 X18.598 Y28.780 E2.6692
G1 X18.738 Y28.354 E2.6763
G1 X21.317 Y30.934 E2.7339
G1 X21.409 Y30.460 E2.7415
G1 X18.877 Y27.928 E2.7981
G1 X19.017 Y27.503 E2.8052
G1 X21.500 Y29.985 E2.8606
G1 X21.591 Y29.511 E2.8683
G1 X19.157 Y27.077 E2.9227
G1 X19.297 Y26.651 E2.9297
G1 X21.683 Y29.037 E2.9830
G1 X21.774 Y28.563 E2.9907
G1 X19.437 Y26.225 E3.0429
G1 X19.577 Y25.800 E3.0500
G1 X21.866 Y28.088 E3.1011
G1 X21.957 Y27.614 E3.1087
G1 X19.717 Y25.374 E3.1588
G1 X19.857 Y24.948 E3.1659
G1 X22.049 Y27.140 E3.2148
G1 X22.140 Y26.666 E3.2225
G1 X19.997 Y24.522 E3.2704
G1 X20.137 Y24.097 E3.2774
G1 X22.232 Y26.191 E3.3242
G1 X22.323 Y25.717 E3.3319
G1 X20.277 Y23.671 E3.3776
G1 X20.417 Y23.245 E3.3847
G1 X22.414 Y25.243 E3.4293
G1 X22.506 Y24.769 E3.4369
G1 X20.557 Y22.819 E3.4805
G1 X20.696 Y22.394 E3.4876
G1 X22.597 Y24.294 E3.5300
G1 X22.689 Y23.820 E3.5377
G1 X20.836 Y21.968 E3.5791
G1 X20.976 Y21.542 E3.5861
G1 X22.780 Y23.346 E3.6264
G1 X22.872 Y22.872 E3.6341
G1 X21.116 Y21.116 E3.6733
G1 X21.256 Y20.691 E3.6804
G1 X22.963 Y22.397 E3.7185
G1 X23.054 Y21.923 E3.7261
G1 X21.396 Y20.265 E3.7632
G1 X21.536 Y19.839 E3.7703
G1 X23.146 Y21.449 E3.8062
G1 X23.237 Y20.975 E3.8139
G1 X21.676 Y19.413 E3.8487
G1 X21.816 Y18.987 E3.8558
G1 X23.329 Y20.500 E3.8896
G1 X23.420 Y20.026 E3.8973
G1 X21.956 Y18.562 E3.9300
G1 X22.096 Y18.136 E3.9371
G1 X23.512 Y19.552 E3.9687
G1 X23.603 Y19.078 E3.9763
G1 X22.077 Y17.552 E4.0104
G1 X21.765 Y16.673 E4.0251
G1 X23.695 Y18.603 E4.0683
G1 X23.786 Y18.129 E4.0759
G1 X21.452 Y15.795 E4.1280
G1 X21.140 Y14.917 E4.1428
G1 X23.877 Y17.655 E4.2039
G1 X23.914 Y17.463 E4.2070
G1 X23.946 Y17.158 E4.2119
G1 X20.827 Y14.039 E4.2815
G1 X20.515 Y13.161 E4.2962
G1 X23.999 Y16.645 E4.3741
G1 X24.052 Y16.132 E4.3822
G1 X20.203 Y12.283 E4.4682
G1 X19.890 Y11.405 E4.4829
G1 X24.104 Y15.619 E4.5771
G1 X24.157 Y15.106 E4.5852
G1 X19.578 Y10.527 E4.6875
G1 X19.266 Y9.649 E4.7023
G1 X24.210 Y14.593 E4.8127
G1 X24.263 Y14.081 E4.8209
G1 X18.953 Y8.771 E4.9395
G1 X18.641 Y7.893 E4.9542
G1 X24.316 Y13.568 E5.0810
G1 X24.369 Y13.055 E5.0892
G1 X8.412 Y-2.901 E5.4457
G1 X8.148 Y-3.731 E5.4594
G1 X24.414 Y12.535 E5.8229
G1 X24.414 Y11.969 E5.8318
