; G-Code generated by Simplify3D(R) Version 4.0.0
; Feb 12, 2018 at 3:24:08 AM
; Settings Summary
;   processName,colorfab black jupiter
;   applyToModels,bottomMGparts
;   profileName,MP Mini Delta23 (modified)
;   profileVersion,2017-10-15 16:31:22
;   baseProfile,Monoprice MP Mini Delta
;   printMaterial,eSun PLA+ - Solid Red
;   printQuality,0.08
;   printExtruders,
;   extruderName,Primary Extruder
;   extruderToolheadNumber,0
;   extruderDiameter,0.4
;   extruderAutoWidth,0
;   extruderWidth,0.4
;   extrusionMultiplier,0.95
;   extruderUseRetract,1
;   extruderRetractionDistance,8
;   extruderExtraRestartDistance,0
;   extruderRetractionZLift,0
;   extruderRetractionSpeed,3000
;   extruderUseCoasting,0
;   extruderCoastingDistance,0.2
;   extruderUseWipe,0
;   extruderWipeDistance,5
;   primaryExtruder,0
;   layerHeight,0.1
;   topSolidLayers,8
;   bottomSolidLayers,8
;   perimeterOutlines,3
;   printPerimetersInsideOut,0
;   startPointOption,2
;   startPointOriginX,0
;   startPointOriginY,0
;   sequentialIslands,0
;   spiralVaseMode,0
;   firstLayerHeightPercentage,100
;   firstLayerWidthPercentage,100
;   firstLayerUnderspeed,0.4
;   useRaft,0
;   raftExtruder,0
;   raftTopLayers,3
;   raftBaseLayers,2
;   raftOffset,2
;   raftSeparationDistance,0.14
;   raftTopInfill,100
;   aboveRaftSpeedMultiplier,0.3
;   useSkirt,0
;   skirtExtruder,0
;   skirtLayers,3
;   skirtOutlines,5
;   skirtOffset,0
;   usePrimePillar,0
;   primePillarExtruder,999
;   primePillarWidth,6
;   primePillarLocation,0
;   primePillarSpeedMultiplier,1
;   useOozeShield,0
;   oozeShieldExtruder,999
;   oozeShieldOffset,2
;   oozeShieldOutlines,1
;   oozeShieldSidewallShape,1
;   oozeShieldSidewallAngle,30
;   oozeShieldSpeedMultiplier,1
;   infillExtruder,0
;   internalInfillPattern,Fast Honeycomb
;   externalInfillPattern,Rectilinear
;   infillPercentage,20
;   outlineOverlapPercentage,45
;   infillExtrusionWidthPercentage,100
;   minInfillLength,5
;   infillLayerInterval,3
;   internalInfillAngles,0
;   overlapInternalInfillAngles,0
;   externalInfillAngles,45,-45
;   generateSupport,1
;   supportExtruder,0
;   supportInfillPercentage,40
;   supportExtraInflation,0.6
;   supportBaseLayers,1
;   denseSupportExtruder,0
;   denseSupportLayers,0
;   denseSupportInfillPercentage,70
;   supportLayerInterval,2
;   supportHorizontalPartOffset,0.2
;   supportUpperSeparationLayers,0
;   supportLowerSeparationLayers,0
;   supportType,0
;   supportGridSpacing,1
;   maxOverhangAngle,45
;   supportAngles,90
;   temperatureName,Primary Extruder,Heated Bed
;   temperatureNumber,0,0
;   temperatureSetpointCount,1,1
;   temperatureSetpointLayers,1,1
;   temperatureSetpointTemperatures,195,30
;   temperatureStabilizeAtStartup,1,1
;   temperatureHeatedBed,0,1
;   temperatureRelayBetweenLayers,0,0
;   temperatureRelayBetweenLoops,0,0
;   fanLayers,1,2,3
;   fanSpeeds,0,60,100
;   blipFanToFullPower,1
;   adjustSpeedForCooling,1
;   minSpeedLayerTime,15
;   minCoolingSpeedSlowdown,20
;   increaseFanForCooling,0
;   minFanLayerTime,45
;   maxCoolingFanSpeed,100
;   increaseFanForBridging,0
;   bridgingFanSpeed,100
;   use5D,1
;   relativeEdistances,0
;   allowEaxisZeroing,1
;   independentExtruderAxes,0
;   includeM10123,0
;   stickySupport,1
;   applyToolheadOffsets,0
;   gcodeXoffset,0
;   gcodeYoffset,0
;   gcodeZoffset,0.25
;   overrideMachineDefinition,1
;   machineTypeOverride,1
;   strokeXoverride,77.8
;   strokeYoverride,77.8
;   strokeZoverride,120
;   originOffsetXoverride,38.9
;   originOffsetYoverride,38.9
;   originOffsetZoverride,0
;   homeXdirOverride,0
;   homeYdirOverride,0
;   homeZdirOverride,-1
;   flipXoverride,1
;   flipYoverride,-1
;   flipZoverride,1
;   toolheadOffsets,0,0|0,0|0,0|0,0|0,0|0,0
;   overrideFirmwareConfiguration,1
;   firmwareTypeOverride,RepRap (Marlin/Repetier/Sprinter)
;   GPXconfigOverride,r2
;   baudRateOverride,115200
;   overridePrinterModels,1
;   printerModelsOverride,MP_Mini_Delta_Platform.stl
;   startingGcode,G90 ; absolute positioning - this line was added in case Cura doesn't include it by default,M82 ; set extruder to absolute mode - this line was added in case Cura doesn't include it by default (may not be needed),M107; start with the fan off (I don't think this is possible),G28 ; Start from home position,G29 C-0.8 Z0.3 ; probe the bed at 3 points with a 0.3mm overall vertical offset and an additional -0.8mm center offset ,G1 Z15.0 F4800  ; move the nozzle up 15mm,G92 E0 ; reset extrusion distance,G1 F200 E3 ; extrude 3mm of feed stock,G92 E0 ; reset extrusion distance again,G1 F4800
;   layerChangeGcode,
;   retractionGcode,
;   toolChangeGcode,
;   endingGcode,M104 S0 ; turn off hotend heater,M140 S0 ; turn off bed heater,G91 ; Switch to use Relative Coordinates,G1 E-3 F700 ; retract the filament a bit before lifting the nozzle to release some of the pressure,G1 Z2 F1000 ; raise platform 2mm from current position,G1 E-2 F700 ; retract filament even more,G90 ; Switch back to using absolute coordinates,G28 X ; Return to home position. Without an X Y or Z after G28 the print completion time will not be displayed on the Mini Delta's display.,M84 ; disable motors,G4 S360 ; pause for 360 seconds to keep fan running to cool hotend and allow the fan to be turned off,M107 ; turn off fan. Some say M107 doesn't work for them but if the hotend is cool enough it should work,;M106 S1 ; turn off fan. Remove the semicolon in front of M106 if M107 doesn't work for you
;   exportFileFormat,gcode
;   celebration,0
;   celebrationSong,Random Song
;   postProcessing,
;   defaultSpeed,2400
;   outlineUnderspeed,1
;   solidInfillUnderspeed,1
;   supportUnderspeed,1
;   rapidXYspeed,2400
;   rapidZspeed,1002
;   minBridgingArea,50
;   bridgingExtraInflation,0
;   bridgingExtrusionMultiplier,0.9
;   bridgingSpeedMultiplier,1
;   useFixedBridgingAngle,0
;   fixedBridgingAngle,0
;   applyBridgingToPerimeters,0
;   filamentDiameters,1.75|1.75|1.75|1.75|1.75|1.75
;   filamentPricesPerKg,48|25|25|25|25|25
;   filamentDensities,1.25|1.25|1.25|1.25|1.25|1.25
;   useMinPrintHeight,0
;   minPrintHeight,42
;   useMaxPrintHeight,0
;   maxPrintHeight,0
;   useDiaphragm,0
;   diaphragmLayerInterval,20
;   robustSlicing,1
;   mergeAllIntoSolid,0
;   onlyRetractWhenCrossingOutline,1
;   retractBetweenLayers,1
;   useRetractionMinTravel,0
;   retractionMinTravel,3
;   retractWhileWiping,1
;   onlyWipeOutlines,1
;   avoidCrossingOutline,1
;   maxMovementDetourFactor,5
;   toolChangeRetractionDistance,12
;   toolChangeExtraRestartDistance,-0.5
;   toolChangeRetractionSpeed,600
;   externalThinWallType,1
;   internalThinWallType,1
;   thinWallAllowedOverlapPercentage,100
;   singleExtrusionMinLength,0.4
;   singleExtrusionMinPrintingWidthPercentage,50
;   singleExtrusionMaxPrintingWidthPercentage,200
;   singleExtrusionEndpointExtension,0.2
;   horizontalSizeCompensation,0
G90
M82
M106 S255
G4 P500
M106 S0
M140 S30
M190 S30
M104 S195 T0
M109 S195 T0
G90 ; absolute positioning - this line was added in case Cura doesn't include it by default
M82 ; set extruder to absolute mode - this line was added in case Cura doesn't include it by default (may not be needed)
M107; start with the fan off (I don't think this is possible)
G28 ; Start from home position
G29 C-0.8 Z0.3 ; probe the bed at 3 points with a 0.3mm overall vertical offset and an additional -0.8mm center offset 
G1 Z15.0 F4800  ; move the nozzle up 15mm
G92 E0 ; reset extrusion distance
G1 F200 E3 ; extrude 3mm of feed stock
G92 E0 ; reset extrusion distance again
G1 F4800
G92 E0
G1 E-8.0000 F3000
G1 Z0.350 F1002
; process colorfab black jupiter
; layer 1, Z = 0.100
T0
; tool H0.100 W0.400
; outer perimeter
G1 X7.826 Y0.931 F2400
G1 E0.0000 F900
G92 E0
G1 X-6.135 Y-6.666 E0.2511 F960
G1 X-5.084 Y-8.498 E0.2845
G1 X-22.438 Y-16.924 E0.5892
G1 X-25.686 Y-20.874 E0.6700
G1 X-23.974 Y-27.620 E0.7800
G1 X-19.188 Y-32.245 E0.8851
G1 X4.338 Y-19.441 E1.3083
G1 X17.832 Y-19.342 E1.5215
G1 X26.903 Y-14.794 E1.6818
G1 X31.425 Y-5.484 E1.8453
G1 X26.663 Y-2.823 E1.9315
G1 X25.964 Y0.319 E1.9824
G1 X19.913 Y-1.491 E2.0822
G1 X19.908 Y-0.564 E2.0968
G1 X19.664 Y0.638 E2.1162
G1 X19.189 Y1.770 E2.1356
G1 X18.503 Y2.787 E2.1550
G1 X17.632 Y3.651 E2.1744
G1 X16.608 Y4.328 E2.1937
G1 X15.473 Y4.793 E2.2131
G1 X14.268 Y5.027 E2.2325
G1 X13.041 Y5.021 E2.2519
G1 X11.839 Y4.777 E2.2713
G1 X10.707 Y4.302 E2.2907
G1 X9.690 Y3.616 E2.3101
G1 X8.826 Y2.744 E2.3294
G1 X8.149 Y1.721 E2.3488
G1 X7.826 Y0.931 E2.3623
; inner perimeter
G1 X8.142 Y0.648 F2400
G92 E0
G1 X-5.584 Y-6.822 E0.2469 F960
G1 X-4.523 Y-8.670 E0.2805
G1 X-22.185 Y-17.245 E0.5907
G1 X-25.249 Y-20.972 E0.6669
G1 X-23.615 Y-27.412 E0.7719
G1 X-19.122 Y-31.754 E0.8706
G1 X4.234 Y-19.042 E1.2907
G1 X17.736 Y-18.943 E1.5040
G1 X26.603 Y-14.497 E1.6607
G1 X30.900 Y-5.649 E1.8161
G1 X26.311 Y-3.085 E1.8992
G1 X25.667 Y-0.187 E1.9461
G1 X19.515 Y-2.028 E2.0475
G1 X19.509 Y-0.606 E2.0700
G1 X19.280 Y0.520 E2.0882
G1 X18.836 Y1.579 E2.1063
G1 X18.194 Y2.530 E2.1244
G1 X17.378 Y3.339 E2.1426
G1 X16.420 Y3.973 E2.1607
G1 X15.358 Y4.407 E2.1789
G1 X14.231 Y4.626 E2.1970
G1 X13.082 Y4.621 E2.2151
G1 X11.957 Y4.393 E2.2333
G1 X10.898 Y3.948 E2.2514
G1 X9.946 Y3.306 E2.2696
G1 X9.138 Y2.491 E2.2877
G1 X8.504 Y1.533 E2.3058
G1 X8.142 Y0.648 E2.3210
G1 X7.892 Y0.057 F2400
G92 E0
G1 X-5.033 Y-6.978 E0.2325 F960
G1 X-3.963 Y-8.843 E0.2665
G1 X-21.931 Y-17.567 E0.5820
G1 X-24.811 Y-21.069 E0.6537
G1 X-23.255 Y-27.203 E0.7536
G1 X-19.055 Y-31.262 E0.8459
G1 X4.131 Y-18.642 E1.2630
G1 X17.640 Y-18.543 E1.4764
G1 X26.302 Y-14.201 E1.6295
G1 X30.375 Y-5.814 E1.7768
G1 X25.960 Y-3.347 E1.8567
G1 X25.370 Y-0.694 E1.8996
G1 X19.473 Y-2.458 E1.9969
G1 X19.387 Y-2.904 E2.0040
G1 X18.946 Y-3.984 E2.0225
G1 X18.303 Y-4.958 E2.0409
G1 X17.482 Y-5.787 E2.0593
G1 X16.515 Y-6.440 E2.0778
G1 X15.439 Y-6.892 E2.0962
G1 X14.296 Y-7.126 E2.1146
G1 X13.129 Y-7.132 E2.1331
G1 X11.983 Y-6.910 E2.1515
G1 X10.903 Y-6.469 E2.1700
G1 X9.926 Y-5.824 E2.1885
G1 X9.100 Y-5.005 E2.2068
G1 X8.447 Y-4.038 E2.2253
G1 X7.995 Y-2.962 E2.2437
G1 X7.761 Y-1.819 E2.2621
G1 X7.755 Y-0.652 E2.2806
G1 X7.892 Y0.057 E2.2920
; outer perimeter
G1 X8.747 Y0.264 F2400
G92 E0
G1 X9.129 Y1.199 E0.0159 F960
G1 X9.685 Y2.041 E0.0319
G1 X10.395 Y2.758 E0.0478
G1 X11.232 Y3.323 E0.0638
G1 X12.162 Y3.714 E0.0797
G1 X13.151 Y3.916 E0.0957
G1 X14.160 Y3.921 E0.1116
G1 X15.151 Y3.729 E0.1276
G1 X16.086 Y3.348 E0.1435
G1 X16.928 Y2.792 E0.1595
G1 X17.645 Y2.082 E0.1754
G1 X18.210 Y1.245 E0.1913
G1 X18.601 Y0.315 E0.2073
G1 X18.803 Y-0.674 E0.2232
G1 X18.808 Y-1.684 E0.2392
G1 X18.617 Y-2.674 E0.2551
G1 X18.235 Y-3.609 E0.2711
G1 X17.679 Y-4.451 E0.2870
G1 X16.969 Y-5.168 E0.3030
G1 X16.132 Y-5.733 E0.3189
G1 X15.202 Y-6.124 E0.3349
G1 X14.213 Y-6.326 E0.3508
G1 X13.204 Y-6.332 E0.3668
G1 X12.213 Y-6.140 E0.3827
G1 X11.278 Y-5.758 E0.3986
G1 X10.433 Y-5.200 E0.4147
G1 X9.719 Y-4.492 E0.4305
G1 X9.154 Y-3.656 E0.4465
G1 X8.763 Y-2.725 E0.4624
G1 X8.561 Y-1.736 E0.4784
G1 X8.556 Y-0.727 E0.4943
G1 X8.747 Y0.264 E0.5103
; inner perimeter
G1 X8.362 Y0.379 F2400
G92 E0
G1 X8.773 Y1.386 E0.0172 F960
G1 X9.373 Y2.294 E0.0344
G1 X10.139 Y3.067 E0.0516
G1 X11.040 Y3.677 E0.0688
G1 X12.043 Y4.098 E0.0860
G1 X13.110 Y4.316 E0.1031
G1 X14.198 Y4.321 E0.1203
G1 X15.266 Y4.115 E0.1375
G1 X16.273 Y3.703 E0.1547
G1 X17.181 Y3.104 E0.1719
G1 X17.955 Y2.338 E0.1891
G1 X18.564 Y1.436 E0.2063
G1 X18.985 Y0.433 E0.2235
G1 X19.203 Y-0.633 E0.2407
G1 X19.209 Y-1.721 E0.2579
G1 X19.002 Y-2.789 E0.2750
G1 X18.591 Y-3.797 E0.2922
G1 X17.991 Y-4.704 E0.3094
G1 X17.225 Y-5.478 E0.3266
G1 X16.324 Y-6.087 E0.3438
G1 X15.321 Y-6.508 E0.3610
G1 X14.254 Y-6.726 E0.3782
G1 X13.166 Y-6.732 E0.3954
G1 X12.098 Y-6.525 E0.4126
G1 X11.091 Y-6.114 E0.4298
G1 X10.179 Y-5.512 E0.4470
G1 X9.409 Y-4.748 E0.4642
G1 X8.800 Y-3.847 E0.4813
G1 X8.379 Y-2.844 E0.4985
G1 X8.161 Y-1.778 E0.5157
G1 X8.155 Y-0.689 E0.5329
G1 X8.362 Y0.379 E0.5501
; solid layer
G1 X8.749 Y0.253 F2400
G1 X8.560 Y-0.727 F2400
G1 X8.565 Y-1.736 F2400
G1 X8.767 Y-2.724 F2400
G1 X9.157 Y-3.654 F2400
G1 X9.722 Y-4.489 F2400
G1 X10.435 Y-5.197 F2400
G1 X11.280 Y-5.755 F2400
G1 X12.214 Y-6.136 F2400
G1 X13.204 Y-6.328 F2400
G1 X14.213 Y-6.322 F2400
G1 X15.201 Y-6.121 F2400
G1 X16.130 Y-5.730 F2400
G1 X16.966 Y-5.165 F2400
G1 X17.676 Y-4.448 F2400
G1 X18.232 Y-3.607 F2400
G1 X18.508 Y-2.929 F2400
G1 X19.484 Y-3.248 F2400
G92 E0
G1 X20.288 Y-2.444 E0.0180 F960
G1 X25.191 Y-14.512 F2400
G92 E0
G1 X26.582 Y-13.120 E0.0311 F960
G1 X27.116 Y-12.021 E0.0504
G1 X24.056 Y-15.080 E0.1188
G1 X22.922 Y-15.649 E0.1388
G1 X27.650 Y-10.921 E0.2445
G1 X28.184 Y-9.821 E0.2638
G1 X21.787 Y-16.218 E0.4067
G1 X20.653 Y-16.787 E0.4267
G1 X28.718 Y-8.721 E0.6069
G1 X29.253 Y-7.621 E0.6263
G1 X19.519 Y-17.355 E0.8437
G1 X18.384 Y-17.924 E0.8638
G1 X29.787 Y-6.522 E1.1186
G1 X30.086 Y-5.904 E1.1294
G1 X29.927 Y-5.816 E1.1323
G1 X17.418 Y-18.325 E1.4118
G1 X16.848 Y-18.329 E1.4208
G1 X29.564 Y-5.613 E1.7049
G1 X29.201 Y-5.410 E1.7114
G1 X16.278 Y-18.333 E2.0002
G1 X15.708 Y-18.337 E2.0092
G1 X28.838 Y-5.207 E2.3025
G1 X28.475 Y-5.004 E2.3091
G1 X15.138 Y-18.342 E2.6071
G1 X14.568 Y-18.346 E2.6161
G1 X28.112 Y-4.802 E2.9187
G1 X27.750 Y-4.599 E2.9253
G1 X13.999 Y-18.350 E3.2325
G1 X13.429 Y-18.354 E3.2415
G1 X27.387 Y-4.396 E3.5534
G1 X27.024 Y-4.193 E3.5599
G1 X12.859 Y-18.358 E3.8764
G1 X12.289 Y-18.362 E3.8854
G1 X26.661 Y-3.991 E4.2065
G1 X26.298 Y-3.788 E4.2131
G1 X11.719 Y-18.367 E4.5388
G1 X11.149 Y-18.371 E4.5478
G1 X25.935 Y-3.585 E4.8782
G1 X25.766 Y-3.491 E4.8812
G1 X25.711 Y-3.243 E4.8852
G1 X10.579 Y-18.375 E5.2233
G1 X10.009 Y-18.379 E5.2323
G1 X25.608 Y-2.780 E5.5808
G1 X25.505 Y-2.318 E5.5883
G1 X9.440 Y-18.383 E5.9473
G1 X8.870 Y-18.388 E5.9563
G1 X25.403 Y-1.855 E6.3257
G1 X25.300 Y-1.392 E6.3332
G1 X8.300 Y-18.392 E6.7130
G1 X7.730 Y-18.396 E6.7220
G1 X25.131 Y-0.995 E7.1108
G1 X24.324 Y-1.236 E7.1241
G1 X7.160 Y-18.400 E7.5076
G1 X6.590 Y-18.404 E7.5166
G1 X23.517 Y-1.478 E7.8948
G1 X22.710 Y-1.719 E7.9081
G1 X6.020 Y-18.408 E8.2810
G1 X5.451 Y-18.413 E8.2900
G1 X21.903 Y-1.961 E8.6575
G1 X21.095 Y-2.202 E8.6709
G1 X19.008 Y-4.290 E8.7175
G1 X18.474 Y-5.097 E8.7328
G1 X17.623 Y-5.957 E8.7519
G1 X16.751 Y-6.546 E8.7685
G1 X4.881 Y-18.417 E9.0337
G1 X4.311 Y-18.421 E9.0427
G1 X15.718 Y-7.014 E9.2976
G1 X15.504 Y-7.104 E9.3013
G1 X14.949 Y-7.217 E9.3102
G1 X3.348 Y-18.818 E9.5694
G1 X2.107 Y-19.494 E9.5917
G1 X14.254 Y-7.346 E9.8632
G1 X13.686 Y-7.349 E9.8721
G1 X0.865 Y-20.169 E10.1586
G1 X-0.376 Y-20.845 E10.1809
G1 X13.117 Y-7.352 E10.4824
G1 X13.108 Y-7.352 E10.4825
G1 X12.642 Y-7.262 E10.4900
G1 X-1.617 Y-21.521 E10.8086
G1 X-2.858 Y-22.196 E10.8309
G1 X12.168 Y-7.170 E11.1666
G1 X11.920 Y-7.122 E11.1706
G1 X11.728 Y-7.044 E11.1739
G1 X-4.100 Y-22.872 E11.5275
G1 X-5.341 Y-23.547 E11.5499
G1 X11.327 Y-6.880 E11.9223
G1 X10.925 Y-6.716 E11.9291
G1 X-6.582 Y-24.223 E12.3203
G1 X-7.824 Y-24.899 E12.3426
G1 X10.565 Y-6.510 E12.7535
G1 X10.225 Y-6.285 E12.7599
G1 X-9.065 Y-25.574 E13.1909
G1 X-10.306 Y-26.250 E13.2132
G1 X9.884 Y-6.060 E13.6643
G1 X9.787 Y-5.995 E13.6662
G1 X9.584 Y-5.794 E13.6707
G1 X-11.547 Y-26.925 E14.1428
G1 X-12.789 Y-27.601 E14.1651
G1 X9.300 Y-5.513 E14.6586
G1 X9.016 Y-5.231 E14.6649
G1 X-14.030 Y-28.276 E15.1798
G1 X-15.271 Y-28.952 E15.2022
G1 X8.771 Y-4.910 E15.7393
G1 X8.542 Y-4.573 E15.7458
G1 X-16.512 Y-29.628 E16.3055
G1 X-17.754 Y-30.303 E16.3279
G1 X8.314 Y-4.235 E16.9103
G1 X8.252 Y-4.143 E16.9121
G1 X8.130 Y-3.853 E16.9170
G1 X-18.995 Y-30.979 E17.5231
G1 X-19.018 Y-30.991 E17.5235
G1 X-19.300 Y-30.719 E17.5297
G1 X7.963 Y-3.455 E18.1388
G1 X7.796 Y-3.057 E18.1457
G1 X-19.588 Y-30.441 E18.7575
G1 X-19.876 Y-30.163 E18.7638
G1 X7.695 Y-2.592 E19.3798
G1 X7.599 Y-2.122 E19.3874
G1 X-20.163 Y-29.885 E20.0076
G1 X-20.451 Y-29.607 E20.0140
G1 X7.540 Y-1.615 E20.6394
G1 X7.537 Y-1.053 E20.6483
G1 X-20.739 Y-29.329 E21.2800
G1 X-21.027 Y-29.051 E21.2863
G1 X7.569 Y-0.455 E21.9252
G1 X7.588 Y-0.360 E21.9268
G1 X6.515 Y-0.944 E21.9461
