; G-Code generated by Simplify3D(R) Version 4.0.0
; Jan 24, 2018 at 3:18:15 PM
; Settings Summary
;   processName,Process1
;   applyToModels,bottomMGslot_1
;   profileName,MP Mini Delta23 (modified)
;   profileVersion,2017-10-15 16:31:22
;   baseProfile,Monoprice MP Mini Delta
;   printMaterial,eSun PLA+ - Solid Red
;   printQuality,0.08
;   printExtruders,
;   extruderName,Primary Extruder
;   extruderToolheadNumber,0
;   extruderDiameter,0.4
;   extruderAutoWidth,0
;   extruderWidth,0.4
;   extrusionMultiplier,0.95
;   extruderUseRetract,1
;   extruderRetractionDistance,8
;   extruderExtraRestartDistance,0
;   extruderRetractionZLift,0
;   extruderRetractionSpeed,3000
;   extruderUseCoasting,0
;   extruderCoastingDistance,0.2
;   extruderUseWipe,0
;   extruderWipeDistance,5
;   primaryExtruder,0
;   layerHeight,0.1
;   topSolidLayers,8
;   bottomSolidLayers,3
;   perimeterOutlines,3
;   printPerimetersInsideOut,1
;   startPointOption,2
;   startPointOriginX,0
;   startPointOriginY,0
;   sequentialIslands,0
;   spiralVaseMode,0
;   firstLayerHeightPercentage,100
;   firstLayerWidthPercentage,100
;   firstLayerUnderspeed,0.4
;   useRaft,0
;   raftExtruder,0
;   raftTopLayers,3
;   raftBaseLayers,2
;   raftOffset,5
;   raftSeparationDistance,0.14
;   raftTopInfill,100
;   aboveRaftSpeedMultiplier,0.3
;   useSkirt,0
;   skirtExtruder,0
;   skirtLayers,1
;   skirtOutlines,5
;   skirtOffset,0
;   usePrimePillar,0
;   primePillarExtruder,999
;   primePillarWidth,6
;   primePillarLocation,0
;   primePillarSpeedMultiplier,1
;   useOozeShield,0
;   oozeShieldExtruder,999
;   oozeShieldOffset,2
;   oozeShieldOutlines,1
;   oozeShieldSidewallShape,1
;   oozeShieldSidewallAngle,30
;   oozeShieldSpeedMultiplier,1
;   infillExtruder,0
;   internalInfillPattern,Rectilinear
;   externalInfillPattern,Rectilinear
;   infillPercentage,20
;   outlineOverlapPercentage,45
;   infillExtrusionWidthPercentage,100
;   minInfillLength,5
;   infillLayerInterval,3
;   internalInfillAngles,45,-45
;   overlapInternalInfillAngles,0
;   externalInfillAngles,45,-45
;   generateSupport,1
;   supportExtruder,0
;   supportInfillPercentage,40
;   supportExtraInflation,0.2
;   supportBaseLayers,0
;   denseSupportExtruder,0
;   denseSupportLayers,0
;   denseSupportInfillPercentage,70
;   supportLayerInterval,2
;   supportHorizontalPartOffset,0.4
;   supportUpperSeparationLayers,1
;   supportLowerSeparationLayers,1
;   supportType,0
;   supportGridSpacing,1
;   maxOverhangAngle,45
;   supportAngles,0
;   temperatureName,Primary Extruder,Heated Bed
;   temperatureNumber,0,0
;   temperatureSetpointCount,1,1
;   temperatureSetpointLayers,1,1
;   temperatureSetpointTemperatures,195,30
;   temperatureStabilizeAtStartup,1,1
;   temperatureHeatedBed,0,1
;   temperatureRelayBetweenLayers,0,0
;   temperatureRelayBetweenLoops,0,0
;   fanLayers,1,2,3
;   fanSpeeds,0,60,100
;   blipFanToFullPower,1
;   adjustSpeedForCooling,1
;   minSpeedLayerTime,15
;   minCoolingSpeedSlowdown,20
;   increaseFanForCooling,0
;   minFanLayerTime,45
;   maxCoolingFanSpeed,100
;   increaseFanForBridging,0
;   bridgingFanSpeed,100
;   use5D,1
;   relativeEdistances,0
;   allowEaxisZeroing,1
;   independentExtruderAxes,0
;   includeM10123,0
;   stickySupport,1
;   applyToolheadOffsets,0
;   gcodeXoffset,0
;   gcodeYoffset,0
;   gcodeZoffset,0.23
;   overrideMachineDefinition,1
;   machineTypeOverride,1
;   strokeXoverride,77.8
;   strokeYoverride,77.8
;   strokeZoverride,120
;   originOffsetXoverride,38.9
;   originOffsetYoverride,38.9
;   originOffsetZoverride,0
;   homeXdirOverride,0
;   homeYdirOverride,0
;   homeZdirOverride,-1
;   flipXoverride,1
;   flipYoverride,-1
;   flipZoverride,1
;   toolheadOffsets,0,0|0,0|0,0|0,0|0,0|0,0
;   overrideFirmwareConfiguration,1
;   firmwareTypeOverride,RepRap (Marlin/Repetier/Sprinter)
;   GPXconfigOverride,r2
;   baudRateOverride,115200
;   overridePrinterModels,1
;   printerModelsOverride,MP_Mini_Delta_Platform.stl
;   startingGcode,G90 ; absolute positioning - this line was added in case Cura doesn't include it by default,M82 ; set extruder to absolute mode - this line was added in case Cura doesn't include it by default (may not be needed),M107; start with the fan off (I don't think this is possible),G28 ; Start from home position,G29 C-0.8 Z0.3 ; probe the bed at 3 points with a 0.3mm overall vertical offset and an additional -0.8mm center offset ,G1 Z15.0 F4800  ; move the nozzle up 15mm,G92 E0 ; reset extrusion distance,G1 F200 E3 ; extrude 3mm of feed stock,G92 E0 ; reset extrusion distance again,G1 F4800
;   layerChangeGcode,
;   retractionGcode,
;   toolChangeGcode,
;   endingGcode,M104 S0 ; turn off hotend heater,M140 S0 ; turn off bed heater,G91 ; Switch to use Relative Coordinates,G1 E-3 F700 ; retract the filament a bit before lifting the nozzle to release some of the pressure,G1 Z2 F1000 ; raise platform 2mm from current position,G1 E-2 F700 ; retract filament even more,G90 ; Switch back to using absolute coordinates,G28 X ; Return to home position. Without an X Y or Z after G28 the print completion time will not be displayed on the Mini Delta's display.,M84 ; disable motors,G4 S360 ; pause for 360 seconds to keep fan running to cool hotend and allow the fan to be turned off,M107 ; turn off fan. Some say M107 doesn't work for them but if the hotend is cool enough it should work,;M106 S1 ; turn off fan. Remove the semicolon in front of M106 if M107 doesn't work for you
;   exportFileFormat,gcode
;   celebration,0
;   celebrationSong,Random Song
;   postProcessing,
;   defaultSpeed,3200
;   outlineUnderspeed,1
;   solidInfillUnderspeed,1
;   supportUnderspeed,1
;   rapidXYspeed,3200
;   rapidZspeed,1002
;   minBridgingArea,50
;   bridgingExtraInflation,0
;   bridgingExtrusionMultiplier,1
;   bridgingSpeedMultiplier,1
;   useFixedBridgingAngle,0
;   fixedBridgingAngle,0
;   applyBridgingToPerimeters,0
;   filamentDiameters,1.75|1.75|1.75|1.75|1.75|1.75
;   filamentPricesPerKg,48|25|25|25|25|25
;   filamentDensities,1.25|1.25|1.25|1.25|1.25|1.25
;   useMinPrintHeight,0
;   minPrintHeight,42
;   useMaxPrintHeight,0
;   maxPrintHeight,0
;   useDiaphragm,0
;   diaphragmLayerInterval,20
;   robustSlicing,1
;   mergeAllIntoSolid,0
;   onlyRetractWhenCrossingOutline,1
;   retractBetweenLayers,1
;   useRetractionMinTravel,0
;   retractionMinTravel,3
;   retractWhileWiping,1
;   onlyWipeOutlines,1
;   avoidCrossingOutline,1
;   maxMovementDetourFactor,5
;   toolChangeRetractionDistance,12
;   toolChangeExtraRestartDistance,-0.5
;   toolChangeRetractionSpeed,600
;   externalThinWallType,1
;   internalThinWallType,1
;   thinWallAllowedOverlapPercentage,100
;   singleExtrusionMinLength,0.4
;   singleExtrusionMinPrintingWidthPercentage,50
;   singleExtrusionMaxPrintingWidthPercentage,200
;   singleExtrusionEndpointExtension,0.2
;   horizontalSizeCompensation,0
G90
M82
M106 S255
G4 P500
M106 S0
M140 S30
M190 S30
M104 S195 T0
M109 S195 T0
G90 ; absolute positioning - this line was added in case Cura doesn't include it by default
M82 ; set extruder to absolute mode - this line was added in case Cura doesn't include it by default (may not be needed)
M107; start with the fan off (I don't think this is possible)
G28 ; Start from home position
G29 C-0.8 Z0.3 ; probe the bed at 3 points with a 0.3mm overall vertical offset and an additional -0.8mm center offset 
G1 Z15.0 F4800  ; move the nozzle up 15mm
G92 E0 ; reset extrusion distance
G1 F200 E3 ; extrude 3mm of feed stock
G92 E0 ; reset extrusion distance again
G1 F4800
G92 E0
G1 E-8.0000 F3000
G1 Z0.330 F1002
; process Process1
; layer 1, Z = 0.100
T0
; tool H0.100 W0.400
; inner perimeter
G1 X8.452 Y2.051 F3200
G1 E0.0000 F900
G92 E0
G1 X18.266 Y-7.497 E0.2163 F1280
G1 X21.954 Y-17.862 E0.3901
G1 X18.032 Y-29.797 E0.5886
G1 X11.167 Y-28.193 E0.7000
G1 X8.224 Y-29.996 E0.7545
G1 X9.834 Y-29.981 E0.7800
G1 X13.048 Y-33.044 E0.8501
G1 X19.846 Y-39.725 E1.0007
G1 X24.132 Y-17.495 E1.3583
G1 X24.634 Y-12.626 E1.4357
G1 X24.634 Y40.745 E2.2789
G1 X-1.351 Y40.745 E2.6894
G1 X-1.463 Y32.201 E2.8244
G1 X-12.043 Y30.455 E2.9938
G1 X-17.844 Y28.281 E3.0916
G1 X-20.333 Y26.374 E3.1412
G1 X-24.439 Y22.078 E3.2351
G1 X-23.710 Y20.509 E3.2624
G1 X-21.045 Y20.688 E3.3046
G1 X-17.698 Y13.485 E3.4301
G1 X-16.867 Y11.448 E3.4649
G1 X-14.854 Y1.525 E3.6248
G1 X-12.235 Y-5.756 E3.7471
G1 X-15.532 Y-6.679 E3.8012
G1 X-14.124 Y-18.483 E3.9890
G1 X-8.524 Y-28.219 E4.1664
G1 X-9.822 Y-28.647 E4.1880
G1 X-8.070 Y-29.547 E4.2191
G1 X-10.046 Y-38.158 E4.3587
G1 X1.760 Y-33.712 E4.5580
G1 X2.541 Y-32.650 E4.5788
G1 X5.124 Y-30.025 E4.6370
G1 X7.669 Y-30.001 E4.6772
G1 X5.059 Y-25.019 E4.7661
G1 X4.384 Y-25.487 E4.7791
G1 X2.990 Y-26.082 E4.8030
G1 X1.512 Y-26.372 E4.8268
G1 X-0.002 Y-26.351 E4.8507
G1 X-1.293 Y-26.036 E4.8717
G1 X-3.194 Y-26.597 E4.9030
G1 X-3.755 Y-24.802 E4.9328
G1 X-4.128 Y-24.546 E4.9399
G1 X-5.221 Y-23.448 E4.9644
G1 X-6.097 Y-22.165 E4.9889
G1 X-6.718 Y-20.734 E5.0136
G1 X-7.048 Y-19.205 E5.0383
G1 X-7.075 Y-17.642 E5.0630
G1 X-6.795 Y-16.104 E5.0877
G1 X-6.611 Y-15.636 E5.0956
G1 X-11.553 Y0.127 E5.3566
G1 X-9.568 Y0.685 E5.3892
G1 X-15.876 Y17.698 E5.6758
G1 X-15.532 Y24.253 E5.7795
G1 X-8.712 Y28.510 E5.9065
G1 X0.022 Y28.542 E6.0445
G1 X8.452 Y2.051 E6.4837
G1 X25.034 Y-12.646 F3200
G92 E0
G1 X25.034 Y41.145 E0.8498 F1280
G1 X-1.745 Y41.145 E1.2729
G1 X-1.859 Y32.541 E1.4088
G1 X-12.147 Y30.843 E1.5736
G1 X-18.040 Y28.635 E1.6730
G1 X-20.600 Y26.672 E1.7240
G1 X-24.917 Y22.157 E1.8227
G1 X-23.957 Y20.091 E1.8587
G1 X-21.292 Y20.270 E1.9009
G1 X-18.064 Y13.325 E2.0218
G1 X-17.251 Y11.332 E2.0559
G1 X-15.240 Y1.417 E2.2157
G1 X-12.757 Y-5.487 E2.3316
G1 X-15.970 Y-6.386 E2.3843
G1 X-14.511 Y-18.611 E2.5788
G1 X-9.116 Y-27.993 E2.7498
G1 X-10.854 Y-28.567 E2.7787
G1 X-8.530 Y-29.761 E2.8200
G1 X-10.444 Y-38.103 E2.9552
G1 X-12.196 Y-38.925 E2.9858
G1 X-10.772 Y-38.859 E3.0083
G1 X2.012 Y-34.045 E3.2241
G1 X2.846 Y-32.910 E3.2464
G1 X5.293 Y-30.423 E3.3015
G1 X9.676 Y-30.382 E3.3707
G1 X12.769 Y-33.331 E3.4383
G1 X20.098 Y-40.533 E3.6006
G1 X24.528 Y-17.554 E3.9703
G1 X25.034 Y-12.646 E4.0483
; outer perimeter
G1 X25.434 Y-12.667 F3200
G92 E0
G1 X25.434 Y41.545 E0.8565 F1280
G1 X-2.140 Y41.545 E1.2921
G1 X-2.254 Y32.881 E1.4290
G1 X-12.250 Y31.232 E1.5890
G1 X-18.236 Y28.989 E1.6900
G1 X-20.868 Y26.971 E1.7424
G1 X-25.395 Y22.236 E1.8459
G1 X-24.204 Y19.674 E1.8906
G1 X-21.539 Y19.853 E1.9328
G1 X-18.431 Y13.165 E2.0493
G1 X-17.636 Y11.216 E2.0825
G1 X-15.627 Y1.309 E2.2422
G1 X-13.279 Y-5.217 E2.3518
G1 X-16.623 Y-6.154 E2.4067
G1 X-16.853 Y-6.544 E2.4138
G1 X-16.350 Y-6.580 E2.4218
G1 X-14.899 Y-18.740 E2.6153
G1 X-9.707 Y-27.767 E2.7798
G1 X-11.886 Y-28.487 E2.8160
G1 X-8.989 Y-29.974 E2.8675
G1 X-10.790 Y-37.824 E2.9947
G1 X-13.285 Y-38.995 E3.0383
G1 X-13.221 Y-39.374 E3.0443
G1 X-10.690 Y-39.255 E3.0844
G1 X2.264 Y-34.378 E3.3030
G1 X3.151 Y-33.170 E3.3267
G1 X5.462 Y-30.822 E3.3788
G1 X9.517 Y-30.784 E3.4428
G1 X12.491 Y-33.619 E3.5078
G1 X20.350 Y-41.341 E3.6818
G1 X24.924 Y-17.612 E4.0636
G1 X25.434 Y-12.667 E4.1421
; inner perimeter
G1 X21.531 Y-17.867 F3200
G92 E0
G1 X17.766 Y-29.325 E0.1905 F1280
G1 X11.098 Y-27.766 E0.2987
G1 X7.957 Y-29.690 E0.3569
G1 X5.202 Y-24.431 E0.4507
G1 X4.190 Y-25.135 E0.4702
G1 X2.872 Y-25.697 E0.4928
G1 X1.476 Y-25.972 E0.5153
G1 X0.049 Y-25.952 E0.5378
G1 X-1.303 Y-25.622 E0.5598
G1 X-2.930 Y-26.102 E0.5866
G1 X-3.415 Y-24.550 E0.6123
G1 X-3.871 Y-24.237 E0.6210
G1 X-4.912 Y-23.192 E0.6443
G1 X-5.745 Y-21.971 E0.6677
G1 X-6.335 Y-20.610 E0.6911
G1 X-6.649 Y-19.159 E0.7146
G1 X-6.674 Y-17.675 E0.7380
G1 X-6.409 Y-16.214 E0.7615
G1 X-6.187 Y-15.652 E0.7710
G1 X-11.048 Y-0.147 E1.0278
G1 X-9.042 Y0.417 E1.0607
G1 X-15.472 Y17.760 E1.3529
G1 X-15.143 Y24.024 E1.4520
G1 X-8.597 Y28.110 E1.5739
G1 X-0.270 Y28.141 E1.7055
G1 X8.101 Y1.834 E2.1416
G1 X17.921 Y-7.718 E2.3580
G1 X21.531 Y-17.867 E2.5282
; outer perimeter
G1 X21.109 Y-17.873 F3200
G92 E0
G1 X17.500 Y-28.852 E0.1826 F1280
G1 X11.030 Y-27.339 E0.2876
G1 X8.113 Y-29.125 E0.3416
G1 X5.321 Y-23.795 E0.4367
G1 X5.125 Y-23.998 E0.4411
G1 X3.995 Y-24.784 E0.4629
G1 X2.754 Y-25.313 E0.4842
G1 X1.440 Y-25.571 E0.5053
G1 X0.100 Y-25.553 E0.5265
G1 X-1.313 Y-25.208 E0.5495
G1 X-2.665 Y-25.607 E0.5718
G1 X-3.074 Y-24.299 E0.5934
G1 X-3.614 Y-23.928 E0.6037
G1 X-4.602 Y-22.936 E0.6259
G1 X-5.393 Y-21.777 E0.6480
G1 X-5.953 Y-20.487 E0.6703
G1 X-6.250 Y-19.113 E0.6925
G1 X-6.273 Y-17.708 E0.7147
G1 X-6.022 Y-16.324 E0.7369
G1 X-5.763 Y-15.667 E0.7480
G1 X-10.543 Y-0.420 E1.0005
G1 X-8.516 Y0.150 E1.0337
G1 X-15.068 Y17.821 E1.3315
G1 X-14.755 Y23.795 E1.4260
G1 X-8.482 Y27.711 E1.5428
G1 X-0.562 Y27.740 E1.6680
G1 X7.751 Y1.617 E2.1010
G1 X17.575 Y-7.940 E2.3176
G1 X21.109 Y-17.873 E2.4841
; solid layer
G1 X18.529 Y-28.989 F3200
G92 E0
G1 X22.448 Y-25.070 E0.0876 F1280
G1 X22.583 Y-24.369 E0.0988
G1 X18.806 Y-28.146 E0.1832
G1 X19.083 Y-27.303 E0.1972
G1 X22.718 Y-23.668 E0.2784
G1 X22.853 Y-22.967 E0.2897
G1 X19.360 Y-26.461 E0.3678
G1 X19.637 Y-25.618 E0.3818
G1 X22.988 Y-22.267 E0.4567
G1 X23.123 Y-21.566 E0.4679
G1 X19.914 Y-24.775 E0.5396
G1 X20.191 Y-23.933 E0.5537
G1 X23.258 Y-20.865 E0.6222
G1 X23.394 Y-20.164 E0.6335
G1 X20.468 Y-23.090 E0.6989
G1 X20.744 Y-22.248 E0.7129
G1 X23.529 Y-19.463 E0.7751
G1 X23.664 Y-18.763 E0.7863
G1 X21.021 Y-21.405 E0.8454
G1 X21.298 Y-20.562 E0.8594
G1 X23.799 Y-18.062 E0.9153
G1 X23.914 Y-17.463 E0.9249
G1 X23.924 Y-17.371 E0.9264
G1 X21.575 Y-19.720 E0.9788
G1 X21.852 Y-18.877 E0.9928
G1 X23.989 Y-16.741 E1.0406
G1 X24.054 Y-16.110 E1.0506
G1 X22.129 Y-18.035 E1.0936
G1 X22.187 Y-17.860 E1.0965
G1 X22.069 Y-17.529 E1.1021
G1 X24.119 Y-15.479 E1.1479
G1 X24.184 Y-14.849 E1.1579
G1 X21.921 Y-17.112 E1.2084
G1 X21.772 Y-16.695 E1.2154
G1 X24.249 Y-14.218 E1.2708
G1 X24.314 Y-13.587 E1.2808
G1 X21.624 Y-16.277 E1.3409
G1 X21.475 Y-15.860 E1.3479
G1 X24.379 Y-12.956 E1.4128
G1 X24.414 Y-12.614 E1.4182
G1 X24.414 Y-12.356 E1.4223
G1 X21.327 Y-15.443 E1.4913
G1 X21.178 Y-15.026 E1.4983
G1 X24.414 Y-11.790 E1.5705
G1 X24.414 Y-11.224 E1.5795
G1 X21.030 Y-14.608 E1.6551
G1 X20.881 Y-14.191 E1.6621
G1 X24.414 Y-10.658 E1.7410
G1 X24.414 Y-10.093 E1.7500
G1 X20.733 Y-13.774 E1.8322
G1 X20.585 Y-13.357 E1.8392
G1 X24.414 Y-9.527 E1.9248
G1 X24.414 Y-8.961 E1.9337
G1 X20.436 Y-12.939 E2.0226
G1 X20.288 Y-12.522 E2.0296
G1 X24.414 Y-8.396 E2.1218
G1 X24.414 Y-7.830 E2.1307
G1 X20.139 Y-12.105 E2.2262
G1 X19.991 Y-11.688 E2.2332
G1 X24.414 Y-7.264 E2.3320
G1 X24.414 Y-6.699 E2.3410
G1 X19.842 Y-11.270 E2.4431
G1 X19.694 Y-10.853 E2.4501
G1 X24.414 Y-6.133 E2.5556
G1 X24.414 Y-5.567 E2.5645
G1 X19.546 Y-10.436 E2.6733
G1 X19.397 Y-10.019 E2.6803
G1 X24.414 Y-5.002 E2.7924
G1 X24.414 Y-4.436 E2.8013
G1 X19.249 Y-9.601 E2.9167
G1 X19.100 Y-9.184 E2.9237
G1 X24.414 Y-3.870 E3.0424
G1 X24.414 Y-3.305 E3.0514
G1 X18.952 Y-8.767 E3.1734
G1 X18.803 Y-8.350 E3.1804
G1 X24.414 Y-2.739 E3.3058
G1 X24.414 Y-2.173 E3.3147
G1 X18.655 Y-7.932 E3.4434
G1 X18.506 Y-7.515 E3.4504
G1 X24.414 Y-1.608 E3.5824
G1 X24.414 Y-1.042 E3.5913
G1 X18.266 Y-7.190 E3.7286
G1 X17.980 Y-6.911 E3.7350
G1 X24.414 Y-0.476 E3.8787
G1 X24.414 Y0.090 E3.8877
G1 X17.693 Y-6.632 E4.0378
G1 X17.406 Y-6.353 E4.0442
G1 X24.414 Y0.655 E4.2007
G1 X24.414 Y1.221 E4.2097
G1 X17.119 Y-6.074 E4.3726
G1 X16.833 Y-5.795 E4.3790
G1 X24.414 Y1.787 E4.5484
G1 X24.414 Y2.352 E4.5573
G1 X16.546 Y-5.516 E4.7331
G1 X16.259 Y-5.237 E4.7394
G1 X24.414 Y2.918 E4.9216
G1 X24.414 Y3.484 E4.9305
G1 X15.972 Y-4.958 E5.1192
G1 X15.686 Y-4.679 E5.1255
G1 X24.414 Y4.049 E5.3205
G1 X24.414 Y4.615 E5.3294
G1 X15.399 Y-4.400 E5.5309
G1 X15.112 Y-4.121 E5.5372
G1 X24.414 Y5.181 E5.7450
G1 X24.414 Y5.746 E5.7539
G1 X14.825 Y-3.842 E5.9682
G1 X14.539 Y-3.563 E5.9745
G1 X24.414 Y6.312 E6.1951
G1 X24.414 Y6.878 E6.2041
G1 X14.252 Y-3.284 E6.4311
G1 X13.965 Y-3.005 E6.4374
G1 X24.414 Y7.443 E6.6709
G1 X24.414 Y8.009 E6.6798
G1 X13.678 Y-2.726 E6.9197
G1 X13.392 Y-2.448 E6.9260
G1 X24.414 Y8.575 E7.1723
G1 X24.414 Y9.141 E7.1812
