; G-Code generated by Simplify3D(R) Version 4.0.0
; Jan 31, 2018 at 7:35:37 PM
; Settings Summary
;   processName,colorfab black jupiter
;   applyToModels,hinge
;   profileName,MP Mini Delta23 (modified)
;   profileVersion,2017-10-15 16:31:22
;   baseProfile,Monoprice MP Mini Delta
;   printMaterial,eSun PLA+ - Solid Red
;   printQuality,0.08
;   printExtruders,
;   extruderName,Primary Extruder
;   extruderToolheadNumber,0
;   extruderDiameter,0.4
;   extruderAutoWidth,0
;   extruderWidth,0.4
;   extrusionMultiplier,0.95
;   extruderUseRetract,1
;   extruderRetractionDistance,8
;   extruderExtraRestartDistance,0
;   extruderRetractionZLift,0
;   extruderRetractionSpeed,3000
;   extruderUseCoasting,0
;   extruderCoastingDistance,0.2
;   extruderUseWipe,0
;   extruderWipeDistance,5
;   primaryExtruder,0
;   layerHeight,0.1
;   topSolidLayers,10
;   bottomSolidLayers,3
;   perimeterOutlines,3
;   printPerimetersInsideOut,0
;   startPointOption,2
;   startPointOriginX,0
;   startPointOriginY,0
;   sequentialIslands,0
;   spiralVaseMode,0
;   firstLayerHeightPercentage,100
;   firstLayerWidthPercentage,100
;   firstLayerUnderspeed,0.4
;   useRaft,0
;   raftExtruder,0
;   raftTopLayers,3
;   raftBaseLayers,2
;   raftOffset,2
;   raftSeparationDistance,0.14
;   raftTopInfill,100
;   aboveRaftSpeedMultiplier,0.3
;   useSkirt,0
;   skirtExtruder,0
;   skirtLayers,3
;   skirtOutlines,5
;   skirtOffset,0
;   usePrimePillar,0
;   primePillarExtruder,999
;   primePillarWidth,6
;   primePillarLocation,0
;   primePillarSpeedMultiplier,1
;   useOozeShield,0
;   oozeShieldExtruder,999
;   oozeShieldOffset,2
;   oozeShieldOutlines,1
;   oozeShieldSidewallShape,1
;   oozeShieldSidewallAngle,30
;   oozeShieldSpeedMultiplier,1
;   infillExtruder,0
;   internalInfillPattern,Rectilinear
;   externalInfillPattern,Rectilinear
;   infillPercentage,10
;   outlineOverlapPercentage,45
;   infillExtrusionWidthPercentage,100
;   minInfillLength,5
;   infillLayerInterval,3
;   internalInfillAngles,45,-45
;   overlapInternalInfillAngles,0
;   externalInfillAngles,45,-45
;   generateSupport,1
;   supportExtruder,0
;   supportInfillPercentage,40
;   supportExtraInflation,0.2
;   supportBaseLayers,0
;   denseSupportExtruder,0
;   denseSupportLayers,0
;   denseSupportInfillPercentage,70
;   supportLayerInterval,3
;   supportHorizontalPartOffset,0.2
;   supportUpperSeparationLayers,0
;   supportLowerSeparationLayers,0
;   supportType,0
;   supportGridSpacing,1
;   maxOverhangAngle,45
;   supportAngles,90
;   temperatureName,Primary Extruder,Heated Bed
;   temperatureNumber,0,0
;   temperatureSetpointCount,1,1
;   temperatureSetpointLayers,1,1
;   temperatureSetpointTemperatures,195,30
;   temperatureStabilizeAtStartup,1,1
;   temperatureHeatedBed,0,1
;   temperatureRelayBetweenLayers,0,0
;   temperatureRelayBetweenLoops,0,0
;   fanLayers,1,2,3
;   fanSpeeds,0,60,100
;   blipFanToFullPower,1
;   adjustSpeedForCooling,1
;   minSpeedLayerTime,15
;   minCoolingSpeedSlowdown,20
;   increaseFanForCooling,0
;   minFanLayerTime,45
;   maxCoolingFanSpeed,100
;   increaseFanForBridging,0
;   bridgingFanSpeed,100
;   use5D,1
;   relativeEdistances,0
;   allowEaxisZeroing,1
;   independentExtruderAxes,0
;   includeM10123,0
;   stickySupport,1
;   applyToolheadOffsets,0
;   gcodeXoffset,0
;   gcodeYoffset,0
;   gcodeZoffset,0.35
;   overrideMachineDefinition,1
;   machineTypeOverride,1
;   strokeXoverride,77.8
;   strokeYoverride,77.8
;   strokeZoverride,120
;   originOffsetXoverride,38.9
;   originOffsetYoverride,38.9
;   originOffsetZoverride,0
;   homeXdirOverride,0
;   homeYdirOverride,0
;   homeZdirOverride,-1
;   flipXoverride,1
;   flipYoverride,-1
;   flipZoverride,1
;   toolheadOffsets,0,0|0,0|0,0|0,0|0,0|0,0
;   overrideFirmwareConfiguration,1
;   firmwareTypeOverride,RepRap (Marlin/Repetier/Sprinter)
;   GPXconfigOverride,r2
;   baudRateOverride,115200
;   overridePrinterModels,1
;   printerModelsOverride,MP_Mini_Delta_Platform.stl
;   startingGcode,G90 ; absolute positioning - this line was added in case Cura doesn't include it by default,M82 ; set extruder to absolute mode - this line was added in case Cura doesn't include it by default (may not be needed),M107; start with the fan off (I don't think this is possible),G28 ; Start from home position,G29 C-0.8 Z0.3 ; probe the bed at 3 points with a 0.3mm overall vertical offset and an additional -0.8mm center offset ,G1 Z15.0 F4800  ; move the nozzle up 15mm,G92 E0 ; reset extrusion distance,G1 F200 E3 ; extrude 3mm of feed stock,G92 E0 ; reset extrusion distance again,G1 F4800
;   layerChangeGcode,
;   retractionGcode,
;   toolChangeGcode,
;   endingGcode,M104 S0 ; turn off hotend heater,M140 S0 ; turn off bed heater,G91 ; Switch to use Relative Coordinates,G1 E-3 F700 ; retract the filament a bit before lifting the nozzle to release some of the pressure,G1 Z2 F1000 ; raise platform 2mm from current position,G1 E-2 F700 ; retract filament even more,G90 ; Switch back to using absolute coordinates,G28 X ; Return to home position. Without an X Y or Z after G28 the print completion time will not be displayed on the Mini Delta's display.,M84 ; disable motors,G4 S360 ; pause for 360 seconds to keep fan running to cool hotend and allow the fan to be turned off,M107 ; turn off fan. Some say M107 doesn't work for them but if the hotend is cool enough it should work,;M106 S1 ; turn off fan. Remove the semicolon in front of M106 if M107 doesn't work for you
;   exportFileFormat,gcode
;   celebration,0
;   celebrationSong,Random Song
;   postProcessing,
;   defaultSpeed,2400
;   outlineUnderspeed,1
;   solidInfillUnderspeed,1
;   supportUnderspeed,1
;   rapidXYspeed,2400
;   rapidZspeed,1002
;   minBridgingArea,50
;   bridgingExtraInflation,0
;   bridgingExtrusionMultiplier,0.9
;   bridgingSpeedMultiplier,1
;   useFixedBridgingAngle,0
;   fixedBridgingAngle,0
;   applyBridgingToPerimeters,0
;   filamentDiameters,1.75|1.75|1.75|1.75|1.75|1.75
;   filamentPricesPerKg,48|25|25|25|25|25
;   filamentDensities,1.25|1.25|1.25|1.25|1.25|1.25
;   useMinPrintHeight,0
;   minPrintHeight,42
;   useMaxPrintHeight,0
;   maxPrintHeight,0
;   useDiaphragm,0
;   diaphragmLayerInterval,20
;   robustSlicing,1
;   mergeAllIntoSolid,0
;   onlyRetractWhenCrossingOutline,1
;   retractBetweenLayers,1
;   useRetractionMinTravel,0
;   retractionMinTravel,3
;   retractWhileWiping,1
;   onlyWipeOutlines,1
;   avoidCrossingOutline,1
;   maxMovementDetourFactor,5
;   toolChangeRetractionDistance,12
;   toolChangeExtraRestartDistance,-0.5
;   toolChangeRetractionSpeed,600
;   externalThinWallType,1
;   internalThinWallType,1
;   thinWallAllowedOverlapPercentage,100
;   singleExtrusionMinLength,0.4
;   singleExtrusionMinPrintingWidthPercentage,50
;   singleExtrusionMaxPrintingWidthPercentage,200
;   singleExtrusionEndpointExtension,0.2
;   horizontalSizeCompensation,0
G90
M82
M106 S255
G4 P500
M106 S0
M140 S30
M190 S30
M104 S195 T0
M109 S195 T0
G90 ; absolute positioning - this line was added in case Cura doesn't include it by default
M82 ; set extruder to absolute mode - this line was added in case Cura doesn't include it by default (may not be needed)
M107; start with the fan off (I don't think this is possible)
G28 ; Start from home position
G29 C-0.8 Z0.3 ; probe the bed at 3 points with a 0.3mm overall vertical offset and an additional -0.8mm center offset 
G1 Z15.0 F4800  ; move the nozzle up 15mm
G92 E0 ; reset extrusion distance
G1 F200 E3 ; extrude 3mm of feed stock
G92 E0 ; reset extrusion distance again
G1 F4800
G92 E0
G1 E-8.0000 F3000
G1 Z0.450 F1002
; process colorfab black jupiter
; layer 1, Z = 0.100
T0
; tool H0.100 W0.400
; outer perimeter
G1 X-5.698 Y6.911 F2400
G1 E0.0000 F900
G92 E0
G1 X-5.698 Y17.732 E0.1710 F960
G1 X-2.468 Y17.732 E0.2220
G1 X-2.468 Y24.925 E0.3356
G1 X4.276 Y24.925 E0.4422
G1 X4.276 Y17.732 E0.5558
G1 X7.506 Y17.732 E0.6069
G1 X7.506 Y6.911 E0.7778
G1 X14.412 Y6.911 E0.8869
G1 X14.412 Y30.020 E1.2520
G1 X-12.604 Y30.020 E1.6788
G1 X-12.604 Y6.911 E2.0439
G1 X-5.698 Y6.911 E2.1530
; inner perimeter
G1 X-6.098 Y7.311 F2400
G92 E0
G1 X-6.098 Y18.132 E0.1710 F960
G1 X-2.868 Y18.132 E0.2220
G1 X-2.868 Y25.325 E0.3356
G1 X4.676 Y25.325 E0.4548
G1 X4.676 Y18.132 E0.5685
G1 X7.906 Y18.132 E0.6195
G1 X7.906 Y7.311 E0.7904
G1 X14.012 Y7.311 E0.8869
G1 X14.012 Y29.620 E1.2394
G1 X-12.204 Y29.620 E1.6535
G1 X-12.204 Y7.311 E2.0060
G1 X-6.098 Y7.311 E2.1025
G1 X-6.498 Y7.711 F2400
G92 E0
G1 X-6.498 Y18.532 E0.1710 F960
G1 X-3.268 Y18.532 E0.2220
G1 X-3.268 Y25.725 E0.3356
G1 X5.076 Y25.725 E0.4674
G1 X5.076 Y18.532 E0.5811
G1 X8.306 Y18.532 E0.6321
G1 X8.306 Y7.711 E0.8031
G1 X13.612 Y7.711 E0.8869
G1 X13.612 Y29.220 E1.2267
G1 X-11.804 Y29.220 E1.6283
G1 X-11.804 Y7.711 E1.9681
G1 X-6.498 Y7.711 E2.0519
; solid layer
G1 X-6.777 Y7.931 F2400
G92 E0
G1 X-6.718 Y7.990 E0.0013 F960
G1 X-6.718 Y8.555 E0.0102
G1 X-7.342 Y7.931 E0.0242
G1 X-7.908 Y7.931 E0.0331
G1 X-6.718 Y9.121 E0.0597
G1 X-6.718 Y9.687 E0.0687
G1 X-8.474 Y7.931 E0.1079
G1 X-9.039 Y7.931 E0.1168
G1 X-6.718 Y10.252 E0.1687
G1 X-6.718 Y10.818 E0.1776
G1 X-9.605 Y7.931 E0.2421
G1 X-10.171 Y7.931 E0.2511
G1 X-6.718 Y11.384 E0.3282
G1 X-6.718 Y11.950 E0.3371
G1 X-10.736 Y7.931 E0.4269
G1 X-11.302 Y7.931 E0.4359
G1 X-6.718 Y12.515 E0.5383
G1 X-6.718 Y13.081 E0.5472
G1 X-11.584 Y8.215 E0.6559
G1 X-11.584 Y8.781 E0.6649
G1 X-6.718 Y13.647 E0.7736
G1 X-6.718 Y14.212 E0.7825
G1 X-11.584 Y9.346 E0.8912
G1 X-11.584 Y9.912 E0.9002
G1 X-6.718 Y14.778 E1.0089
G1 X-6.718 Y15.344 E1.0178
G1 X-11.584 Y10.478 E1.1265
G1 X-11.584 Y11.043 E1.1355
G1 X-6.718 Y15.909 E1.2442
G1 X-6.718 Y16.475 E1.2531
G1 X-11.584 Y11.609 E1.3618
G1 X-11.584 Y12.175 E1.3708
G1 X-6.718 Y17.041 E1.4795
G1 X-6.718 Y17.606 E1.4884
G1 X-11.584 Y12.741 E1.5972
G1 X-11.584 Y13.306 E1.6061
G1 X-6.718 Y18.172 E1.7148
G1 X-3.876 Y18.752 F2400
G92 E0
G1 X-3.488 Y19.140 E0.0087 F960
G1 X-3.488 Y19.705 E0.0176
G1 X-4.441 Y18.752 E0.0389
G1 X-5.007 Y18.752 E0.0478
G1 X-3.488 Y20.271 E0.0818
G1 X-3.488 Y20.837 E0.0907
G1 X-5.573 Y18.752 E0.1373
G1 X-6.138 Y18.752 E0.1463
G1 X-3.488 Y21.403 E0.2055
G1 X-3.488 Y21.968 E0.2144
G1 X-6.704 Y18.752 E0.2863
G1 X-6.718 Y18.752 E0.2865
G1 X-6.718 Y18.738 E0.2867
G1 X-11.584 Y13.872 E0.3954
G1 X-11.584 Y14.438 E0.4044
G1 X-3.488 Y22.534 E0.5853
G1 X-3.488 Y23.100 E0.5942
G1 X-11.584 Y15.003 E0.7751
G1 X-11.584 Y15.569 E0.7840
G1 X-3.488 Y23.665 E0.9649
G1 X-3.488 Y24.231 E0.9739
G1 X-11.584 Y16.135 E1.1548
G1 X-11.584 Y16.700 E1.1637
G1 X-3.488 Y24.797 E1.3446
G1 X-3.488 Y25.362 E1.3535
G1 X-11.584 Y17.266 E1.5344
G1 X-11.584 Y17.832 E1.5434
G1 X-3.488 Y25.928 E1.7242
G1 X-3.488 Y25.945 E1.7245
G1 X-3.470 Y25.945 E1.7248
G1 X-0.415 Y29.000 E1.7931
G1 X0.150 Y29.000 E1.8020
G1 X-2.905 Y25.945 E1.8702
G1 X-2.339 Y25.945 E1.8792
G1 X0.716 Y29.000 E1.9474
G1 X1.282 Y29.000 E1.9564
G1 X-1.773 Y25.945 E2.0246
G1 X-1.208 Y25.945 E2.0336
G1 X1.847 Y29.000 E2.1018
G1 X2.413 Y29.000 E2.1108
G1 X-0.642 Y25.945 E2.1790
G1 X-0.076 Y25.945 E2.1880
G1 X2.979 Y29.000 E2.2562
G1 X3.545 Y29.000 E2.2652
G1 X0.489 Y25.945 E2.3334
G1 X1.055 Y25.945 E2.3424
G1 X4.110 Y29.000 E2.4106
G1 X4.676 Y29.000 E2.4196
G1 X1.621 Y25.945 E2.4878
G1 X2.186 Y25.945 E2.4968
G1 X5.242 Y29.000 E2.5650
G1 X5.807 Y29.000 E2.5740
G1 X2.752 Y25.945 E2.6422
G1 X3.318 Y25.945 E2.6512
G1 X6.373 Y29.000 E2.7194
G1 X6.939 Y29.000 E2.7284
G1 X3.883 Y25.945 E2.7966
G1 X4.449 Y25.945 E2.8056
G1 X7.504 Y29.000 E2.8738
G1 X8.070 Y29.000 E2.8828
G1 X5.015 Y25.945 E2.9510
G1 X5.296 Y25.945 E2.9555
G1 X5.296 Y25.661 E2.9600
G1 X8.636 Y29.000 E3.0346
G1 X9.201 Y29.000 E3.0435
G1 X5.296 Y25.095 E3.1308
G1 X5.296 Y24.529 E3.1397
G1 X9.767 Y29.000 E3.2396
G1 X10.333 Y29.000 E3.2485
G1 X5.296 Y23.964 E3.3611
G1 X5.296 Y23.398 E3.3700
G1 X10.898 Y29.000 E3.4952
G1 X11.464 Y29.000 E3.5041
G1 X5.296 Y22.832 E3.6419
G1 X5.296 Y22.267 E3.6509
G1 X12.030 Y29.000 E3.8013
G1 X12.595 Y29.000 E3.8103
G1 X5.296 Y21.701 E3.9733
G1 X5.296 Y21.135 E3.9823
G1 X13.161 Y29.000 E4.1580
G1 X13.392 Y29.000 E4.1617
G1 X13.392 Y28.666 E4.1669
G1 X5.296 Y20.569 E4.3478
G1 X5.296 Y20.004 E4.3568
G1 X13.392 Y28.100 E4.5377
G1 X13.392 Y27.534 E4.5466
G1 X5.296 Y19.438 E4.7275
G1 X5.296 Y18.872 E4.7364
G1 X13.392 Y26.969 E4.9173
G1 X13.392 Y26.403 E4.9263
G1 X5.741 Y18.752 E5.0972
G1 X6.307 Y18.752 E5.1062
G1 X13.392 Y25.837 E5.2645
G1 X13.392 Y25.272 E5.2734
G1 X6.872 Y18.752 E5.4191
G1 X7.438 Y18.752 E5.4280
G1 X13.392 Y24.706 E5.5610
G1 X13.392 Y24.140 E5.5700
G1 X8.004 Y18.752 E5.6904
G1 X8.526 Y18.752 E5.6986
G1 X8.526 Y18.709 E5.6993
G1 X13.392 Y23.575 E5.8080
G1 X13.392 Y23.009 E5.8170
G1 X8.526 Y18.143 E5.9257
G1 X8.526 Y17.577 E5.9346
G1 X13.392 Y22.443 E6.0433
G1 X13.392 Y21.878 E6.0523
G1 X8.526 Y17.012 E6.1610
G1 X8.526 Y16.446 E6.1699
G1 X13.392 Y21.312 E6.2786
G1 X13.392 Y20.746 E6.2876
G1 X8.526 Y15.880 E6.3963
G1 X8.526 Y15.315 E6.4052
G1 X13.392 Y20.181 E6.5139
G1 X13.392 Y19.615 E6.5229
G1 X8.526 Y14.749 E6.6316
G1 X8.526 Y14.183 E6.6405
G1 X13.392 Y19.049 E6.7492
G1 X13.392 Y18.483 E6.7582
G1 X8.526 Y13.618 E6.8669
G1 X8.526 Y13.052 E6.8758
G1 X13.392 Y17.918 E6.9846
G1 X13.392 Y17.352 E6.9935
G1 X8.526 Y12.486 E7.1022
G1 X8.526 Y11.921 E7.1111
G1 X13.392 Y16.786 E7.2199
G1 X13.392 Y16.221 E7.2288
G1 X8.526 Y11.355 E7.3375
G1 X8.526 Y10.789 E7.3465
G1 X13.392 Y15.655 E7.4552
G1 X13.392 Y15.089 E7.4641
G1 X8.526 Y10.223 E7.5728
G1 X8.526 Y9.658 E7.5818
G1 X13.392 Y14.524 E7.6905
G1 X13.392 Y13.958 E7.6994
G1 X8.526 Y9.092 E7.8081
G1 X8.526 Y8.526 E7.8171
G1 X13.392 Y13.392 E7.9258
G1 X13.392 Y12.827 E7.9347
G1 X8.526 Y7.961 E8.0434
G1 X8.526 Y7.931 E8.0439
G1 X9.063 Y7.931 E8.0524
G1 X13.392 Y12.261 E8.1491
G1 X13.392 Y11.695 E8.1580
G1 X9.628 Y7.931 E8.2421
G1 X10.194 Y7.931 E8.2511
G1 X13.392 Y11.130 E8.3225
G1 X13.392 Y10.564 E8.3315
G1 X10.760 Y7.931 E8.3903
G1 X11.325 Y7.931 E8.3992
G1 X13.392 Y9.998 E8.4454
G1 X13.392 Y9.433 E8.4544
G1 X11.891 Y7.931 E8.4879
G1 X12.457 Y7.931 E8.4968
G1 X13.392 Y8.867 E8.5177
G1 X13.392 Y8.301 E8.5267
G1 X13.022 Y7.931 E8.5350
G1 X7.502 Y10.279 F2400
G1 X7.502 Y17.728 F2400
G1 X4.272 Y17.728 F2400
G1 X4.272 Y24.921 F2400
G1 X-2.464 Y24.921 F2400
G1 X-2.464 Y17.728 F2400
G1 X-5.694 Y17.728 F2400
G1 X-5.694 Y15.892 F2400
G1 X-11.584 Y18.397 F2400
G92 E0
G1 X-0.981 Y29.000 E0.2369 F960
G1 X-1.547 Y29.000 E0.2458
G1 X-11.584 Y18.963 E0.4701
G1 X-11.584 Y19.529 E0.4790
G1 X-2.112 Y29.000 E0.6906
G1 X-2.678 Y29.000 E0.6996
G1 X-11.584 Y20.094 E0.8986
G1 X-11.584 Y20.660 E0.9075
G1 X-3.244 Y29.000 E1.0938
G1 X-3.809 Y29.000 E1.1028
G1 X-11.584 Y21.226 E1.2765
G1 X-11.584 Y21.791 E1.2854
G1 X-4.375 Y29.000 E1.4465
G1 X-4.941 Y29.000 E1.4554
G1 X-11.584 Y22.357 E1.6039
G1 X-11.584 Y22.923 E1.6128
G1 X-5.506 Y29.000 E1.7486
G1 X-6.072 Y29.000 E1.7575
G1 X-11.584 Y23.489 E1.8807
G1 X-11.584 Y24.054 E1.8896
G1 X-6.638 Y29.000 E2.0001
G1 X-7.204 Y29.000 E2.0090
G1 X-11.584 Y24.620 E2.1069
G1 X-11.584 Y25.186 E2.1158
G1 X-7.769 Y29.000 E2.2011
G1 X-8.335 Y29.000 E2.2100
G1 X-11.584 Y25.751 E2.2826
G1 X-11.584 Y26.317 E2.2915
G1 X-8.901 Y29.000 E2.3515
G1 X-9.466 Y29.000 E2.3604
G1 X-11.584 Y26.883 E2.4078
G1 X-11.584 Y27.448 E2.4167
G1 X-10.032 Y29.000 E2.4514
G1 X-10.598 Y29.000 E2.4603
G1 X-11.584 Y28.014 E2.4823
G1 X-11.584 Y28.580 E2.4913
G1 X-11.163 Y29.000 E2.5007
G92 E0
G1 E-8.0000 F3000
; outer perimeter
G1 X-12.608 Y25.253 F2400
G1 X-12.608 Y6.907 F2400
G1 X-19.152 Y8.279 F2400
G1 E0.0000 F3000
G92 E0
G1 X-40.107 Y8.371 E0.3311 F960
G1 X-40.151 Y-1.651 E0.4894
G1 X-37.451 Y-1.663 E0.5321
G1 X-37.420 Y5.307 E0.6422
G1 X-19.165 Y5.227 E0.9306
G1 X-19.152 Y8.279 E0.9788
G92 E0
G1 E-8.0000 F3000
G1 X-19.257 Y-15.686 F2400
G1 E0.0000 F3000
G92 E0
G1 X-37.512 Y-15.606 E0.2884 F960
G1 X-37.481 Y-8.635 E0.3985
G1 X-40.181 Y-8.623 E0.4412
G1 X-40.225 Y-18.645 E0.5995
G1 X-19.270 Y-18.737 E0.9306
G1 X-19.257 Y-15.685 E0.9788
; inner perimeter
G1 X-19.658 Y-16.084 F2400
G92 E0
G1 X-37.913 Y-16.004 E0.2884 F960
G1 X-37.883 Y-9.033 E0.3985
G1 X-39.783 Y-9.025 E0.4286
