; G-Code generated by Simplify3D(R) Version 4.0.0
; Jan 31, 2018 at 7:29:05 PM
; Settings Summary
;   processName,colorfab black jupiter
;   applyToModels,mainbottom_B
;   profileName,MP Mini Delta23 (modified)
;   profileVersion,2017-10-15 16:31:22
;   baseProfile,Monoprice MP Mini Delta
;   printMaterial,eSun PLA+ - Solid Red
;   printQuality,0.08
;   printExtruders,
;   extruderName,Primary Extruder
;   extruderToolheadNumber,0
;   extruderDiameter,0.4
;   extruderAutoWidth,0
;   extruderWidth,0.4
;   extrusionMultiplier,0.95
;   extruderUseRetract,1
;   extruderRetractionDistance,8
;   extruderExtraRestartDistance,0
;   extruderRetractionZLift,0
;   extruderRetractionSpeed,3000
;   extruderUseCoasting,0
;   extruderCoastingDistance,0.2
;   extruderUseWipe,0
;   extruderWipeDistance,5
;   primaryExtruder,0
;   layerHeight,0.1
;   topSolidLayers,10
;   bottomSolidLayers,3
;   perimeterOutlines,3
;   printPerimetersInsideOut,0
;   startPointOption,2
;   startPointOriginX,0
;   startPointOriginY,0
;   sequentialIslands,0
;   spiralVaseMode,0
;   firstLayerHeightPercentage,100
;   firstLayerWidthPercentage,100
;   firstLayerUnderspeed,0.4
;   useRaft,0
;   raftExtruder,0
;   raftTopLayers,3
;   raftBaseLayers,2
;   raftOffset,2
;   raftSeparationDistance,0.14
;   raftTopInfill,100
;   aboveRaftSpeedMultiplier,0.3
;   useSkirt,0
;   skirtExtruder,0
;   skirtLayers,3
;   skirtOutlines,5
;   skirtOffset,0
;   usePrimePillar,0
;   primePillarExtruder,999
;   primePillarWidth,6
;   primePillarLocation,0
;   primePillarSpeedMultiplier,1
;   useOozeShield,0
;   oozeShieldExtruder,999
;   oozeShieldOffset,2
;   oozeShieldOutlines,1
;   oozeShieldSidewallShape,1
;   oozeShieldSidewallAngle,30
;   oozeShieldSpeedMultiplier,1
;   infillExtruder,0
;   internalInfillPattern,Rectilinear
;   externalInfillPattern,Rectilinear
;   infillPercentage,10
;   outlineOverlapPercentage,45
;   infillExtrusionWidthPercentage,100
;   minInfillLength,5
;   infillLayerInterval,3
;   internalInfillAngles,45,-45
;   overlapInternalInfillAngles,0
;   externalInfillAngles,45,-45
;   generateSupport,1
;   supportExtruder,0
;   supportInfillPercentage,40
;   supportExtraInflation,0.2
;   supportBaseLayers,0
;   denseSupportExtruder,0
;   denseSupportLayers,0
;   denseSupportInfillPercentage,70
;   supportLayerInterval,3
;   supportHorizontalPartOffset,0.2
;   supportUpperSeparationLayers,1
;   supportLowerSeparationLayers,1
;   supportType,0
;   supportGridSpacing,1
;   maxOverhangAngle,45
;   supportAngles,90
;   temperatureName,Primary Extruder,Heated Bed
;   temperatureNumber,0,0
;   temperatureSetpointCount,1,1
;   temperatureSetpointLayers,1,1
;   temperatureSetpointTemperatures,195,30
;   temperatureStabilizeAtStartup,1,1
;   temperatureHeatedBed,0,1
;   temperatureRelayBetweenLayers,0,0
;   temperatureRelayBetweenLoops,0,0
;   fanLayers,1,2,3
;   fanSpeeds,0,60,100
;   blipFanToFullPower,1
;   adjustSpeedForCooling,1
;   minSpeedLayerTime,15
;   minCoolingSpeedSlowdown,20
;   increaseFanForCooling,0
;   minFanLayerTime,45
;   maxCoolingFanSpeed,100
;   increaseFanForBridging,0
;   bridgingFanSpeed,100
;   use5D,1
;   relativeEdistances,0
;   allowEaxisZeroing,1
;   independentExtruderAxes,0
;   includeM10123,0
;   stickySupport,1
;   applyToolheadOffsets,0
;   gcodeXoffset,0
;   gcodeYoffset,0
;   gcodeZoffset,0.35
;   overrideMachineDefinition,1
;   machineTypeOverride,1
;   strokeXoverride,77.8
;   strokeYoverride,77.8
;   strokeZoverride,120
;   originOffsetXoverride,38.9
;   originOffsetYoverride,38.9
;   originOffsetZoverride,0
;   homeXdirOverride,0
;   homeYdirOverride,0
;   homeZdirOverride,-1
;   flipXoverride,1
;   flipYoverride,-1
;   flipZoverride,1
;   toolheadOffsets,0,0|0,0|0,0|0,0|0,0|0,0
;   overrideFirmwareConfiguration,1
;   firmwareTypeOverride,RepRap (Marlin/Repetier/Sprinter)
;   GPXconfigOverride,r2
;   baudRateOverride,115200
;   overridePrinterModels,1
;   printerModelsOverride,MP_Mini_Delta_Platform.stl
;   startingGcode,G90 ; absolute positioning - this line was added in case Cura doesn't include it by default,M82 ; set extruder to absolute mode - this line was added in case Cura doesn't include it by default (may not be needed),M107; start with the fan off (I don't think this is possible),G28 ; Start from home position,G29 C-0.8 Z0.3 ; probe the bed at 3 points with a 0.3mm overall vertical offset and an additional -0.8mm center offset ,G1 Z15.0 F4800  ; move the nozzle up 15mm,G92 E0 ; reset extrusion distance,G1 F200 E3 ; extrude 3mm of feed stock,G92 E0 ; reset extrusion distance again,G1 F4800
;   layerChangeGcode,
;   retractionGcode,
;   toolChangeGcode,
;   endingGcode,M104 S0 ; turn off hotend heater,M140 S0 ; turn off bed heater,G91 ; Switch to use Relative Coordinates,G1 E-3 F700 ; retract the filament a bit before lifting the nozzle to release some of the pressure,G1 Z2 F1000 ; raise platform 2mm from current position,G1 E-2 F700 ; retract filament even more,G90 ; Switch back to using absolute coordinates,G28 X ; Return to home position. Without an X Y or Z after G28 the print completion time will not be displayed on the Mini Delta's display.,M84 ; disable motors,G4 S360 ; pause for 360 seconds to keep fan running to cool hotend and allow the fan to be turned off,M107 ; turn off fan. Some say M107 doesn't work for them but if the hotend is cool enough it should work,;M106 S1 ; turn off fan. Remove the semicolon in front of M106 if M107 doesn't work for you
;   exportFileFormat,gcode
;   celebration,0
;   celebrationSong,Random Song
;   postProcessing,
;   defaultSpeed,2400
;   outlineUnderspeed,1
;   solidInfillUnderspeed,1
;   supportUnderspeed,1
;   rapidXYspeed,2400
;   rapidZspeed,1002
;   minBridgingArea,50
;   bridgingExtraInflation,0
;   bridgingExtrusionMultiplier,0.9
;   bridgingSpeedMultiplier,1
;   useFixedBridgingAngle,0
;   fixedBridgingAngle,0
;   applyBridgingToPerimeters,0
;   filamentDiameters,1.75|1.75|1.75|1.75|1.75|1.75
;   filamentPricesPerKg,48|25|25|25|25|25
;   filamentDensities,1.25|1.25|1.25|1.25|1.25|1.25
;   useMinPrintHeight,0
;   minPrintHeight,42
;   useMaxPrintHeight,0
;   maxPrintHeight,0
;   useDiaphragm,0
;   diaphragmLayerInterval,20
;   robustSlicing,1
;   mergeAllIntoSolid,0
;   onlyRetractWhenCrossingOutline,1
;   retractBetweenLayers,1
;   useRetractionMinTravel,0
;   retractionMinTravel,3
;   retractWhileWiping,1
;   onlyWipeOutlines,1
;   avoidCrossingOutline,1
;   maxMovementDetourFactor,5
;   toolChangeRetractionDistance,12
;   toolChangeExtraRestartDistance,-0.5
;   toolChangeRetractionSpeed,600
;   externalThinWallType,1
;   internalThinWallType,1
;   thinWallAllowedOverlapPercentage,100
;   singleExtrusionMinLength,0.4
;   singleExtrusionMinPrintingWidthPercentage,50
;   singleExtrusionMaxPrintingWidthPercentage,200
;   singleExtrusionEndpointExtension,0.2
;   horizontalSizeCompensation,0
G90
M82
M106 S255
G4 P500
M106 S0
M140 S30
M190 S30
M104 S195 T0
M109 S195 T0
G90 ; absolute positioning - this line was added in case Cura doesn't include it by default
M82 ; set extruder to absolute mode - this line was added in case Cura doesn't include it by default (may not be needed)
M107; start with the fan off (I don't think this is possible)
G28 ; Start from home position
G29 C-0.8 Z0.3 ; probe the bed at 3 points with a 0.3mm overall vertical offset and an additional -0.8mm center offset 
G1 Z15.0 F4800  ; move the nozzle up 15mm
G92 E0 ; reset extrusion distance
G1 F200 E3 ; extrude 3mm of feed stock
G92 E0 ; reset extrusion distance again
G1 F4800
G92 E0
G1 E-8.0000 F3000
G1 Z0.450 F1002
; process colorfab black jupiter
; layer 1, Z = 0.100
T0
; tool H0.100 W0.400
; outer perimeter
G1 X-4.708 Y9.157 F2400
G1 E0.0000 F900
G92 E0
G1 X-0.352 Y16.703 E0.1377 F960
G1 X-16.895 Y26.255 E0.4395
G1 X-31.157 Y1.552 E0.8901
G1 X16.923 Y-26.207 E1.7672
G1 X31.185 Y-1.505 E2.2178
G1 X14.641 Y8.047 E2.5196
G1 X10.285 Y0.501 E2.6573
G1 X-4.708 Y9.157 E2.9308
; inner perimeter
G1 X-5.254 Y9.011 F2400
G92 E0
G1 X-0.898 Y16.557 E0.1377 F960
G1 X-16.749 Y25.708 E0.4268
G1 X-30.611 Y1.699 E0.8648
G1 X16.776 Y-25.661 E1.7293
G1 X30.638 Y-1.651 E2.1673
G1 X14.787 Y7.501 E2.4564
G1 X10.431 Y-0.045 E2.5941
G1 X-5.254 Y9.011 E2.8802
G1 X-5.801 Y8.865 F2400
G92 E0
G1 X-1.444 Y16.410 E0.1377 F960
G1 X-16.603 Y25.162 E0.4142
G1 X-30.065 Y1.845 E0.8395
G1 X16.630 Y-25.114 E1.6914
G1 X30.092 Y-1.797 E2.1167
G1 X14.934 Y6.954 E2.3933
G1 X10.577 Y-0.591 E2.5309
G1 X-5.801 Y8.865 E2.8297
; solid layer
G1 X-16.466 Y24.829 F2400
G92 E0
G1 X-16.643 Y24.652 E0.0039 F960
G1 X-17.415 Y23.314 E0.0284
G1 X-16.108 Y24.622 E0.0576
G1 X-15.749 Y24.415 E0.0641
G1 X-18.188 Y21.975 E0.1186
G1 X-18.961 Y20.637 E0.1430
G1 X-15.390 Y24.208 E0.2228
G1 X-15.032 Y24.001 E0.2294
G1 X-19.734 Y19.299 E0.3344
G1 X-20.506 Y17.960 E0.3588
G1 X-14.673 Y23.794 E0.4892
G1 X-14.314 Y23.587 E0.4957
G1 X-21.279 Y16.622 E0.6513
G1 X-22.052 Y15.283 E0.6757
G1 X-13.956 Y23.380 E0.8566
G1 X-13.597 Y23.172 E0.8632
G1 X-22.825 Y13.945 E1.0693
G1 X-23.597 Y12.606 E1.0938
G1 X-13.238 Y22.965 E1.3252
G1 X-12.880 Y22.758 E1.3317
G1 X-24.370 Y11.268 E1.5885
G1 X-25.143 Y9.930 E1.6129
G1 X-12.521 Y22.551 E1.8949
G1 X-12.163 Y22.344 E1.9014
G1 X-25.916 Y8.591 E2.2087
G1 X-26.688 Y7.253 E2.2331
G1 X-11.804 Y22.137 E2.5657
G1 X-11.445 Y21.930 E2.5722
G1 X-27.461 Y5.914 E2.9300
G1 X-28.234 Y4.576 E2.9545
G1 X-11.087 Y21.723 E3.3376
G1 X-10.728 Y21.516 E3.3441
G1 X-29.007 Y3.237 E3.7525
G1 X-29.764 Y1.925 E3.7764
G1 X-29.757 Y1.921 E3.7766
G1 X-10.369 Y21.309 E4.2097
G1 X-10.011 Y21.102 E4.2163
G1 X-29.398 Y1.714 E4.6494
G1 X-29.040 Y1.507 E4.6560
G1 X-9.652 Y20.895 E5.0892
G1 X-9.294 Y20.688 E5.0957
G1 X-28.681 Y1.300 E5.5289
G1 X-28.322 Y1.093 E5.5354
G1 X-8.935 Y20.481 E5.9686
G1 X-8.576 Y20.274 E5.9751
G1 X-27.964 Y0.886 E6.4083
G1 X-27.605 Y0.679 E6.4148
G1 X-8.218 Y20.067 E6.8480
G1 X-7.859 Y19.860 E6.8545
G1 X-27.247 Y0.472 E7.2877
G1 X-26.888 Y0.265 E7.2942
G1 X-7.500 Y19.653 E7.7274
G1 X-7.142 Y19.445 E7.7340
G1 X-26.529 Y0.058 E8.1671
G1 X-26.171 Y-0.149 E8.1737
G1 X-6.783 Y19.238 E8.6068
G1 X-6.424 Y19.031 E8.6134
G1 X-25.812 Y-0.356 E9.0465
G1 X-25.453 Y-0.563 E9.0531
G1 X-6.066 Y18.824 E9.4863
G1 X-5.707 Y18.617 E9.4928
G1 X-25.095 Y-0.770 E9.9260
G1 X-24.736 Y-0.977 E9.9325
G1 X-5.349 Y18.410 E10.3657
G1 X-4.990 Y18.203 E10.3722
G1 X-24.378 Y-1.184 E10.8054
G1 X-24.019 Y-1.391 E10.8119
G1 X-4.631 Y17.996 E11.2451
G1 X-4.273 Y17.789 E11.2516
G1 X-23.660 Y-1.599 E11.6848
G1 X-23.302 Y-1.806 E11.6913
G1 X-3.914 Y17.582 E12.1245
G1 X-3.555 Y17.375 E12.1311
G1 X-22.943 Y-2.013 E12.5642
G1 X-22.584 Y-2.220 E12.5708
G1 X-3.197 Y17.168 E13.0039
G1 X-2.838 Y16.961 E13.0105
G1 X-22.226 Y-2.427 E13.4436
G1 X-21.867 Y-2.634 E13.4502
G1 X-2.480 Y16.754 E13.8834
G1 X-2.121 Y16.547 E13.8899
G1 X-21.508 Y-2.841 E14.3231
G1 X-21.150 Y-3.048 E14.3296
G1 X-1.762 Y16.340 E14.7628
G1 X-1.745 Y16.330 E14.7631
G1 X-2.480 Y15.056 E14.7863
G1 X-20.791 Y-3.255 E15.1954
G1 X-20.433 Y-3.462 E15.2020
G1 X-3.253 Y13.717 E15.5858
G1 X-4.026 Y12.379 E15.6102
G1 X-20.074 Y-3.669 E15.9688
G1 X-19.715 Y-3.876 E15.9753
G1 X-4.799 Y11.041 E16.3086
G1 X-5.571 Y9.702 E16.3330
G1 X-19.357 Y-4.083 E16.6410
G1 X-18.998 Y-4.290 E16.6476
G1 X-5.989 Y8.719 E16.9382
G1 X-5.630 Y8.512 E16.9448
G1 X-18.639 Y-4.497 E17.2354
G1 X-18.281 Y-4.704 E17.2420
G1 X-5.272 Y8.305 E17.5326
G1 X-4.913 Y8.098 E17.5392
G1 X-17.922 Y-4.911 E17.8298
G1 X-17.564 Y-5.118 E17.8364
G1 X-4.554 Y7.891 E18.1270
G1 X-4.196 Y7.684 E18.1336
G1 X-17.205 Y-5.326 E18.4242
G1 X-16.846 Y-5.533 E18.4308
G1 X-3.837 Y7.477 E18.7214
G1 X-3.478 Y7.270 E18.7280
G1 X-16.488 Y-5.740 E19.0187
G1 X-16.129 Y-5.947 E19.0252
G1 X-3.120 Y7.063 E19.3159
G1 X-2.761 Y6.856 E19.3224
G1 X-15.770 Y-6.154 E19.6131
G1 X-15.412 Y-6.361 E19.6196
G1 X-2.402 Y6.648 E19.9103
G1 X-2.044 Y6.441 E19.9168
G1 X-15.053 Y-6.568 E20.2075
G1 X-14.695 Y-6.775 E20.2140
G1 X-1.685 Y6.234 E20.5047
G1 X-1.327 Y6.027 E20.5112
G1 X-14.336 Y-6.982 E20.8019
G1 X-13.977 Y-7.189 E20.8084
G1 X-0.968 Y5.820 E21.0991
G1 X-0.609 Y5.613 E21.1056
G1 X-13.619 Y-7.396 E21.3963
G1 X-13.260 Y-7.603 E21.4028
G1 X-0.251 Y5.406 E21.6935
G1 X0.108 Y5.199 E21.7000
G1 X-12.901 Y-7.810 E21.9907
G1 X-12.543 Y-8.017 E21.9972
G1 X0.467 Y4.992 E22.2879
G1 X0.825 Y4.785 E22.2944
G1 X-12.184 Y-8.224 E22.5851
G1 X-11.825 Y-8.431 E22.5916
G1 X1.184 Y4.578 E22.8823
G1 X1.542 Y4.371 E22.8888
G1 X-11.467 Y-8.638 E23.1795
G1 X-11.108 Y-8.845 E23.1860
G1 X1.901 Y4.164 E23.4767
G1 X2.260 Y3.957 E23.4832
G1 X-10.750 Y-9.053 E23.7739
G1 X-10.391 Y-9.260 E23.7804
G1 X2.618 Y3.750 E24.0711
G1 X2.977 Y3.543 E24.0777
G1 X-10.032 Y-9.467 E24.3683
G1 X-9.674 Y-9.674 E24.3749
G1 X3.336 Y3.336 E24.6655
G1 X3.694 Y3.129 E24.6721
G1 X-9.315 Y-9.881 E24.9627
G1 X-8.956 Y-10.088 E24.9693
G1 X4.053 Y2.921 E25.2599
G1 X4.412 Y2.714 E25.2665
G1 X-8.598 Y-10.295 E25.5571
G1 X-8.239 Y-10.502 E25.5637
G1 X4.770 Y2.507 E25.8543
G1 X5.129 Y2.300 E25.8609
G1 X-7.881 Y-10.709 E26.1515
G1 X-7.522 Y-10.916 E26.1581
G1 X5.487 Y2.093 E26.4487
G1 X5.846 Y1.886 E26.4553
G1 X-7.163 Y-11.123 E26.7459
G1 X-6.805 Y-11.330 E26.7525
G1 X6.205 Y1.679 E27.0431
G1 X6.563 Y1.472 E27.0497
G1 X-6.446 Y-11.537 E27.3403
G1 X-6.087 Y-11.744 E27.3469
G1 X6.922 Y1.265 E27.6376
G1 X7.281 Y1.058 E27.6441
G1 X-5.729 Y-11.951 E27.9348
G1 X-5.370 Y-12.158 E27.9413
G1 X7.639 Y0.851 E28.2320
G1 X7.998 Y0.644 E28.2385
G1 X-5.012 Y-12.365 E28.5292
G1 X-4.653 Y-12.572 E28.5357
G1 X8.356 Y0.437 E28.8264
G1 X8.715 Y0.230 E28.8329
G1 X-4.294 Y-12.780 E29.1236
G1 X-3.936 Y-12.987 E29.1301
G1 X9.074 Y0.023 E29.4208
G1 X9.432 Y-0.184 E29.4273
G1 X-3.577 Y-13.194 E29.7180
G1 X-3.218 Y-13.401 E29.7245
G1 X9.791 Y-0.391 E30.0152
G1 X10.150 Y-0.598 E30.0217
G1 X-2.860 Y-13.608 E30.3124
G1 X-2.501 Y-13.815 E30.3189
G1 X10.508 Y-0.805 E30.6096
G1 X10.658 Y-0.892 E30.6123
G1 X10.981 Y-0.333 E30.6225
G1 X16.886 Y5.573 E30.7545
G1 X17.245 Y5.366 E30.7610
G1 X-2.142 Y-14.022 E31.1942
G1 X-1.784 Y-14.229 E31.2007
G1 X17.604 Y5.159 E31.6339
G1 X17.962 Y4.952 E31.6404
G1 X-1.425 Y-14.436 E32.0736
G1 X-1.067 Y-14.643 E32.0801
G1 X18.321 Y4.745 E32.5133
G1 X18.680 Y4.537 E32.5198
G1 X-0.708 Y-14.850 E32.9530
G1 X-0.349 Y-15.057 E32.9596
G1 X19.038 Y4.330 E33.3927
G1 X19.397 Y4.123 E33.3993
G1 X0.009 Y-15.264 E33.8324
G1 X0.368 Y-15.471 E33.8390
G1 X19.756 Y3.916 E34.2721
G1 X20.114 Y3.709 E34.2787
G1 X0.727 Y-15.678 E34.7119
G1 X1.085 Y-15.885 E34.7184
G1 X20.473 Y3.502 E35.1516
G1 X20.831 Y3.295 E35.1581
G1 X1.444 Y-16.092 E35.5913
G1 X1.802 Y-16.299 E35.5978
G1 X21.190 Y3.088 E36.0310
G1 X21.549 Y2.881 E36.0375
G1 X2.161 Y-16.507 E36.4707
G1 X2.520 Y-16.714 E36.4772
G1 X21.907 Y2.674 E36.9104
G1 X22.266 Y2.467 E36.9170
G1 X2.878 Y-16.921 E37.3501
G1 X3.237 Y-17.128 E37.3567
G1 X22.625 Y2.260 E37.7898
G1 X22.983 Y2.053 E37.7964
G1 X3.596 Y-17.335 E38.2295
G1 X3.954 Y-17.542 E38.2361
G1 X23.342 Y1.846 E38.6693
G1 X23.700 Y1.639 E38.6758
G1 X4.313 Y-17.749 E39.1090
G1 X4.672 Y-17.956 E39.1155
G1 X24.059 Y1.432 E39.5487
G1 X24.418 Y1.225 E39.5552
G1 X5.030 Y-18.163 E39.9884
G1 X5.389 Y-18.370 E39.9949
G1 X24.776 Y1.018 E40.4281
G1 X25.135 Y0.811 E40.4346
G1 X5.747 Y-18.577 E40.8678
G1 X6.106 Y-18.784 E40.8743
G1 X25.494 Y0.603 E41.3075
G1 X25.852 Y0.396 E41.3141
G1 X6.465 Y-18.991 E41.7472
G1 X6.823 Y-19.198 E41.7538
G1 X26.211 Y0.189 E42.1869
G1 X26.570 Y-0.018 E42.1935
G1 X7.182 Y-19.405 E42.6266
G1 X7.541 Y-19.612 E42.6332
G1 X26.928 Y-0.225 E43.0664
G1 X27.287 Y-0.432 E43.0729
G1 X7.899 Y-19.819 E43.5061
G1 X8.258 Y-20.026 E43.5126
G1 X27.645 Y-0.639 E43.9458
G1 X28.004 Y-0.846 E43.9523
G1 X8.616 Y-20.234 E44.3855
G1 X8.975 Y-20.441 E44.3920
G1 X28.363 Y-1.053 E44.8252
G1 X28.721 Y-1.260 E44.8317
G1 X9.334 Y-20.648 E45.2649
G1 X9.692 Y-20.855 E45.2714
G1 X29.080 Y-1.467 E45.7046
G1 X29.439 Y-1.674 E45.7112
G1 X10.051 Y-21.062 E46.1443
G1 X10.410 Y-21.269 E46.1509
G1 X29.779 Y-1.899 E46.5836
G1 X29.007 Y-3.238 E46.6081
G1 X10.768 Y-21.476 E47.0155
G1 X11.127 Y-21.683 E47.0221
G1 X28.234 Y-4.576 E47.4043
G1 X27.461 Y-5.914 E47.4287
