; G-Code generated by Simplify3D(R) Version 4.0.0
; Jan 23, 2018 at 6:41:48 PM
; Settings Summary
;   processName,Process1
;   applyToModels,maintop
;   profileName,MP Mini Delta23 (modified)
;   profileVersion,2017-10-15 16:31:22
;   baseProfile,Monoprice MP Mini Delta
;   printMaterial,eSun PLA+ - Solid Red
;   printQuality,0.08
;   printExtruders,
;   extruderName,Primary Extruder
;   extruderToolheadNumber,0
;   extruderDiameter,0.4
;   extruderAutoWidth,0
;   extruderWidth,0.4
;   extrusionMultiplier,0.95
;   extruderUseRetract,1
;   extruderRetractionDistance,8
;   extruderExtraRestartDistance,0
;   extruderRetractionZLift,0
;   extruderRetractionSpeed,3000
;   extruderUseCoasting,0
;   extruderCoastingDistance,0.2
;   extruderUseWipe,0
;   extruderWipeDistance,5
;   primaryExtruder,0
;   layerHeight,0.1
;   topSolidLayers,8
;   bottomSolidLayers,3
;   perimeterOutlines,3
;   printPerimetersInsideOut,1
;   startPointOption,2
;   startPointOriginX,0
;   startPointOriginY,0
;   sequentialIslands,0
;   spiralVaseMode,0
;   firstLayerHeightPercentage,100
;   firstLayerWidthPercentage,100
;   firstLayerUnderspeed,0.4
;   useRaft,0
;   raftExtruder,0
;   raftTopLayers,3
;   raftBaseLayers,2
;   raftOffset,5
;   raftSeparationDistance,0.14
;   raftTopInfill,100
;   aboveRaftSpeedMultiplier,0.3
;   useSkirt,0
;   skirtExtruder,0
;   skirtLayers,1
;   skirtOutlines,5
;   skirtOffset,0
;   usePrimePillar,0
;   primePillarExtruder,999
;   primePillarWidth,6
;   primePillarLocation,0
;   primePillarSpeedMultiplier,1
;   useOozeShield,0
;   oozeShieldExtruder,999
;   oozeShieldOffset,2
;   oozeShieldOutlines,1
;   oozeShieldSidewallShape,1
;   oozeShieldSidewallAngle,30
;   oozeShieldSpeedMultiplier,1
;   infillExtruder,0
;   internalInfillPattern,Fast Honeycomb
;   externalInfillPattern,Rectilinear
;   infillPercentage,18
;   outlineOverlapPercentage,45
;   infillExtrusionWidthPercentage,100
;   minInfillLength,5
;   infillLayerInterval,1
;   internalInfillAngles,0
;   overlapInternalInfillAngles,0
;   externalInfillAngles,45,-45
;   generateSupport,1
;   supportExtruder,0
;   supportInfillPercentage,40
;   supportExtraInflation,0.4
;   supportBaseLayers,0
;   denseSupportExtruder,0
;   denseSupportLayers,0
;   denseSupportInfillPercentage,70
;   supportLayerInterval,2
;   supportHorizontalPartOffset,0.2
;   supportUpperSeparationLayers,1
;   supportLowerSeparationLayers,1
;   supportType,0
;   supportGridSpacing,1
;   maxOverhangAngle,45
;   supportAngles,0,90
;   temperatureName,Primary Extruder,Heated Bed
;   temperatureNumber,0,0
;   temperatureSetpointCount,1,1
;   temperatureSetpointLayers,1,1
;   temperatureSetpointTemperatures,195,30
;   temperatureStabilizeAtStartup,1,1
;   temperatureHeatedBed,0,1
;   temperatureRelayBetweenLayers,0,0
;   temperatureRelayBetweenLoops,0,0
;   fanLayers,1,2,3
;   fanSpeeds,0,60,100
;   blipFanToFullPower,1
;   adjustSpeedForCooling,0
;   minSpeedLayerTime,15
;   minCoolingSpeedSlowdown,20
;   increaseFanForCooling,0
;   minFanLayerTime,45
;   maxCoolingFanSpeed,100
;   increaseFanForBridging,0
;   bridgingFanSpeed,100
;   use5D,1
;   relativeEdistances,0
;   allowEaxisZeroing,1
;   independentExtruderAxes,0
;   includeM10123,0
;   stickySupport,1
;   applyToolheadOffsets,0
;   gcodeXoffset,0
;   gcodeYoffset,0
;   gcodeZoffset,0.23
;   overrideMachineDefinition,1
;   machineTypeOverride,1
;   strokeXoverride,77.8
;   strokeYoverride,77.8
;   strokeZoverride,120
;   originOffsetXoverride,38.9
;   originOffsetYoverride,38.9
;   originOffsetZoverride,0
;   homeXdirOverride,0
;   homeYdirOverride,0
;   homeZdirOverride,-1
;   flipXoverride,1
;   flipYoverride,-1
;   flipZoverride,1
;   toolheadOffsets,0,0|0,0|0,0|0,0|0,0|0,0
;   overrideFirmwareConfiguration,1
;   firmwareTypeOverride,RepRap (Marlin/Repetier/Sprinter)
;   GPXconfigOverride,r2
;   baudRateOverride,115200
;   overridePrinterModels,1
;   printerModelsOverride,MP_Mini_Delta_Platform.stl
;   startingGcode,G90 ; absolute positioning - this line was added in case Cura doesn't include it by default,M82 ; set extruder to absolute mode - this line was added in case Cura doesn't include it by default (may not be needed),M107; start with the fan off (I don't think this is possible),G28 ; Start from home position,G29 C-0.8 Z0.3 ; probe the bed at 3 points with a 0.3mm overall vertical offset and an additional -0.8mm center offset ,G1 Z15.0 F4800  ; move the nozzle up 15mm,G92 E0 ; reset extrusion distance,G1 F200 E3 ; extrude 3mm of feed stock,G92 E0 ; reset extrusion distance again,G1 F4800
;   layerChangeGcode,
;   retractionGcode,
;   toolChangeGcode,
;   endingGcode,M104 S0 ; turn off hotend heater,M140 S0 ; turn off bed heater,G91 ; Switch to use Relative Coordinates,G1 E-3 F700 ; retract the filament a bit before lifting the nozzle to release some of the pressure,G1 Z2 F1000 ; raise platform 2mm from current position,G1 E-2 F700 ; retract filament even more,G90 ; Switch back to using absolute coordinates,G28 X ; Return to home position. Without an X Y or Z after G28 the print completion time will not be displayed on the Mini Delta's display.,M84 ; disable motors,G4 S360 ; pause for 360 seconds to keep fan running to cool hotend and allow the fan to be turned off,M107 ; turn off fan. Some say M107 doesn't work for them but if the hotend is cool enough it should work,;M106 S1 ; turn off fan. Remove the semicolon in front of M106 if M107 doesn't work for you
;   exportFileFormat,gcode
;   celebration,0
;   celebrationSong,Random Song
;   postProcessing,
;   defaultSpeed,3200
;   outlineUnderspeed,1
;   solidInfillUnderspeed,1
;   supportUnderspeed,1
;   rapidXYspeed,3200
;   rapidZspeed,1002
;   minBridgingArea,50
;   bridgingExtraInflation,0
;   bridgingExtrusionMultiplier,1
;   bridgingSpeedMultiplier,1
;   useFixedBridgingAngle,0
;   fixedBridgingAngle,0
;   applyBridgingToPerimeters,0
;   filamentDiameters,1.75|1.75|1.75|1.75|1.75|1.75
;   filamentPricesPerKg,48|25|25|25|25|25
;   filamentDensities,1.25|1.25|1.25|1.25|1.25|1.25
;   useMinPrintHeight,0
;   minPrintHeight,42
;   useMaxPrintHeight,0
;   maxPrintHeight,0
;   useDiaphragm,0
;   diaphragmLayerInterval,20
;   robustSlicing,1
;   mergeAllIntoSolid,0
;   onlyRetractWhenCrossingOutline,1
;   retractBetweenLayers,1
;   useRetractionMinTravel,0
;   retractionMinTravel,3
;   retractWhileWiping,1
;   onlyWipeOutlines,1
;   avoidCrossingOutline,1
;   maxMovementDetourFactor,5
;   toolChangeRetractionDistance,12
;   toolChangeExtraRestartDistance,-0.5
;   toolChangeRetractionSpeed,600
;   externalThinWallType,1
;   internalThinWallType,1
;   thinWallAllowedOverlapPercentage,100
;   singleExtrusionMinLength,0.4
;   singleExtrusionMinPrintingWidthPercentage,50
;   singleExtrusionMaxPrintingWidthPercentage,200
;   singleExtrusionEndpointExtension,0.2
;   horizontalSizeCompensation,0
G90
M82
M106 S255
G4 P500
M106 S0
M140 S30
M190 S30
M104 S195 T0
M109 S195 T0
G90 ; absolute positioning - this line was added in case Cura doesn't include it by default
M82 ; set extruder to absolute mode - this line was added in case Cura doesn't include it by default (may not be needed)
M107; start with the fan off (I don't think this is possible)
G28 ; Start from home position
G29 C-0.8 Z0.3 ; probe the bed at 3 points with a 0.3mm overall vertical offset and an additional -0.8mm center offset 
G1 Z15.0 F4800  ; move the nozzle up 15mm
G92 E0 ; reset extrusion distance
G1 F200 E3 ; extrude 3mm of feed stock
G92 E0 ; reset extrusion distance again
G1 F4800
G92 E0
G1 E-8.0000 F3000
G1 Z0.330 F1002
; process Process1
; layer 1, Z = 0.100
T0
; tool H0.100 W0.400
; inner perimeter
G1 X11.932 Y3.050 F3200
G1 E0.0000 F900
G92 E0
G1 X-11.932 Y3.050 E0.3770 F1280
G1 X-11.932 Y-13.881 E0.6445
G1 X11.932 Y-13.881 E1.0215
G1 X11.932 Y3.050 E1.2890
G1 X12.332 Y3.450 F3200
G92 E0
G1 X-12.332 Y3.450 E0.3897 F1280
G1 X-12.332 Y-14.281 E0.6698
G1 X12.332 Y-14.281 E1.0594
G1 X12.332 Y3.450 E1.3396
; outer perimeter
G1 X12.732 Y3.850 F3200
G92 E0
G1 X-12.732 Y3.850 E0.4023 F1280
G1 X-12.732 Y-14.681 E0.6951
G1 X12.732 Y-14.681 E1.0973
G1 X12.732 Y3.850 E1.3901
; solid layer
G1 X11.229 Y-13.661 F3200
G92 E0
G1 X11.712 Y-13.178 E0.0108 F1280
G1 X11.712 Y-12.613 E0.0197
G1 X10.663 Y-13.661 E0.0432
G1 X10.098 Y-13.661 E0.0521
G1 X11.712 Y-12.047 E0.0882
G1 X11.712 Y-11.481 E0.0971
G1 X9.532 Y-13.661 E0.1458
G1 X8.966 Y-13.661 E0.1547
G1 X11.712 Y-10.916 E0.2161
G1 X11.712 Y-10.350 E0.2250
G1 X8.400 Y-13.661 E0.2990
G1 X7.835 Y-13.661 E0.3079
G1 X11.712 Y-9.784 E0.3946
G1 X11.712 Y-9.219 E0.4035
G1 X7.269 Y-13.661 E0.5028
G1 X6.703 Y-13.661 E0.5117
G1 X11.712 Y-8.653 E0.6236
G1 X11.712 Y-8.087 E0.6325
G1 X6.138 Y-13.661 E0.7571
G1 X5.572 Y-13.661 E0.7660
G1 X11.712 Y-7.521 E0.9032
G1 X11.712 Y-6.956 E0.9121
G1 X5.006 Y-13.661 E1.0620
G1 X4.441 Y-13.661 E1.0709
G1 X11.712 Y-6.390 E1.2333
G1 X11.712 Y-5.824 E1.2423
G1 X3.875 Y-13.661 E1.4174
G1 X3.309 Y-13.661 E1.4263
G1 X11.712 Y-5.259 E1.6140
G1 X11.712 Y-4.693 E1.6230
G1 X2.744 Y-13.661 E1.8234
G1 X2.178 Y-13.661 E1.8323
G1 X11.712 Y-4.127 E2.0453
G1 X11.712 Y-3.562 E2.0542
G1 X1.612 Y-13.661 E2.2799
G1 X1.047 Y-13.661 E2.2888
G1 X11.712 Y-2.996 E2.5271
G1 X11.712 Y-2.430 E2.5361
G1 X0.481 Y-13.661 E2.7870
G1 X-0.085 Y-13.661 E2.7959
G1 X11.712 Y-1.865 E3.0595
G1 X11.712 Y-1.299 E3.0684
G1 X-0.650 Y-13.661 E3.3446
G1 X-1.216 Y-13.661 E3.3536
G1 X11.712 Y-0.733 E3.6424
G1 X11.712 Y-0.168 E3.6514
G1 X-1.782 Y-13.661 E3.9528
G1 X-2.348 Y-13.661 E3.9618
G1 X11.712 Y0.398 E4.2759
G1 X11.712 Y0.964 E4.2848
G1 X-2.913 Y-13.661 E4.6116
G1 X-3.479 Y-13.661 E4.6205
G1 X11.712 Y1.529 E4.9599
G1 X11.712 Y2.095 E4.9689
G1 X-4.045 Y-13.661 E5.3209
G1 X-4.610 Y-13.661 E5.3298
G1 X11.712 Y2.661 E5.6945
G1 X11.712 Y2.830 E5.6972
G1 X11.315 Y2.830 E5.7035
G1 X-5.176 Y-13.661 E6.0719
G1 X-5.742 Y-13.661 E6.0808
G1 X10.749 Y2.830 E6.4493
G1 X10.184 Y2.830 E6.4582
G1 X-6.307 Y-13.661 E6.8267
G1 X-6.873 Y-13.661 E6.8356
G1 X9.618 Y2.830 E7.2041
G1 X9.052 Y2.830 E7.2130
G1 X-7.439 Y-13.661 E7.5815
G1 X-8.004 Y-13.661 E7.5904
G1 X8.487 Y2.830 E7.9589
G1 X7.921 Y2.830 E7.9678
G1 X-8.570 Y-13.661 E8.3363
G1 X-9.136 Y-13.661 E8.3452
G1 X7.355 Y2.830 E8.7136
G1 X6.790 Y2.830 E8.7226
G1 X-9.701 Y-13.661 E9.0910
G1 X-10.267 Y-13.661 E9.1000
G1 X6.224 Y2.830 E9.4684
G1 X5.658 Y2.830 E9.4774
G1 X-10.833 Y-13.661 E9.8458
G1 X-11.399 Y-13.661 E9.8547
G1 X5.093 Y2.830 E10.2232
G1 X4.527 Y2.830 E10.2321
G1 X-11.712 Y-13.409 E10.5950
G1 X-11.712 Y-12.843 E10.6039
G1 X3.961 Y2.830 E10.9541
G1 X3.396 Y2.830 E10.9630
G1 X-11.712 Y-12.278 E11.3005
G1 X-11.712 Y-11.712 E11.3095
G1 X2.830 Y2.830 E11.6344
G1 X2.264 Y2.830 E11.6433
G1 X-11.712 Y-11.146 E11.9556
G1 X-11.712 Y-10.580 E11.9645
G1 X1.698 Y2.830 E12.2641
G1 X1.133 Y2.830 E12.2731
G1 X-11.712 Y-10.015 E12.5600
G1 X-11.712 Y-9.449 E12.5690
G1 X0.567 Y2.830 E12.8433
G1 X0.001 Y2.830 E12.8523
G1 X-11.712 Y-8.883 E13.1140
G1 X-11.712 Y-8.318 E13.1229
G1 X-0.564 Y2.830 E13.3720
G1 X-1.130 Y2.830 E13.3809
G1 X-11.712 Y-7.752 E13.6173
G1 X-11.712 Y-7.186 E13.6263
G1 X-1.696 Y2.830 E13.8501
G1 X-2.261 Y2.830 E13.8590
G1 X-11.712 Y-6.621 E14.0701
G1 X-11.712 Y-6.055 E14.0791
G1 X-2.827 Y2.830 E14.2776
G1 X-3.393 Y2.830 E14.2865
G1 X-11.712 Y-5.489 E14.4724
G1 X-11.712 Y-4.924 E14.4813
G1 X-3.958 Y2.830 E14.6546
G1 X-4.524 Y2.830 E14.6635
G1 X-11.712 Y-4.358 E14.8241
G1 X-11.712 Y-3.792 E14.8330
G1 X-5.090 Y2.830 E14.9810
G1 X-5.655 Y2.830 E14.9899
G1 X-11.712 Y-3.227 E15.1252
G1 X-11.712 Y-2.661 E15.1342
G1 X-6.221 Y2.830 E15.2568
G1 X-6.787 Y2.830 E15.2658
G1 X-11.712 Y-2.095 E15.3758
G1 X-11.712 Y-1.530 E15.3848
G1 X-7.353 Y2.830 E15.4822
G1 X-7.918 Y2.830 E15.4911
G1 X-11.712 Y-0.964 E15.5759
G1 X-11.712 Y-0.398 E15.5848
G1 X-8.484 Y2.830 E15.6569
G1 X-9.050 Y2.830 E15.6658
G1 X-11.712 Y0.168 E15.7253
G1 X-11.712 Y0.733 E15.7343
G1 X-9.615 Y2.830 E15.7811
G1 X-10.181 Y2.830 E15.7900
G1 X-11.712 Y1.299 E15.8243
G1 X-11.712 Y1.865 E15.8332
G1 X-10.747 Y2.830 E15.8548
G1 X-11.312 Y2.830 E15.8637
G1 X-11.712 Y2.430 E15.8726
G92 E0
G1 E-8.0000 F3000
; layer 2, Z = 0.200
M106 S255
G4 P500
M106 S153
; inner perimeter
G1 X-12.032 Y3.050 F3200
G1 Z0.430 F1002
G1 E0.0000 F3000
G92 E0
G1 X-12.032 Y-13.881 E0.2675 F3200
G1 X12.032 Y-13.881 E0.6477
G1 X12.032 Y3.050 E0.9151
G1 X-12.032 Y3.050 E1.2953
G1 X-12.432 Y3.450 F3200
G92 E0
G1 X-12.432 Y-14.281 E0.2801 F3200
G1 X12.432 Y-14.281 E0.6729
G1 X12.432 Y3.450 E0.9531
G1 X-12.432 Y3.450 E1.3459
; outer perimeter
G1 X-12.832 Y3.817 F3200
G92 E0
G1 X-12.832 Y-14.648 E0.2917 F3200
G1 X-12.799 Y-14.681 E0.2925
G1 X12.799 Y-14.681 E0.6969
G1 X12.832 Y-14.648 E0.6976
G1 X12.832 Y3.817 E0.9893
G1 X12.799 Y3.850 E0.9901
G1 X-12.799 Y3.850 E1.3945
G1 X-12.832 Y3.817 E1.3952
; solid layer
G1 X-11.812 Y-13.644 F3200
G92 E0
G1 X-11.795 Y-13.661 E0.0004 F3200
G1 X-11.229 Y-13.661 E0.0093
G1 X-11.812 Y-13.078 E0.0223
G1 X-11.812 Y-12.513 E0.0313
G1 X-10.663 Y-13.661 E0.0570
G1 X-10.097 Y-13.661 E0.0659
G1 X-11.812 Y-11.947 E0.1042
G1 X-11.812 Y-11.381 E0.1131
G1 X-9.532 Y-13.661 E0.1641
G1 X-8.966 Y-13.661 E0.1730
G1 X-11.812 Y-10.816 E0.2366
G1 X-11.812 Y-10.250 E0.2455
G1 X-8.400 Y-13.661 E0.3217
G1 X-7.835 Y-13.661 E0.3307
G1 X-11.812 Y-9.684 E0.4195
G1 X-11.812 Y-9.118 E0.4285
G1 X-7.269 Y-13.661 E0.5300
G1 X-6.703 Y-13.661 E0.5389
G1 X-11.812 Y-8.553 E0.6530
G1 X-11.812 Y-7.987 E0.6620
G1 X-6.138 Y-13.661 E0.7888
G1 X-5.572 Y-13.661 E0.7977
G1 X-11.812 Y-7.421 E0.9371
G1 X-11.812 Y-6.856 E0.9460
G1 X-5.006 Y-13.661 E1.0981
G1 X-4.441 Y-13.661 E1.1070
G1 X-11.812 Y-6.290 E1.2717
G1 X-11.812 Y-5.724 E1.2807
G1 X-3.875 Y-13.661 E1.4580
G1 X-3.309 Y-13.661 E1.4669
G1 X-11.812 Y-5.159 E1.6569
G1 X-11.812 Y-4.593 E1.6658
G1 X-2.744 Y-13.661 E1.8685
G1 X-2.178 Y-13.661 E1.8774
G1 X-11.812 Y-4.027 E2.0926
G1 X-11.812 Y-3.462 E2.1016
G1 X-1.612 Y-13.661 E2.3295
G1 X-1.047 Y-13.661 E2.3384
G1 X-11.812 Y-2.896 E2.5789
G1 X-11.812 Y-2.330 E2.5879
G1 X-0.481 Y-13.661 E2.8410
G1 X0.085 Y-13.661 E2.8500
G1 X-11.812 Y-1.765 E3.1158
G1 X-11.812 Y-1.199 E3.1247
G1 X0.651 Y-13.661 E3.4031
G1 X1.216 Y-13.661 E3.4121
G1 X-11.812 Y-0.633 E3.7032
G1 X-11.812 Y-0.068 E3.7121
G1 X1.782 Y-13.661 E4.0158
G1 X2.348 Y-13.661 E4.0247
G1 X-11.812 Y0.498 E4.3411
G1 X-11.812 Y1.064 E4.3500
G1 X2.913 Y-13.661 E4.6790
G1 X3.479 Y-13.661 E4.6880
G1 X-11.812 Y1.630 E5.0296
G1 X-11.812 Y2.195 E5.0386
G1 X4.045 Y-13.661 E5.3928
G1 X4.610 Y-13.661 E5.4018
G1 X-11.812 Y2.761 E5.7687
G1 X-11.812 Y2.830 E5.7698
G1 X-11.315 Y2.830 E5.7776
G1 X5.176 Y-13.661 E6.1461
G1 X5.742 Y-13.661 E6.1550
G1 X-10.749 Y2.830 E6.5235
G1 X-10.184 Y2.830 E6.5324
G1 X6.307 Y-13.661 E6.9008
G1 X6.873 Y-13.661 E6.9098
G1 X-9.618 Y2.830 E7.2782
G1 X-9.052 Y2.830 E7.2872
G1 X7.439 Y-13.661 E7.6556
G1 X8.004 Y-13.661 E7.6646
G1 X-8.487 Y2.830 E8.0330
G1 X-7.921 Y2.830 E8.0420
G1 X8.570 Y-13.661 E8.4104
G1 X9.136 Y-13.661 E8.4193
G1 X-7.355 Y2.830 E8.7878
G1 X-6.790 Y2.830 E8.7967
G1 X9.702 Y-13.661 E9.1652
G1 X10.267 Y-13.661 E9.1741
G1 X-6.224 Y2.830 E9.5426
G1 X-5.658 Y2.830 E9.5515
G1 X10.833 Y-13.661 E9.9200
G1 X11.399 Y-13.661 E9.9289
G1 X-5.093 Y2.830 E10.2974
G1 X-4.527 Y2.830 E10.3063
G1 X11.812 Y-13.509 E10.6713
G1 X11.812 Y-12.943 E10.6803
G1 X-3.961 Y2.830 E11.0327
G1 X-3.395 Y2.830 E11.0416
G1 X11.812 Y-12.377 E11.3814
G1 X11.812 Y-11.812 E11.3903
G1 X-2.830 Y2.830 E11.7175
G1 X-2.264 Y2.830 E11.7264
G1 X11.812 Y-11.246 E12.0409
G1 X11.812 Y-10.680 E12.0498
G1 X-1.698 Y2.830 E12.3517
G1 X-1.133 Y2.830 E12.3606
G1 X11.812 Y-10.115 E12.6498
G1 X11.812 Y-9.549 E12.6588
G1 X-0.567 Y2.830 E12.9353
G1 X-0.001 Y2.830 E12.9443
G1 X11.812 Y-8.983 E13.2082
G1 X11.812 Y-8.418 E13.2172
G1 X0.564 Y2.830 E13.4684
G1 X1.130 Y2.830 E13.4774
G1 X11.812 Y-7.852 E13.7160
G1 X11.812 Y-7.286 E13.7250
G1 X1.696 Y2.830 E13.9510
G1 X2.261 Y2.830 E13.9599
G1 X11.812 Y-6.721 E14.1733
G1 X11.812 Y-6.155 E14.1823
G1 X2.827 Y2.830 E14.3830
G1 X3.393 Y2.830 E14.3919
G1 X11.812 Y-5.589 E14.5800
G1 X11.812 Y-5.024 E14.5890
G1 X3.958 Y2.830 E14.7644
G1 X4.524 Y2.830 E14.7734
