; G-Code generated by Simplify3D(R) Version 4.0.0
; Feb 2, 2018 at 6:40:10 PM
; Settings Summary
;   processName,Process1
;   applyToModels,simbol,simbol_1,simbol_1(2),simbol_1(3),simbol_1(4)
;   profileName,MP Mini Delta23 (modified)
;   profileVersion,2017-10-15 16:31:22
;   baseProfile,Monoprice MP Mini Delta
;   printMaterial,eSun PLA+ - Solid Red
;   printQuality,0.08
;   printExtruders,
;   extruderName,Primary Extruder
;   extruderToolheadNumber,0
;   extruderDiameter,0.4
;   extruderAutoWidth,0
;   extruderWidth,0.4
;   extrusionMultiplier,0.96
;   extruderUseRetract,1
;   extruderRetractionDistance,8
;   extruderExtraRestartDistance,0
;   extruderRetractionZLift,0
;   extruderRetractionSpeed,3000
;   extruderUseCoasting,0
;   extruderCoastingDistance,0.2
;   extruderUseWipe,0
;   extruderWipeDistance,5
;   primaryExtruder,0
;   layerHeight,0.2
;   topSolidLayers,10
;   bottomSolidLayers,3
;   perimeterOutlines,3
;   printPerimetersInsideOut,0
;   startPointOption,2
;   startPointOriginX,0
;   startPointOriginY,0
;   sequentialIslands,0
;   spiralVaseMode,0
;   firstLayerHeightPercentage,100
;   firstLayerWidthPercentage,100
;   firstLayerUnderspeed,0.4
;   useRaft,1
;   raftExtruder,0
;   raftTopLayers,3
;   raftBaseLayers,2
;   raftOffset,2
;   raftSeparationDistance,0.1
;   raftTopInfill,100
;   aboveRaftSpeedMultiplier,0.3
;   useSkirt,0
;   skirtExtruder,0
;   skirtLayers,3
;   skirtOutlines,5
;   skirtOffset,0
;   usePrimePillar,0
;   primePillarExtruder,999
;   primePillarWidth,6
;   primePillarLocation,0
;   primePillarSpeedMultiplier,1
;   useOozeShield,0
;   oozeShieldExtruder,999
;   oozeShieldOffset,2
;   oozeShieldOutlines,1
;   oozeShieldSidewallShape,1
;   oozeShieldSidewallAngle,30
;   oozeShieldSpeedMultiplier,1
;   infillExtruder,0
;   internalInfillPattern,Rectilinear
;   externalInfillPattern,Rectilinear
;   infillPercentage,20
;   outlineOverlapPercentage,45
;   infillExtrusionWidthPercentage,100
;   minInfillLength,5
;   infillLayerInterval,1
;   internalInfillAngles,45,-45
;   overlapInternalInfillAngles,0
;   externalInfillAngles,45,-45
;   generateSupport,1
;   supportExtruder,0
;   supportInfillPercentage,40
;   supportExtraInflation,0.2
;   supportBaseLayers,0
;   denseSupportExtruder,0
;   denseSupportLayers,0
;   denseSupportInfillPercentage,70
;   supportLayerInterval,1
;   supportHorizontalPartOffset,0.2
;   supportUpperSeparationLayers,1
;   supportLowerSeparationLayers,1
;   supportType,0
;   supportGridSpacing,1
;   maxOverhangAngle,45
;   supportAngles,90
;   temperatureName,Primary Extruder,Heated Bed
;   temperatureNumber,0,0
;   temperatureSetpointCount,1,1
;   temperatureSetpointLayers,1,1
;   temperatureSetpointTemperatures,200,30
;   temperatureStabilizeAtStartup,1,1
;   temperatureHeatedBed,0,1
;   temperatureRelayBetweenLayers,0,0
;   temperatureRelayBetweenLoops,0,0
;   fanLayers,1,2,3
;   fanSpeeds,0,60,100
;   blipFanToFullPower,1
;   adjustSpeedForCooling,1
;   minSpeedLayerTime,15
;   minCoolingSpeedSlowdown,20
;   increaseFanForCooling,0
;   minFanLayerTime,45
;   maxCoolingFanSpeed,100
;   increaseFanForBridging,0
;   bridgingFanSpeed,100
;   use5D,1
;   relativeEdistances,0
;   allowEaxisZeroing,1
;   independentExtruderAxes,0
;   includeM10123,0
;   stickySupport,1
;   applyToolheadOffsets,0
;   gcodeXoffset,0
;   gcodeYoffset,0
;   gcodeZoffset,0.3
;   overrideMachineDefinition,1
;   machineTypeOverride,1
;   strokeXoverride,77.8
;   strokeYoverride,77.8
;   strokeZoverride,120
;   originOffsetXoverride,38.9
;   originOffsetYoverride,38.9
;   originOffsetZoverride,0
;   homeXdirOverride,0
;   homeYdirOverride,0
;   homeZdirOverride,-1
;   flipXoverride,1
;   flipYoverride,-1
;   flipZoverride,1
;   toolheadOffsets,0,0|0,0|0,0|0,0|0,0|0,0
;   overrideFirmwareConfiguration,1
;   firmwareTypeOverride,RepRap (Marlin/Repetier/Sprinter)
;   GPXconfigOverride,r2
;   baudRateOverride,115200
;   overridePrinterModels,1
;   printerModelsOverride,MP_Mini_Delta_Platform.stl
;   startingGcode,G90 ; absolute positioning - this line was added in case Cura doesn't include it by default,M82 ; set extruder to absolute mode - this line was added in case Cura doesn't include it by default (may not be needed),M107; start with the fan off (I don't think this is possible),G28 ; Start from home position,G29 C-0.8 Z0.3 ; probe the bed at 3 points with a 0.3mm overall vertical offset and an additional -0.8mm center offset ,G1 Z15.0 F4800  ; move the nozzle up 15mm,G92 E0 ; reset extrusion distance,G1 F200 E3 ; extrude 3mm of feed stock,G92 E0 ; reset extrusion distance again,G1 F4800
;   layerChangeGcode,
;   retractionGcode,
;   toolChangeGcode,
;   endingGcode,M104 S0 ; turn off hotend heater,M140 S0 ; turn off bed heater,G91 ; Switch to use Relative Coordinates,G1 E-3 F700 ; retract the filament a bit before lifting the nozzle to release some of the pressure,G1 Z2 F1000 ; raise platform 2mm from current position,G1 E-2 F700 ; retract filament even more,G90 ; Switch back to using absolute coordinates,G28 X ; Return to home position. Without an X Y or Z after G28 the print completion time will not be displayed on the Mini Delta's display.,M84 ; disable motors,G4 S360 ; pause for 360 seconds to keep fan running to cool hotend and allow the fan to be turned off,M107 ; turn off fan. Some say M107 doesn't work for them but if the hotend is cool enough it should work,;M106 S1 ; turn off fan. Remove the semicolon in front of M106 if M107 doesn't work for you
;   exportFileFormat,gcode
;   celebration,0
;   celebrationSong,Random Song
;   postProcessing,
;   defaultSpeed,2400
;   outlineUnderspeed,1
;   solidInfillUnderspeed,1
;   supportUnderspeed,1
;   rapidXYspeed,2400
;   rapidZspeed,1002
;   minBridgingArea,50
;   bridgingExtraInflation,0
;   bridgingExtrusionMultiplier,0.9
;   bridgingSpeedMultiplier,1
;   useFixedBridgingAngle,0
;   fixedBridgingAngle,0
;   applyBridgingToPerimeters,0
;   filamentDiameters,1.75|1.75|1.75|1.75|1.75|1.75
;   filamentPricesPerKg,48|25|25|25|25|25
;   filamentDensities,1.25|1.25|1.25|1.25|1.25|1.25
;   useMinPrintHeight,0
;   minPrintHeight,42
;   useMaxPrintHeight,0
;   maxPrintHeight,0
;   useDiaphragm,0
;   diaphragmLayerInterval,20
;   robustSlicing,1
;   mergeAllIntoSolid,0
;   onlyRetractWhenCrossingOutline,1
;   retractBetweenLayers,1
;   useRetractionMinTravel,0
;   retractionMinTravel,3
;   retractWhileWiping,1
;   onlyWipeOutlines,1
;   avoidCrossingOutline,0
;   maxMovementDetourFactor,5
;   toolChangeRetractionDistance,12
;   toolChangeExtraRestartDistance,-0.5
;   toolChangeRetractionSpeed,600
;   externalThinWallType,1
;   internalThinWallType,1
;   thinWallAllowedOverlapPercentage,100
;   singleExtrusionMinLength,0.4
;   singleExtrusionMinPrintingWidthPercentage,50
;   singleExtrusionMaxPrintingWidthPercentage,200
;   singleExtrusionEndpointExtension,0.2
;   horizontalSizeCompensation,0
G90
M82
M106 S255
G4 P500
M106 S0
M140 S30
M190 S30
M104 S200 T0
M109 S200 T0
G90 ; absolute positioning - this line was added in case Cura doesn't include it by default
M82 ; set extruder to absolute mode - this line was added in case Cura doesn't include it by default (may not be needed)
M107; start with the fan off (I don't think this is possible)
G28 ; Start from home position
G29 C-0.8 Z0.3 ; probe the bed at 3 points with a 0.3mm overall vertical offset and an additional -0.8mm center offset 
G1 Z15.0 F4800  ; move the nozzle up 15mm
G92 E0 ; reset extrusion distance
G1 F200 E3 ; extrude 3mm of feed stock
G92 E0 ; reset extrusion distance again
G1 F4800
G92 E0
G1 E-8.0000 F3000
G1 Z0.800 F1002
; process Process1
; layer 1, Z = 0.500
T0
; tool H0.500 W0.800
; raft
G1 X-2.048 Y2.586 F2400
G1 E0.0000 F900
G92 E0
G1 X-1.937 Y2.698 E0.0251 F240
G1 X-1.296 Y3.478 E0.1862
G1 X-1.209 Y3.609 E0.2114
G1 X-0.733 Y4.499 E0.3725
G1 X-0.673 Y4.644 E0.3976
G1 X-0.380 Y5.610 E0.5588
G1 X-0.349 Y5.764 E0.5839
G1 X-0.250 Y6.769 E0.7450
G1 X-0.250 Y6.926 E0.7701
G1 X-0.349 Y7.931 E0.9313
G1 X-0.380 Y8.085 E0.9564
G1 X-0.673 Y9.051 E1.1175
G1 X-0.733 Y9.196 E1.1426
G1 X-1.209 Y10.086 E1.3038
G1 X-1.296 Y10.217 E1.3289
G1 X-1.937 Y10.997 E1.4901
G1 X-2.048 Y11.109 E1.5151
G1 X-2.828 Y11.749 E1.6763
G1 X-2.959 Y11.836 E1.7014
G1 X-3.849 Y12.312 E1.8626
G1 X-3.995 Y12.372 E1.8877
G1 X-4.961 Y12.665 E2.0488
G1 X-5.115 Y12.696 E2.0739
G1 X-6.119 Y12.795 E2.2351
G1 X-6.277 Y12.795 E2.2602
G1 X-7.281 Y12.696 E2.4213
G1 X-7.435 Y12.665 E2.4464
G1 X-8.401 Y12.372 E2.6076
G1 X-8.547 Y12.312 E2.6327
G1 X-9.437 Y11.836 E2.7939
G1 X-9.568 Y11.749 E2.8189
G1 X-10.348 Y11.109 E2.9801
G1 X-10.459 Y10.997 E3.0052
G1 X-11.099 Y10.217 E3.1664
G1 X-11.187 Y10.086 E3.1915
G1 X-11.663 Y9.196 E3.3526
G1 X-11.723 Y9.051 E3.3777
G1 X-12.016 Y8.085 E3.5389
G1 X-12.046 Y7.931 E3.5640
G1 X-12.145 Y6.926 E3.7251
G1 X-12.145 Y6.769 E3.7502
G1 X-12.046 Y5.764 E3.9114
G1 X-12.016 Y5.610 E3.9365
G1 X-11.723 Y4.644 E4.0976
G1 X-11.663 Y4.499 E4.1228
G1 X-11.187 Y3.609 E4.2839
G1 X-11.099 Y3.478 E4.3090
G1 X-10.459 Y2.698 E4.4702
G1 X-10.348 Y2.586 E4.4953
G1 X-9.568 Y1.946 E4.6564
G1 X-9.437 Y1.859 E4.6815
G1 X-8.547 Y1.383 E4.8427
G1 X-8.401 Y1.323 E4.8678
G1 X-7.435 Y1.030 E5.0289
G1 X-7.281 Y0.999 E5.0540
G1 X-6.277 Y0.900 E5.2152
G1 X-6.119 Y0.900 E5.2403
G1 X-5.115 Y0.999 E5.4015
G1 X-4.961 Y1.030 E5.4266
G1 X-3.995 Y1.323 E5.5877
G1 X-3.849 Y1.383 E5.6128
G1 X-2.959 Y1.859 E5.7740
G1 X-2.828 Y1.946 E5.7991
G1 X-2.048 Y2.586 E5.9602
G92 E0
G1 E-8.0000 F3000
G1 X-3.849 Y-1.383 F2400
G1 E0.0000 F3000
G92 E0
G1 X-3.995 Y-1.323 E0.0251 F240
G1 X-4.961 Y-1.030 E0.1863
G1 X-5.115 Y-0.999 E0.2114
G1 X-6.119 Y-0.900 E0.3725
G1 X-6.277 Y-0.900 E0.3976
G1 X-7.281 Y-0.999 E0.5588
G1 X-7.435 Y-1.030 E0.5839
G1 X-8.401 Y-1.323 E0.7451
G1 X-8.546 Y-1.383 E0.7701
G1 X-9.437 Y-1.859 E0.9313
G1 X-9.568 Y-1.946 E0.9564
G1 X-10.348 Y-2.586 E1.1176
G1 X-10.459 Y-2.698 E1.1426
G1 X-11.099 Y-3.478 E1.3038
G1 X-11.187 Y-3.609 E1.3289
G1 X-11.663 Y-4.499 E1.4901
G1 X-11.723 Y-4.644 E1.5152
G1 X-12.016 Y-5.610 E1.6763
G1 X-12.046 Y-5.764 E1.7014
G1 X-12.145 Y-6.769 E1.8626
G1 X-12.145 Y-6.926 E1.8877
G1 X-12.046 Y-7.931 E2.0488
G1 X-12.016 Y-8.085 E2.0739
G1 X-11.723 Y-9.051 E2.2351
G1 X-11.663 Y-9.196 E2.2602
G1 X-11.187 Y-10.086 E2.4214
G1 X-11.099 Y-10.217 E2.4464
G1 X-10.459 Y-10.997 E2.6076
G1 X-10.348 Y-11.109 E2.6327
G1 X-9.568 Y-11.749 E2.7939
G1 X-9.437 Y-11.836 E2.8190
G1 X-8.547 Y-12.312 E2.9801
G1 X-8.401 Y-12.372 E3.0052
G1 X-7.435 Y-12.665 E3.1664
G1 X-7.281 Y-12.696 E3.1915
G1 X-6.277 Y-12.795 E3.3526
G1 X-6.119 Y-12.795 E3.3777
G1 X-5.115 Y-12.696 E3.5389
G1 X-4.961 Y-12.665 E3.5640
G1 X-3.995 Y-12.372 E3.7251
G1 X-3.849 Y-12.312 E3.7503
G1 X-2.959 Y-11.836 E3.9114
G1 X-2.828 Y-11.749 E3.9365
G1 X-2.048 Y-11.109 E4.0977
G1 X-1.937 Y-10.997 E4.1228
G1 X-1.296 Y-10.217 E4.2839
G1 X-1.209 Y-10.086 E4.3090
G1 X-0.733 Y-9.196 E4.4702
G1 X-0.673 Y-9.051 E4.4953
G1 X-0.380 Y-8.085 E4.6564
G1 X-0.349 Y-7.931 E4.6815
G1 X-0.250 Y-6.926 E4.8427
G1 X-0.250 Y-6.769 E4.8678
G1 X-0.349 Y-5.764 E5.0289
G1 X-0.380 Y-5.610 E5.0540
G1 X-0.673 Y-4.644 E5.2152
G1 X-0.733 Y-4.499 E5.2403
G1 X-1.209 Y-3.609 E5.4015
G1 X-1.296 Y-3.478 E5.4266
G1 X-1.937 Y-2.698 E5.5877
G1 X-2.048 Y-2.586 E5.6128
G1 X-2.828 Y-1.946 E5.7740
G1 X-2.959 Y-1.859 E5.7991
G1 X-3.849 Y-1.383 E5.9602
G92 E0
G1 E-8.0000 F3000
G1 X2.265 Y-10.054 F2400
G1 E0.0000 F3000
G92 E0
G1 X1.328 Y-10.991 E0.2116 F240
G1 X1.328 Y-16.156 E1.0363
G1 X2.328 Y-17.156 E1.2620
G1 X2.328 Y-22.156 E2.0603
G1 X3.328 Y-23.156 E2.2861
G1 X3.328 Y-24.156 E2.4457
G1 X4.265 Y-25.094 E2.6573
G1 X5.566 Y-25.094 E2.8651
G1 X6.299 Y-25.663 E3.0132
G1 X7.396 Y-25.663 E3.1885
G1 X8.129 Y-25.094 E3.3366
G1 X9.430 Y-25.094 E3.5444
G1 X10.368 Y-24.156 E3.7560
G1 X10.368 Y-23.156 E3.9156
G1 X11.368 Y-22.156 E4.1414
G1 X11.368 Y-17.156 E4.9397
G1 X12.368 Y-16.156 E5.1654
G1 X12.368 Y-10.991 E5.9901
G1 X11.430 Y-10.054 E6.2017
G1 X8.265 Y-10.054 E6.7071
G1 X7.265 Y-11.054 E6.9329
G1 X6.430 Y-11.054 E7.0661
G1 X5.430 Y-10.054 E7.2919
G1 X2.265 Y-10.054 E7.7972
G92 E0
G1 E-8.0000 F3000
G1 X-2.828 Y-15.641 F2400
G1 E0.0000 F3000
G92 E0
G1 X-2.959 Y-15.554 E0.0251 F240
G1 X-3.849 Y-15.078 E0.1863
G1 X-3.995 Y-15.018 E0.2114
G1 X-4.961 Y-14.725 E0.3725
G1 X-5.115 Y-14.694 E0.3976
G1 X-6.119 Y-14.595 E0.5588
G1 X-6.277 Y-14.595 E0.5839
G1 X-7.281 Y-14.694 E0.7450
G1 X-7.435 Y-14.725 E0.7701
G1 X-8.401 Y-15.018 E0.9313
G1 X-8.547 Y-15.078 E0.9564
G1 X-9.437 Y-15.554 E1.1175
G1 X-9.568 Y-15.641 E1.1427
G1 X-10.348 Y-16.281 E1.3038
G1 X-10.459 Y-16.393 E1.3289
G1 X-11.099 Y-17.173 E1.4901
G1 X-11.187 Y-17.304 E1.5152
G1 X-11.663 Y-18.194 E1.6763
G1 X-11.723 Y-18.339 E1.7014
G1 X-12.016 Y-19.305 E1.8626
G1 X-12.046 Y-19.459 E1.8877
G1 X-12.145 Y-20.464 E2.0488
G1 X-12.145 Y-20.621 E2.0739
G1 X-12.046 Y-21.626 E2.2351
G1 X-12.016 Y-21.780 E2.2602
G1 X-11.723 Y-22.746 E2.4214
G1 X-11.663 Y-22.891 E2.4465
G1 X-11.187 Y-23.781 E2.6076
G1 X-11.099 Y-23.912 E2.6327
G1 X-10.459 Y-24.692 E2.7939
G1 X-10.348 Y-24.804 E2.8190
G1 X-9.568 Y-25.444 E2.9801
G1 X-9.437 Y-25.531 E3.0052
G1 X-8.547 Y-26.007 E3.1664
G1 X-8.401 Y-26.067 E3.1915
G1 X-7.435 Y-26.360 E3.3526
G1 X-7.281 Y-26.391 E3.3777
G1 X-6.277 Y-26.490 E3.5389
G1 X-6.119 Y-26.490 E3.5640
G1 X-5.115 Y-26.391 E3.7251
G1 X-4.960 Y-26.360 E3.7503
G1 X-3.995 Y-26.067 E3.9114
G1 X-3.849 Y-26.007 E3.9365
G1 X-2.959 Y-25.531 E4.0977
G1 X-2.828 Y-25.444 E4.1228
G1 X-2.048 Y-24.804 E4.2839
G1 X-1.937 Y-24.692 E4.3090
G1 X-1.296 Y-23.912 E4.4702
G1 X-1.209 Y-23.781 E4.4953
G1 X-0.733 Y-22.891 E4.6564
G1 X-0.673 Y-22.746 E4.6815
G1 X-0.380 Y-21.780 E4.8427
G1 X-0.349 Y-21.626 E4.8678
G1 X-0.250 Y-20.621 E5.0289
G1 X-0.250 Y-20.464 E5.0541
G1 X-0.349 Y-19.459 E5.2152
G1 X-0.380 Y-19.305 E5.2403
G1 X-0.673 Y-18.339 E5.4015
G1 X-0.733 Y-18.194 E5.4266
G1 X-1.209 Y-17.304 E5.5877
G1 X-1.296 Y-17.173 E5.6128
G1 X-1.937 Y-16.393 E5.7740
G1 X-2.048 Y-16.281 E5.7991
G1 X-2.828 Y-15.641 E5.9602
G92 E0
G1 E-8.0000 F3000
G1 X-6.119 Y14.595 F2400
G1 E0.0000 F3000
G92 E0
G1 X-5.115 Y14.694 E0.1612 F240
G1 X-4.961 Y14.725 E0.1863
G1 X-3.995 Y15.018 E0.3474
G1 X-3.849 Y15.078 E0.3725
G1 X-2.959 Y15.554 E0.5337
G1 X-2.828 Y15.641 E0.5588
G1 X-2.048 Y16.281 E0.7199
G1 X-1.937 Y16.393 E0.7450
G1 X-1.296 Y17.173 E0.9062
G1 X-1.209 Y17.304 E0.9313
G1 X-0.733 Y18.194 E1.0924
G1 X-0.673 Y18.339 E1.1175
G1 X-0.380 Y19.305 E1.2787
G1 X-0.349 Y19.459 E1.3038
G1 X-0.250 Y20.464 E1.4649
G1 X-0.250 Y20.621 E1.4901
G1 X-0.349 Y21.626 E1.6512
G1 X-0.380 Y21.780 E1.6763
G1 X-0.673 Y22.746 E1.8375
G1 X-0.733 Y22.891 E1.8626
G1 X-1.209 Y23.781 E2.0237
G1 X-1.296 Y23.912 E2.0488
G1 X-1.937 Y24.692 E2.2100
G1 X-2.048 Y24.804 E2.2351
G1 X-2.828 Y25.444 E2.3962
G1 X-2.959 Y25.531 E2.4213
G1 X-3.849 Y26.007 E2.5825
G1 X-3.995 Y26.067 E2.6076
G1 X-4.961 Y26.360 E2.7688
G1 X-5.115 Y26.391 E2.7939
G1 X-6.119 Y26.490 E2.9550
G1 X-6.277 Y26.490 E2.9801
G1 X-7.281 Y26.391 E3.1413
G1 X-7.435 Y26.360 E3.1664
G1 X-8.401 Y26.067 E3.3275
G1 X-8.547 Y26.007 E3.3526
G1 X-9.437 Y25.531 E3.5138
G1 X-9.568 Y25.444 E3.5389
G1 X-10.348 Y24.804 E3.7000
G1 X-10.459 Y24.692 E3.7251
G1 X-11.099 Y23.912 E3.8863
G1 X-11.187 Y23.781 E3.9114
G1 X-11.663 Y22.891 E4.0725
G1 X-11.723 Y22.746 E4.0977
G1 X-12.016 Y21.780 E4.2588
G1 X-12.046 Y21.626 E4.2839
G1 X-12.145 Y20.621 E4.4451
G1 X-12.145 Y20.464 E4.4702
G1 X-12.046 Y19.459 E4.6313
G1 X-12.016 Y19.305 E4.6564
G1 X-11.723 Y18.339 E4.8176
G1 X-11.663 Y18.194 E4.8427
G1 X-11.187 Y17.304 E5.0038
G1 X-11.099 Y17.173 E5.0289
G1 X-10.459 Y16.392 E5.1901
G1 X-10.348 Y16.281 E5.2152
G1 X-9.568 Y15.641 E5.3764
G1 X-9.437 Y15.554 E5.4015
G1 X-8.547 Y15.078 E5.5626
G1 X-8.401 Y15.018 E5.5877
G1 X-7.435 Y14.725 E5.7489
G1 X-7.281 Y14.694 E5.7740
G1 X-6.277 Y14.595 E5.9351
G1 X-6.119 Y14.595 E5.9602
G92 E0
G1 E-8.0000 F3000
G1 X-8.575 Y16.000 F2400
G1 E0.0000 F3000
G92 E0
G1 X-3.821 Y16.000 E0.7589 F240
G1 X-3.371 Y16.241 E0.8404
G1 X-3.306 Y16.284 E0.8530
G1 X-2.586 Y16.875 E1.0016
G1 X-2.530 Y16.930 E1.0141
G1 X-1.940 Y17.650 E1.1627
G1 X-1.896 Y17.715 E1.1753
