; G-Code generated by Simplify3D(R) Version 4.0.0
; Jan 19, 2018 at 3:39:32 AM
; Settings Summary
;   processName,Process1
;   applyToModels,underguard
;   profileName,MP Mini Delta23 (modified)
;   profileVersion,2017-10-15 16:31:22
;   baseProfile,Monoprice MP Mini Delta
;   printMaterial,eSun PLA+ - Solid Red
;   printQuality,0.08
;   printExtruders,
;   extruderName,Primary Extruder
;   extruderToolheadNumber,0
;   extruderDiameter,0.4
;   extruderAutoWidth,0
;   extruderWidth,0.4
;   extrusionMultiplier,0.95
;   extruderUseRetract,1
;   extruderRetractionDistance,8
;   extruderExtraRestartDistance,0
;   extruderRetractionZLift,0
;   extruderRetractionSpeed,3000
;   extruderUseCoasting,0
;   extruderCoastingDistance,0.2
;   extruderUseWipe,0
;   extruderWipeDistance,5
;   primaryExtruder,0
;   layerHeight,0.1
;   topSolidLayers,6
;   bottomSolidLayers,3
;   perimeterOutlines,3
;   printPerimetersInsideOut,1
;   startPointOption,2
;   startPointOriginX,0
;   startPointOriginY,0
;   sequentialIslands,0
;   spiralVaseMode,0
;   firstLayerHeightPercentage,100
;   firstLayerWidthPercentage,100
;   firstLayerUnderspeed,0.4
;   useRaft,0
;   raftExtruder,0
;   raftTopLayers,3
;   raftBaseLayers,2
;   raftOffset,5
;   raftSeparationDistance,0.14
;   raftTopInfill,100
;   aboveRaftSpeedMultiplier,0.3
;   useSkirt,0
;   skirtExtruder,0
;   skirtLayers,1
;   skirtOutlines,5
;   skirtOffset,0
;   usePrimePillar,0
;   primePillarExtruder,999
;   primePillarWidth,6
;   primePillarLocation,0
;   primePillarSpeedMultiplier,1
;   useOozeShield,0
;   oozeShieldExtruder,999
;   oozeShieldOffset,2
;   oozeShieldOutlines,1
;   oozeShieldSidewallShape,1
;   oozeShieldSidewallAngle,30
;   oozeShieldSpeedMultiplier,1
;   infillExtruder,0
;   internalInfillPattern,Fast Honeycomb
;   externalInfillPattern,Rectilinear
;   infillPercentage,20
;   outlineOverlapPercentage,45
;   infillExtrusionWidthPercentage,100
;   minInfillLength,5
;   infillLayerInterval,1
;   internalInfillAngles,0
;   overlapInternalInfillAngles,0
;   externalInfillAngles,45,-45
;   generateSupport,1
;   supportExtruder,0
;   supportInfillPercentage,40
;   supportExtraInflation,0
;   supportBaseLayers,0
;   denseSupportExtruder,0
;   denseSupportLayers,0
;   denseSupportInfillPercentage,70
;   supportLayerInterval,3
;   supportHorizontalPartOffset,0.3
;   supportUpperSeparationLayers,1
;   supportLowerSeparationLayers,1
;   supportType,0
;   supportGridSpacing,1
;   maxOverhangAngle,45
;   supportAngles,0
;   temperatureName,Primary Extruder,Heated Bed
;   temperatureNumber,0,0
;   temperatureSetpointCount,3,1
;   temperatureSetpointLayers,1,3,5,1
;   temperatureSetpointTemperatures,195,192,189,30
;   temperatureStabilizeAtStartup,1,1
;   temperatureHeatedBed,0,1
;   temperatureRelayBetweenLayers,0,0
;   temperatureRelayBetweenLoops,0,0
;   fanLayers,1,2,3
;   fanSpeeds,0,60,100
;   blipFanToFullPower,1
;   adjustSpeedForCooling,1
;   minSpeedLayerTime,15
;   minCoolingSpeedSlowdown,20
;   increaseFanForCooling,0
;   minFanLayerTime,45
;   maxCoolingFanSpeed,100
;   increaseFanForBridging,0
;   bridgingFanSpeed,100
;   use5D,1
;   relativeEdistances,0
;   allowEaxisZeroing,1
;   independentExtruderAxes,0
;   includeM10123,0
;   stickySupport,1
;   applyToolheadOffsets,0
;   gcodeXoffset,0
;   gcodeYoffset,0
;   gcodeZoffset,0.23
;   overrideMachineDefinition,1
;   machineTypeOverride,1
;   strokeXoverride,77.8
;   strokeYoverride,77.8
;   strokeZoverride,120
;   originOffsetXoverride,38.9
;   originOffsetYoverride,38.9
;   originOffsetZoverride,0
;   homeXdirOverride,0
;   homeYdirOverride,0
;   homeZdirOverride,-1
;   flipXoverride,1
;   flipYoverride,-1
;   flipZoverride,1
;   toolheadOffsets,0,0|0,0|0,0|0,0|0,0|0,0
;   overrideFirmwareConfiguration,1
;   firmwareTypeOverride,RepRap (Marlin/Repetier/Sprinter)
;   GPXconfigOverride,r2
;   baudRateOverride,115200
;   overridePrinterModels,1
;   printerModelsOverride,MP_Mini_Delta_Platform.stl
;   startingGcode,G90 ; absolute positioning - this line was added in case Cura doesn't include it by default,M82 ; set extruder to absolute mode - this line was added in case Cura doesn't include it by default (may not be needed),M107; start with the fan off (I don't think this is possible),G28 ; Start from home position,G29 C-0.8 Z0.3 ; probe the bed at 3 points with a 0.3mm overall vertical offset and an additional -0.8mm center offset ,G1 Z15.0 F4800  ; move the nozzle up 15mm,G92 E0 ; reset extrusion distance,G1 F200 E3 ; extrude 3mm of feed stock,G92 E0 ; reset extrusion distance again,G1 F4800
;   layerChangeGcode,
;   retractionGcode,
;   toolChangeGcode,
;   endingGcode,M104 S0 ; turn off hotend heater,M140 S0 ; turn off bed heater,G91 ; Switch to use Relative Coordinates,G1 E-3 F700 ; retract the filament a bit before lifting the nozzle to release some of the pressure,G1 Z2 F1000 ; raise platform 2mm from current position,G1 E-2 F700 ; retract filament even more,G90 ; Switch back to using absolute coordinates,G28 X ; Return to home position. Without an X Y or Z after G28 the print completion time will not be displayed on the Mini Delta's display.,M84 ; disable motors,G4 S360 ; pause for 360 seconds to keep fan running to cool hotend and allow the fan to be turned off,M107 ; turn off fan. Some say M107 doesn't work for them but if the hotend is cool enough it should work,;M106 S1 ; turn off fan. Remove the semicolon in front of M106 if M107 doesn't work for you
;   exportFileFormat,gcode
;   celebration,0
;   celebrationSong,Random Song
;   postProcessing,
;   defaultSpeed,3200
;   outlineUnderspeed,1
;   solidInfillUnderspeed,1
;   supportUnderspeed,1
;   rapidXYspeed,3200
;   rapidZspeed,1002
;   minBridgingArea,50
;   bridgingExtraInflation,0
;   bridgingExtrusionMultiplier,1
;   bridgingSpeedMultiplier,1
;   useFixedBridgingAngle,0
;   fixedBridgingAngle,0
;   applyBridgingToPerimeters,0
;   filamentDiameters,1.75|1.75|1.75|1.75|1.75|1.75
;   filamentPricesPerKg,48|25|25|25|25|25
;   filamentDensities,1.25|1.25|1.25|1.25|1.25|1.25
;   useMinPrintHeight,0
;   minPrintHeight,42
;   useMaxPrintHeight,0
;   maxPrintHeight,0
;   useDiaphragm,0
;   diaphragmLayerInterval,20
;   robustSlicing,1
;   mergeAllIntoSolid,0
;   onlyRetractWhenCrossingOutline,1
;   retractBetweenLayers,1
;   useRetractionMinTravel,0
;   retractionMinTravel,3
;   retractWhileWiping,1
;   onlyWipeOutlines,1
;   avoidCrossingOutline,0
;   maxMovementDetourFactor,3
;   toolChangeRetractionDistance,12
;   toolChangeExtraRestartDistance,-0.5
;   toolChangeRetractionSpeed,600
;   externalThinWallType,1
;   internalThinWallType,1
;   thinWallAllowedOverlapPercentage,100
;   singleExtrusionMinLength,0.4
;   singleExtrusionMinPrintingWidthPercentage,50
;   singleExtrusionMaxPrintingWidthPercentage,200
;   singleExtrusionEndpointExtension,0.2
;   horizontalSizeCompensation,0
G90
M82
M106 S255
G4 P500
M106 S0
M140 S30
M190 S30
M104 S195 T0
M109 S195 T0
G90 ; absolute positioning - this line was added in case Cura doesn't include it by default
M82 ; set extruder to absolute mode - this line was added in case Cura doesn't include it by default (may not be needed)
M107; start with the fan off (I don't think this is possible)
G28 ; Start from home position
G29 C-0.8 Z0.3 ; probe the bed at 3 points with a 0.3mm overall vertical offset and an additional -0.8mm center offset 
G1 Z15.0 F4800  ; move the nozzle up 15mm
G92 E0 ; reset extrusion distance
G1 F200 E3 ; extrude 3mm of feed stock
G92 E0 ; reset extrusion distance again
G1 F4800
G92 E0
G1 E-8.0000 F3000
G1 Z0.330 F1002
; process Process1
; layer 1, Z = 0.100
T0
; tool H0.100 W0.400
; inner perimeter
G1 X24.182 Y2.038 F3200
G1 E0.0000 F900
G92 E0
G1 X25.314 Y2.038 E0.0179 F1280
G1 X25.314 Y-4.700 E0.1243
G1 X24.182 Y-4.700 E0.1422
G1 X24.182 Y-7.399 E0.1849
G1 X29.384 Y-7.399 E0.2670
G1 X29.384 Y-4.700 E0.3097
G1 X28.252 Y-4.700 E0.3276
G1 X28.252 Y2.038 E0.4340
G1 X29.384 Y2.038 E0.4519
G1 X29.384 Y3.745 E0.4789
G1 X24.182 Y3.745 E0.5610
G1 X24.182 Y2.038 E0.5880
G1 X23.782 Y1.638 F3200
G92 E0
G1 X24.914 Y1.638 E0.0179 F1280
G1 X24.914 Y-4.300 E0.1117
G1 X23.782 Y-4.300 E0.1296
G1 X23.782 Y-7.799 E0.1849
G1 X29.784 Y-7.799 E0.2797
G1 X29.784 Y-4.300 E0.3350
G1 X28.652 Y-4.300 E0.3528
G1 X28.652 Y1.638 E0.4466
G1 X29.784 Y1.638 E0.4645
G1 X29.784 Y4.145 E0.5041
G1 X23.782 Y4.145 E0.5990
G1 X23.782 Y1.638 E0.6386
; outer perimeter
G1 X23.382 Y1.238 F3200
G92 E0
G1 X24.514 Y1.238 E0.0179 F1280
G1 X24.514 Y-3.900 E0.0991
G1 X23.382 Y-3.900 E0.1169
G1 X23.382 Y-8.199 E0.1849
G1 X30.184 Y-8.199 E0.2923
G1 X30.184 Y-3.900 E0.3602
G1 X29.052 Y-3.900 E0.3781
G1 X29.052 Y1.238 E0.4593
G1 X30.184 Y1.238 E0.4772
G1 X30.184 Y4.545 E0.5294
G1 X23.382 Y4.545 E0.6369
G1 X23.382 Y1.238 E0.6891
; solid layer
G1 X24.402 Y3.368 F3200
G92 E0
G1 X24.559 Y3.525 E0.0035 F1280
G1 X25.125 Y3.525 E0.0124
G1 X24.402 Y2.802 E0.0286
G1 X24.402 Y2.258 E0.0372
G1 X24.423 Y2.258 E0.0375
G1 X25.690 Y3.525 E0.0658
G1 X26.256 Y3.525 E0.0748
G1 X24.989 Y2.258 E0.1031
G1 X25.534 Y2.258 E0.1117
G1 X25.534 Y2.237 E0.1120
G1 X26.822 Y3.525 E0.1408
G1 X27.387 Y3.525 E0.1497
G1 X25.534 Y1.671 E0.1911
G1 X25.534 Y1.106 E0.2001
G1 X27.953 Y3.525 E0.2541
G1 X28.519 Y3.525 E0.2631
G1 X25.534 Y0.540 E0.3298
G1 X25.534 Y-0.026 E0.3387
G1 X29.084 Y3.525 E0.4180
G1 X29.164 Y3.525 E0.4193
G1 X29.164 Y3.039 E0.4270
G1 X28.383 Y2.258 E0.4444
G1 X28.032 Y2.258 E0.4499
G1 X28.032 Y1.907 E0.4555
G1 X25.534 Y-0.591 E0.5113
G1 X25.534 Y-1.157 E0.5202
G1 X28.032 Y1.341 E0.5761
G1 X28.032 Y0.775 E0.5850
G1 X25.534 Y-1.723 E0.6408
G1 X25.534 Y-2.288 E0.6497
G1 X28.032 Y0.210 E0.7056
G1 X28.032 Y-0.356 E0.7145
G1 X25.534 Y-2.854 E0.7703
G1 X25.534 Y-3.420 E0.7792
G1 X28.032 Y-0.922 E0.8351
G1 X28.032 Y-1.487 E0.8440
G1 X25.534 Y-3.985 E0.8998
G1 X24.600 Y-4.920 F3200
G92 E0
G1 X24.402 Y-5.117 E0.0044 F1280
G1 X24.402 Y-5.683 E0.0134
G1 X25.165 Y-4.920 E0.0304
G1 X25.534 Y-4.920 E0.0362
G1 X25.534 Y-4.551 E0.0421
G1 X28.032 Y-2.053 E0.0979
G1 X28.032 Y-2.619 E0.1068
G1 X24.402 Y-6.249 E0.1879
G1 X24.402 Y-6.815 E0.1969
G1 X28.032 Y-3.184 E0.2780
G1 X28.032 Y-3.750 E0.2869
G1 X24.604 Y-7.179 E0.3635
G1 X25.169 Y-7.179 E0.3724
G1 X28.032 Y-4.316 E0.4364
G1 X28.032 Y-4.881 E0.4453
G1 X25.735 Y-7.179 E0.4967
G1 X26.301 Y-7.179 E0.5056
G1 X28.559 Y-4.920 E0.5561
G1 X29.125 Y-4.920 E0.5650
G1 X26.866 Y-7.179 E0.6155
G1 X27.432 Y-7.179 E0.6244
G1 X29.164 Y-5.446 E0.6631
G1 X29.164 Y-6.012 E0.6720
G1 X27.998 Y-7.179 E0.6981
G1 X28.563 Y-7.179 E0.7070
G1 X29.164 Y-6.578 E0.7204
G1 X29.164 Y-7.144 E0.7294
G1 X29.129 Y-7.179 E0.7302
G1 X28.949 Y2.258 F3200
G92 E0
G1 X29.164 Y2.473 E0.0048 F1280
G92 E0
G1 E-8.0000 F3000
; inner perimeter
G1 X3.995 Y25.233 F3200
G1 E0.0000 F3000
G92 E0
G1 X3.981 Y47.121 E0.3458 F1280
G1 X-6.445 Y47.121 E0.5105
G1 X-6.458 Y25.233 E0.8563
G1 X-6.458 Y-49.804 E2.0418
G1 X3.995 Y-49.804 E2.2069
G1 X3.995 Y25.233 E3.3924
G1 X4.395 Y25.233 F3200
G92 E0
G1 X4.381 Y47.521 E0.3521 F1280
G1 X-6.844 Y47.521 E0.5295
G1 X-6.858 Y25.233 E0.8816
G1 X-6.858 Y-50.204 E2.0734
G1 X4.395 Y-50.204 E2.2512
G1 X4.395 Y25.233 E3.4429
; outer perimeter
G1 X4.795 Y25.233 F3200
G92 E0
G1 X4.780 Y47.921 E0.3584 F1280
G1 X-7.244 Y47.921 E0.5484
G1 X-7.258 Y25.233 E0.9068
G1 X-7.258 Y-50.604 E2.1050
G1 X4.795 Y-50.604 E2.2954
G1 X4.795 Y25.233 E3.4935
; solid layer
G1 X-6.170 Y46.901 F3200
G92 E0
G1 X-6.225 Y46.846 E0.0012 F1280
G1 X-6.225 Y46.280 E0.0102
G1 X-5.604 Y46.901 E0.0240
G1 X-5.038 Y46.901 E0.0330
G1 X-6.225 Y45.714 E0.0595
G1 X-6.226 Y45.148 E0.0685
G1 X-4.473 Y46.901 E0.1076
G1 X-3.907 Y46.901 E0.1166
G1 X-6.226 Y44.582 E0.1684
G1 X-6.227 Y44.016 E0.1773
G1 X-3.341 Y46.901 E0.2418
G1 X-2.776 Y46.901 E0.2507
G1 X-6.227 Y43.450 E0.3278
G1 X-6.227 Y42.884 E0.3368
G1 X-2.210 Y46.901 E0.4265
G1 X-1.644 Y46.901 E0.4355
G1 X-6.228 Y42.318 E0.5379
G1 X-6.228 Y41.752 E0.5468
G1 X-1.079 Y46.901 E0.6619
G1 X-0.513 Y46.901 E0.6708
G1 X-6.228 Y41.186 E0.7985
G1 X-6.229 Y40.620 E0.8075
G1 X0.053 Y46.901 E0.9478
G1 X0.619 Y46.901 E0.9567
G1 X-6.229 Y40.053 E1.1097
G1 X-6.229 Y39.487 E1.1187
G1 X1.184 Y46.901 E1.2843
G1 X1.750 Y46.901 E1.2932
G1 X-6.230 Y38.921 E1.4715
G1 X-6.230 Y38.355 E1.4805
G1 X2.316 Y46.901 E1.6714
G1 X2.881 Y46.901 E1.6803
G1 X-6.230 Y37.789 E1.8839
G1 X-6.231 Y37.223 E1.8929
G1 X3.447 Y46.901 E2.1091
G1 X3.761 Y46.901 E2.1141
G1 X3.761 Y46.650 E2.1180
G1 X-6.231 Y36.657 E2.3413
G1 X-6.232 Y36.091 E2.3502
G1 X3.762 Y46.084 E2.5735
G1 X3.762 Y45.519 E2.5824
G1 X-6.232 Y35.525 E2.8057
G1 X-6.232 Y34.959 E2.8147
G1 X3.762 Y44.954 E3.0380
G1 X3.763 Y44.388 E3.0469
G1 X-6.233 Y34.393 E3.2702
G1 X-6.233 Y33.827 E3.2792
G1 X3.763 Y43.823 E3.5025
G1 X3.763 Y43.258 E3.5114
G1 X-6.233 Y33.261 E3.7348
G1 X-6.234 Y32.695 E3.7437
G1 X3.764 Y42.692 E3.9671
G1 X3.764 Y42.127 E3.9760
G1 X-6.234 Y32.129 E4.1994
G1 X-6.234 Y31.563 E4.2084
G1 X3.765 Y41.562 E4.4318
G1 X3.765 Y40.996 E4.4407
G1 X-6.235 Y30.997 E4.6641
G1 X-6.235 Y30.431 E4.6731
G1 X3.765 Y40.431 E4.8965
G1 X3.766 Y39.866 E4.9054
G1 X-6.236 Y29.865 E5.1289
G1 X-6.236 Y29.299 E5.1378
G1 X3.766 Y39.300 E5.3613
G1 X3.766 Y38.735 E5.3702
G1 X-6.236 Y28.733 E5.5937
G1 X-6.237 Y28.167 E5.6027
G1 X3.767 Y38.170 E5.8261
G1 X3.767 Y37.604 E5.8351
G1 X-6.237 Y27.600 E6.0586
G1 X-6.237 Y27.034 E6.0675
G1 X3.767 Y37.039 E6.2911
G1 X3.768 Y36.474 E6.3000
G1 X-6.238 Y26.468 E6.5235
G1 X-6.238 Y25.902 E6.5325
G1 X3.768 Y35.909 E6.7561
G1 X3.768 Y35.343 E6.7650
G1 X-6.238 Y25.336 E6.9886
G1 X-6.238 Y25.233 E6.9902
G1 X-6.238 Y24.771 E6.9975
G1 X3.769 Y34.778 E7.2211
G1 X3.769 Y34.213 E7.2300
G1 X-6.238 Y24.205 E7.4536
G1 X-6.238 Y23.639 E7.4626
G1 X3.770 Y33.647 E7.6862
G1 X3.770 Y33.082 E7.6951
G1 X-6.238 Y23.073 E7.9187
G1 X-6.238 Y22.508 E7.9276
G1 X3.770 Y32.517 E8.1513
G1 X3.771 Y31.951 E8.1602
G1 X-6.238 Y21.942 E8.3838
G1 X-6.238 Y21.376 E8.3928
G1 X3.771 Y31.386 E8.6164
G1 X3.771 Y30.821 E8.6253
G1 X-6.238 Y20.811 E8.8490
G1 X-6.238 Y20.245 E8.8579
G1 X3.772 Y30.255 E9.0816
G1 X3.772 Y29.690 E9.0905
G1 X-6.238 Y19.679 E9.3142
G1 X-6.238 Y19.114 E9.3231
G1 X3.772 Y29.125 E9.5468
G1 X3.773 Y28.559 E9.5557
G1 X-6.238 Y18.548 E9.7794
G1 X-6.238 Y17.982 E9.7883
G1 X3.773 Y27.994 E10.0120
G1 X3.774 Y27.429 E10.0209
G1 X-6.238 Y17.417 E10.2446
G1 X-6.238 Y16.851 E10.2535
G1 X3.774 Y26.863 E10.4772
G1 X3.774 Y26.298 E10.4862
G1 X-6.238 Y16.285 E10.7099
G1 X-6.238 Y15.720 E10.7188
G1 X3.775 Y25.733 E10.9425
G1 X3.775 Y25.233 E10.9504
G1 X3.775 Y25.167 E10.9515
G1 X-6.238 Y15.154 E11.1752
G1 X-6.238 Y14.588 E11.1841
G1 X3.775 Y24.602 E11.4079
G1 X3.775 Y24.036 E11.4168
G1 X-6.238 Y14.023 E11.6405
G1 X-6.238 Y13.457 E11.6495
G1 X3.775 Y23.470 E11.8732
G1 X3.775 Y22.905 E11.8821
G1 X-6.238 Y12.891 E12.1058
G1 X-6.238 Y12.325 E12.1148
G1 X3.775 Y22.339 E12.3385
G1 X3.775 Y21.773 E12.3474
G1 X-6.238 Y11.760 E12.5712
G1 X-6.238 Y11.194 E12.5801
G1 X3.775 Y21.207 E12.8038
G1 X3.775 Y20.642 E12.8128
G1 X-6.238 Y10.628 E13.0365
G1 X-6.238 Y10.063 E13.0454
G1 X3.775 Y20.076 E13.2691
G1 X3.775 Y19.510 E13.2781
G1 X-6.238 Y9.497 E13.5018
G1 X-6.238 Y8.931 E13.5107
G1 X3.775 Y18.945 E13.7345
G1 X3.775 Y18.379 E13.7434
G1 X-6.238 Y8.366 E13.9671
G1 X-6.238 Y7.800 E13.9761
G1 X3.775 Y17.813 E14.1998
G1 X3.775 Y17.248 E14.2087
G1 X-6.238 Y7.234 E14.4324
G1 X-6.238 Y6.669 E14.4414
G1 X3.775 Y16.682 E14.6651
G1 X3.775 Y16.116 E14.6740
G1 X-6.238 Y6.103 E14.8978
G1 X-6.238 Y5.537 E14.9067
G1 X3.775 Y15.551 E15.1304
G1 X3.775 Y14.985 E15.1394
G1 X-6.238 Y4.972 E15.3631
G1 X-6.238 Y4.406 E15.3720
G1 X3.775 Y14.419 E15.5958
G1 X3.775 Y13.854 E15.6047
G1 X-6.238 Y3.840 E15.8284
G1 X-6.238 Y3.275 E15.8373
G1 X3.775 Y13.288 E16.0611
G1 X3.775 Y12.722 E16.0700
G1 X-6.238 Y2.709 E16.2937
G1 X-6.238 Y2.143 E16.3027
G1 X3.775 Y12.156 E16.5264
G1 X3.775 Y11.591 E16.5353
G1 X-6.238 Y1.577 E16.7591
G1 X-6.238 Y1.012 E16.7680
G1 X3.775 Y11.025 E16.9917
G1 X3.775 Y10.459 E17.0007
G1 X-6.238 Y0.446 E17.2244
G1 X-6.238 Y-0.120 E17.2333
G1 X3.775 Y9.894 E17.4570
G1 X3.775 Y9.328 E17.4660
G1 X-6.238 Y-0.685 E17.6897
