; G-Code generated by Simplify3D(R) Version 4.0.0
; Jan 19, 2018 at 3:46:22 AM
; Settings Summary
;   processName,Process1
;   applyToModels,upperguard
;   profileName,MP Mini Delta23 (modified)
;   profileVersion,2017-10-15 16:31:22
;   baseProfile,Monoprice MP Mini Delta
;   printMaterial,eSun PLA+ - Solid Red
;   printQuality,0.08
;   printExtruders,
;   extruderName,Primary Extruder
;   extruderToolheadNumber,0
;   extruderDiameter,0.4
;   extruderAutoWidth,0
;   extruderWidth,0.4
;   extrusionMultiplier,0.95
;   extruderUseRetract,1
;   extruderRetractionDistance,8
;   extruderExtraRestartDistance,0
;   extruderRetractionZLift,0
;   extruderRetractionSpeed,3000
;   extruderUseCoasting,0
;   extruderCoastingDistance,0.2
;   extruderUseWipe,0
;   extruderWipeDistance,5
;   primaryExtruder,0
;   layerHeight,0.1
;   topSolidLayers,6
;   bottomSolidLayers,3
;   perimeterOutlines,3
;   printPerimetersInsideOut,1
;   startPointOption,2
;   startPointOriginX,0
;   startPointOriginY,0
;   sequentialIslands,0
;   spiralVaseMode,0
;   firstLayerHeightPercentage,100
;   firstLayerWidthPercentage,100
;   firstLayerUnderspeed,0.4
;   useRaft,0
;   raftExtruder,0
;   raftTopLayers,3
;   raftBaseLayers,2
;   raftOffset,5
;   raftSeparationDistance,0.14
;   raftTopInfill,100
;   aboveRaftSpeedMultiplier,0.3
;   useSkirt,0
;   skirtExtruder,0
;   skirtLayers,1
;   skirtOutlines,5
;   skirtOffset,0
;   usePrimePillar,0
;   primePillarExtruder,999
;   primePillarWidth,6
;   primePillarLocation,0
;   primePillarSpeedMultiplier,1
;   useOozeShield,0
;   oozeShieldExtruder,999
;   oozeShieldOffset,2
;   oozeShieldOutlines,1
;   oozeShieldSidewallShape,1
;   oozeShieldSidewallAngle,30
;   oozeShieldSpeedMultiplier,1
;   infillExtruder,0
;   internalInfillPattern,Fast Honeycomb
;   externalInfillPattern,Rectilinear
;   infillPercentage,20
;   outlineOverlapPercentage,45
;   infillExtrusionWidthPercentage,100
;   minInfillLength,5
;   infillLayerInterval,1
;   internalInfillAngles,0
;   overlapInternalInfillAngles,0
;   externalInfillAngles,45,-45
;   generateSupport,1
;   supportExtruder,0
;   supportInfillPercentage,40
;   supportExtraInflation,0
;   supportBaseLayers,0
;   denseSupportExtruder,0
;   denseSupportLayers,0
;   denseSupportInfillPercentage,70
;   supportLayerInterval,3
;   supportHorizontalPartOffset,0.3
;   supportUpperSeparationLayers,1
;   supportLowerSeparationLayers,1
;   supportType,0
;   supportGridSpacing,1
;   maxOverhangAngle,45
;   supportAngles,0
;   temperatureName,Primary Extruder,Heated Bed
;   temperatureNumber,0,0
;   temperatureSetpointCount,3,1
;   temperatureSetpointLayers,1,3,5,1
;   temperatureSetpointTemperatures,195,192,189,30
;   temperatureStabilizeAtStartup,1,1
;   temperatureHeatedBed,0,1
;   temperatureRelayBetweenLayers,0,0
;   temperatureRelayBetweenLoops,0,0
;   fanLayers,1,2,3
;   fanSpeeds,0,60,100
;   blipFanToFullPower,1
;   adjustSpeedForCooling,1
;   minSpeedLayerTime,15
;   minCoolingSpeedSlowdown,20
;   increaseFanForCooling,0
;   minFanLayerTime,45
;   maxCoolingFanSpeed,100
;   increaseFanForBridging,0
;   bridgingFanSpeed,100
;   use5D,1
;   relativeEdistances,0
;   allowEaxisZeroing,1
;   independentExtruderAxes,0
;   includeM10123,0
;   stickySupport,1
;   applyToolheadOffsets,0
;   gcodeXoffset,0
;   gcodeYoffset,0
;   gcodeZoffset,0.23
;   overrideMachineDefinition,1
;   machineTypeOverride,1
;   strokeXoverride,77.8
;   strokeYoverride,77.8
;   strokeZoverride,120
;   originOffsetXoverride,38.9
;   originOffsetYoverride,38.9
;   originOffsetZoverride,0
;   homeXdirOverride,0
;   homeYdirOverride,0
;   homeZdirOverride,-1
;   flipXoverride,1
;   flipYoverride,-1
;   flipZoverride,1
;   toolheadOffsets,0,0|0,0|0,0|0,0|0,0|0,0
;   overrideFirmwareConfiguration,1
;   firmwareTypeOverride,RepRap (Marlin/Repetier/Sprinter)
;   GPXconfigOverride,r2
;   baudRateOverride,115200
;   overridePrinterModels,1
;   printerModelsOverride,MP_Mini_Delta_Platform.stl
;   startingGcode,G90 ; absolute positioning - this line was added in case Cura doesn't include it by default,M82 ; set extruder to absolute mode - this line was added in case Cura doesn't include it by default (may not be needed),M107; start with the fan off (I don't think this is possible),G28 ; Start from home position,G29 C-0.8 Z0.3 ; probe the bed at 3 points with a 0.3mm overall vertical offset and an additional -0.8mm center offset ,G1 Z15.0 F4800  ; move the nozzle up 15mm,G92 E0 ; reset extrusion distance,G1 F200 E3 ; extrude 3mm of feed stock,G92 E0 ; reset extrusion distance again,G1 F4800
;   layerChangeGcode,
;   retractionGcode,
;   toolChangeGcode,
;   endingGcode,M104 S0 ; turn off hotend heater,M140 S0 ; turn off bed heater,G91 ; Switch to use Relative Coordinates,G1 E-3 F700 ; retract the filament a bit before lifting the nozzle to release some of the pressure,G1 Z2 F1000 ; raise platform 2mm from current position,G1 E-2 F700 ; retract filament even more,G90 ; Switch back to using absolute coordinates,G28 X ; Return to home position. Without an X Y or Z after G28 the print completion time will not be displayed on the Mini Delta's display.,M84 ; disable motors,G4 S360 ; pause for 360 seconds to keep fan running to cool hotend and allow the fan to be turned off,M107 ; turn off fan. Some say M107 doesn't work for them but if the hotend is cool enough it should work,;M106 S1 ; turn off fan. Remove the semicolon in front of M106 if M107 doesn't work for you
;   exportFileFormat,gcode
;   celebration,0
;   celebrationSong,Random Song
;   postProcessing,
;   defaultSpeed,3200
;   outlineUnderspeed,1
;   solidInfillUnderspeed,1
;   supportUnderspeed,1
;   rapidXYspeed,3200
;   rapidZspeed,1002
;   minBridgingArea,50
;   bridgingExtraInflation,0
;   bridgingExtrusionMultiplier,1
;   bridgingSpeedMultiplier,1
;   useFixedBridgingAngle,0
;   fixedBridgingAngle,0
;   applyBridgingToPerimeters,0
;   filamentDiameters,1.75|1.75|1.75|1.75|1.75|1.75
;   filamentPricesPerKg,48|25|25|25|25|25
;   filamentDensities,1.25|1.25|1.25|1.25|1.25|1.25
;   useMinPrintHeight,0
;   minPrintHeight,42
;   useMaxPrintHeight,0
;   maxPrintHeight,0
;   useDiaphragm,0
;   diaphragmLayerInterval,20
;   robustSlicing,1
;   mergeAllIntoSolid,0
;   onlyRetractWhenCrossingOutline,1
;   retractBetweenLayers,1
;   useRetractionMinTravel,0
;   retractionMinTravel,3
;   retractWhileWiping,1
;   onlyWipeOutlines,1
;   avoidCrossingOutline,0
;   maxMovementDetourFactor,3
;   toolChangeRetractionDistance,12
;   toolChangeExtraRestartDistance,-0.5
;   toolChangeRetractionSpeed,600
;   externalThinWallType,1
;   internalThinWallType,1
;   thinWallAllowedOverlapPercentage,100
;   singleExtrusionMinLength,0.4
;   singleExtrusionMinPrintingWidthPercentage,50
;   singleExtrusionMaxPrintingWidthPercentage,200
;   singleExtrusionEndpointExtension,0.2
;   horizontalSizeCompensation,0
G90
M82
M106 S255
G4 P500
M106 S0
M140 S30
M190 S30
M104 S195 T0
M109 S195 T0
G90 ; absolute positioning - this line was added in case Cura doesn't include it by default
M82 ; set extruder to absolute mode - this line was added in case Cura doesn't include it by default (may not be needed)
M107; start with the fan off (I don't think this is possible)
G28 ; Start from home position
G29 C-0.8 Z0.3 ; probe the bed at 3 points with a 0.3mm overall vertical offset and an additional -0.8mm center offset 
G1 Z15.0 F4800  ; move the nozzle up 15mm
G92 E0 ; reset extrusion distance
G1 F200 E3 ; extrude 3mm of feed stock
G92 E0 ; reset extrusion distance again
G1 F4800
G92 E0
G1 E-8.0000 F3000
G1 Z0.330 F1002
; process Process1
; layer 1, Z = 0.100
T0
; tool H0.100 W0.400
; inner perimeter
G1 X-5.227 Y-37.897 F3200
G1 E0.0000 F900
G92 E0
G1 X5.227 Y-37.897 E0.1651 F1280
G1 X5.227 Y41.303 E1.4164
G1 X-5.227 Y41.303 E1.5816
G1 X-5.227 Y-37.897 E2.8328
G1 X-5.627 Y-38.297 F3200
G92 E0
G1 X5.627 Y-38.297 E0.1778 F1280
G1 X5.627 Y41.703 E1.4417
G1 X-5.627 Y41.703 E1.6195
G1 X-5.627 Y-38.297 E2.8834
; outer perimeter
G1 X-6.027 Y-38.697 F3200
G92 E0
G1 X6.027 Y-38.697 E0.1904 F1280
G1 X6.027 Y42.103 E1.4670
G1 X-6.027 Y42.103 E1.6574
G1 X-6.027 Y-38.697 E2.9339
; solid layer
G1 X4.863 Y-37.677 F3200
G92 E0
G1 X5.007 Y-37.534 E0.0032 F1280
G1 X5.007 Y-36.968 E0.0122
G1 X4.297 Y-37.677 E0.0280
G1 X3.732 Y-37.677 E0.0369
G1 X5.007 Y-36.402 E0.0654
G1 X5.007 Y-35.837 E0.0744
G1 X3.166 Y-37.677 E0.1155
G1 X2.600 Y-37.677 E0.1244
G1 X5.007 Y-35.271 E0.1782
G1 X5.007 Y-34.705 E0.1871
G1 X2.034 Y-37.677 E0.2535
G1 X1.469 Y-37.677 E0.2625
G1 X5.007 Y-34.140 E0.3415
G1 X5.007 Y-33.574 E0.3505
G1 X0.903 Y-37.677 E0.4422
G1 X0.337 Y-37.677 E0.4511
G1 X5.007 Y-33.008 E0.5554
G1 X5.007 Y-32.442 E0.5643
G1 X-0.228 Y-37.677 E0.6813
G1 X-0.794 Y-37.677 E0.6902
G1 X5.007 Y-31.877 E0.8199
G1 X5.007 Y-31.311 E0.8288
G1 X-1.360 Y-37.677 E0.9710
G1 X-1.925 Y-37.677 E0.9800
G1 X5.007 Y-30.745 E1.1348
G1 X5.007 Y-30.180 E1.1438
G1 X-2.491 Y-37.677 E1.3113
G1 X-3.057 Y-37.677 E1.3202
G1 X5.007 Y-29.614 E1.5004
G1 X5.007 Y-29.048 E1.5093
G1 X-3.622 Y-37.677 E1.7021
G1 X-4.188 Y-37.677 E1.7111
G1 X5.007 Y-28.483 E1.9165
G1 X5.007 Y-27.917 E1.9254
G1 X-4.754 Y-37.677 E2.1435
G1 X-5.007 Y-37.677 E2.1475
G1 X-5.007 Y-37.365 E2.1524
G1 X5.007 Y-27.351 E2.3762
G1 X5.007 Y-26.786 E2.3851
G1 X-5.007 Y-36.799 E2.6088
G1 X-5.007 Y-36.233 E2.6178
G1 X5.007 Y-26.220 E2.8415
G1 X5.007 Y-25.654 E2.8504
G1 X-5.007 Y-35.668 E3.0742
G1 X-5.007 Y-35.102 E3.0831
G1 X5.007 Y-25.089 E3.3068
G1 X5.007 Y-24.523 E3.3157
G1 X-5.007 Y-34.536 E3.5395
G1 X-5.007 Y-33.971 E3.5484
G1 X5.007 Y-23.957 E3.7721
G1 X5.007 Y-23.391 E3.7811
G1 X-5.007 Y-33.405 E4.0048
G1 X-5.007 Y-32.839 E4.0137
G1 X5.007 Y-22.826 E4.2375
G1 X5.007 Y-22.260 E4.2464
G1 X-5.007 Y-32.273 E4.4701
G1 X-5.007 Y-31.708 E4.4791
G1 X5.007 Y-21.694 E4.7028
G1 X5.007 Y-21.129 E4.7117
G1 X-5.007 Y-31.142 E4.9354
G1 X-5.007 Y-30.576 E4.9444
G1 X5.007 Y-20.563 E5.1681
G1 X5.007 Y-19.997 E5.1770
G1 X-5.007 Y-30.011 E5.4008
G1 X-5.007 Y-29.445 E5.4097
G1 X5.007 Y-19.432 E5.6334
G1 X5.007 Y-18.866 E5.6424
G1 X-5.007 Y-28.879 E5.8661
G1 X-5.007 Y-28.314 E5.8750
G1 X5.007 Y-18.300 E6.0987
G1 X5.007 Y-17.735 E6.1077
G1 X-5.007 Y-27.748 E6.3314
G1 X-5.007 Y-27.182 E6.3403
G1 X5.007 Y-17.169 E6.5641
G1 X5.007 Y-16.603 E6.5730
G1 X-5.007 Y-26.617 E6.7967
G1 X-5.007 Y-26.051 E6.8057
G1 X5.007 Y-16.038 E7.0294
G1 X5.007 Y-15.472 E7.0383
G1 X-5.007 Y-25.485 E7.2620
G1 X-5.007 Y-24.920 E7.2710
G1 X5.007 Y-14.906 E7.4947
G1 X5.007 Y-14.341 E7.5036
G1 X-5.007 Y-24.354 E7.7274
G1 X-5.007 Y-23.788 E7.7363
G1 X5.007 Y-13.775 E7.9600
G1 X5.007 Y-13.209 E7.9690
G1 X-5.007 Y-23.222 E8.1927
G1 X-5.007 Y-22.657 E8.2016
G1 X5.007 Y-12.643 E8.4253
G1 X5.007 Y-12.078 E8.4343
G1 X-5.007 Y-22.091 E8.6580
G1 X-5.007 Y-21.525 E8.6669
G1 X5.007 Y-11.512 E8.8907
G1 X5.007 Y-10.946 E8.8996
G1 X-5.007 Y-20.960 E9.1233
G1 X-5.007 Y-20.394 E9.1323
G1 X5.007 Y-10.381 E9.3560
G1 X5.007 Y-9.815 E9.3649
G1 X-5.007 Y-19.828 E9.5887
G1 X-5.007 Y-19.263 E9.5976
G1 X5.007 Y-9.249 E9.8213
G1 X5.007 Y-8.684 E9.8302
G1 X-5.007 Y-18.697 E10.0540
G1 X-5.007 Y-18.131 E10.0629
G1 X5.007 Y-8.118 E10.2866
G1 X5.007 Y-7.552 E10.2956
G1 X-5.007 Y-17.566 E10.5193
G1 X-5.007 Y-17.000 E10.5282
G1 X5.007 Y-6.987 E10.7520
G1 X5.007 Y-6.421 E10.7609
G1 X-5.007 Y-16.434 E10.9846
G1 X-5.007 Y-15.869 E10.9936
G1 X5.007 Y-5.855 E11.2173
G1 X5.007 Y-5.290 E11.2262
G1 X-5.007 Y-15.303 E11.4499
G1 X-5.007 Y-14.737 E11.4589
G1 X5.007 Y-4.724 E11.6826
G1 X5.007 Y-4.158 E11.6915
G1 X-5.007 Y-14.172 E11.9153
G1 X-5.007 Y-13.606 E11.9242
G1 X5.007 Y-3.592 E12.1479
G1 X5.007 Y-3.027 E12.1569
G1 X-5.007 Y-13.040 E12.3806
G1 X-5.007 Y-12.474 E12.3895
G1 X5.007 Y-2.461 E12.6132
G1 X5.007 Y-1.895 E12.6222
G1 X-5.007 Y-11.909 E12.8459
G1 X-5.007 Y-11.343 E12.8548
G1 X5.007 Y-1.330 E13.0786
G1 X5.007 Y-0.764 E13.0875
G1 X-5.007 Y-10.777 E13.3112
G1 X-5.007 Y-10.212 E13.3202
G1 X5.007 Y-0.198 E13.5439
G1 X5.007 Y0.367 E13.5528
G1 X-5.007 Y-9.646 E13.7765
G1 X-5.007 Y-9.080 E13.7855
G1 X5.007 Y0.933 E14.0092
G1 X5.007 Y1.499 E14.0181
G1 X-5.007 Y-8.515 E14.2419
G1 X-5.007 Y-7.949 E14.2508
G1 X5.007 Y2.064 E14.4745
G1 X5.007 Y2.630 E14.4835
G1 X-5.007 Y-7.383 E14.7072
G1 X-5.007 Y-6.818 E14.7161
G1 X5.007 Y3.196 E14.9398
G1 X5.007 Y3.761 E14.9488
G1 X-5.007 Y-6.252 E15.1725
G1 X-5.007 Y-5.686 E15.1814
G1 X5.007 Y4.327 E15.4052
G1 X5.007 Y4.893 E15.4141
G1 X-5.007 Y-5.121 E15.6378
G1 X-5.007 Y-4.555 E15.6468
G1 X5.007 Y5.458 E15.8705
G1 X5.007 Y6.024 E15.8794
G1 X-5.007 Y-3.989 E16.1032
G1 X-5.007 Y-3.424 E16.1121
G1 X5.007 Y6.590 E16.3358
G1 X5.007 Y7.156 E16.3447
G1 X-5.007 Y-2.858 E16.5685
G1 X-5.007 Y-2.292 E16.5774
G1 X5.007 Y7.721 E16.8011
G1 X5.007 Y8.287 E16.8101
G1 X-5.007 Y-1.726 E17.0338
G1 X-5.007 Y-1.161 E17.0427
G1 X5.007 Y8.853 E17.2665
G1 X5.007 Y9.418 E17.2754
G1 X-5.007 Y-0.595 E17.4991
G1 X-5.007 Y-0.029 E17.5081
G1 X5.007 Y9.984 E17.7318
G1 X5.007 Y10.550 E17.7407
G1 X-5.007 Y0.536 E17.9644
G1 X-5.007 Y1.102 E17.9734
G1 X5.007 Y11.115 E18.1971
G1 X5.007 Y11.681 E18.2060
G1 X-5.007 Y1.668 E18.4298
G1 X-5.007 Y2.233 E18.4387
G1 X5.007 Y12.247 E18.6624
G1 X5.007 Y12.812 E18.6714
G1 X-5.007 Y2.799 E18.8951
G1 X-5.007 Y3.365 E18.9040
G1 X5.007 Y13.378 E19.1277
G1 X5.007 Y13.944 E19.1367
G1 X-5.007 Y3.930 E19.3604
G1 X-5.007 Y4.496 E19.3693
G1 X5.007 Y14.509 E19.5931
G1 X5.007 Y15.075 E19.6020
G1 X-5.007 Y5.062 E19.8257
G1 X-5.007 Y5.627 E19.8347
G1 X5.007 Y15.641 E20.0584
G1 X5.007 Y16.206 E20.0673
G1 X-5.007 Y6.193 E20.2910
G1 X-5.007 Y6.759 E20.3000
G1 X5.007 Y16.772 E20.5237
G1 X5.007 Y17.338 E20.5326
G1 X-5.007 Y7.325 E20.7564
G1 X-5.007 Y7.890 E20.7653
G1 X5.007 Y17.904 E20.9890
G1 X5.007 Y18.469 E20.9980
G1 X-5.007 Y8.456 E21.2217
G1 X-5.007 Y9.022 E21.2306
G1 X5.007 Y19.035 E21.4543
G1 X5.007 Y19.601 E21.4633
G1 X-5.007 Y9.587 E21.6870
G1 X-5.007 Y10.153 E21.6959
G1 X5.007 Y20.166 E21.9197
G1 X5.007 Y20.732 E21.9286
G1 X-5.007 Y10.719 E22.1523
G1 X-5.007 Y11.284 E22.1613
G1 X5.007 Y21.298 E22.3850
G1 X5.007 Y21.863 E22.3939
G1 X-5.007 Y11.850 E22.6177
G1 X-5.007 Y12.416 E22.6266
G1 X5.007 Y22.429 E22.8503
G1 X5.007 Y22.995 E22.8593
G1 X-5.007 Y12.981 E23.0830
G1 X-5.007 Y13.547 E23.0919
G1 X5.007 Y23.560 E23.3156
G1 X5.007 Y24.126 E23.3246
G1 X-5.007 Y14.113 E23.5483
G1 X-5.007 Y14.678 E23.5572
G1 X5.007 Y24.692 E23.7810
G1 X5.007 Y25.257 E23.7899
G1 X-5.007 Y15.244 E24.0136
G1 X-5.007 Y15.810 E24.0226
G1 X5.007 Y25.823 E24.2463
G1 X5.007 Y26.389 E24.2552
G1 X-5.007 Y16.375 E24.4789
G1 X-5.007 Y16.941 E24.4879
G1 X5.007 Y26.955 E24.7116
G1 X5.007 Y27.520 E24.7205
G1 X-5.007 Y17.507 E24.9443
G1 X-5.007 Y18.073 E24.9532
G1 X5.007 Y28.086 E25.1769
G1 X5.007 Y28.652 E25.1859
G1 X-5.007 Y18.638 E25.4096
G1 X-5.007 Y19.204 E25.4185
G1 X5.007 Y29.217 E25.6422
G1 X5.007 Y29.783 E25.6512
G1 X-5.007 Y19.770 E25.8749
G1 X-5.007 Y20.335 E25.8838
G1 X5.007 Y30.349 E26.1076
G1 X5.007 Y30.914 E26.1165
G1 X-5.007 Y20.901 E26.3402
G1 X-5.007 Y21.467 E26.3492
G1 X5.007 Y31.480 E26.5729
G1 X5.007 Y32.046 E26.5818
G1 X-5.007 Y22.032 E26.8055
G1 X-5.007 Y22.598 E26.8145
G1 X5.007 Y32.611 E27.0382
G1 X5.007 Y33.177 E27.0471
G1 X-5.007 Y23.164 E27.2709
G1 X-5.007 Y23.729 E27.2798
G1 X5.007 Y33.743 E27.5035
G1 X5.007 Y34.308 E27.5125
G1 X-5.007 Y24.295 E27.7362
G1 X-5.007 Y24.861 E27.7451
G1 X5.007 Y34.874 E27.9688
G1 X5.007 Y35.440 E27.9778
G1 X-5.007 Y25.426 E28.2015
G1 X-5.007 Y25.992 E28.2104
G1 X5.007 Y36.005 E28.4342
G1 X5.007 Y36.571 E28.4431
G1 X-5.007 Y26.558 E28.6668
G1 X-5.007 Y27.124 E28.6758
G1 X5.007 Y37.137 E28.8995
G1 X5.007 Y37.703 E28.9084
G1 X-5.007 Y27.689 E29.1322
G1 X-5.007 Y28.255 E29.1411
G1 X5.007 Y38.268 E29.3648
G1 X5.007 Y38.834 E29.3738
G1 X-5.007 Y28.821 E29.5975
G1 X-5.007 Y29.386 E29.6064
G1 X5.007 Y39.400 E29.8301
G1 X5.007 Y39.965 E29.8391
G1 X-5.007 Y29.952 E30.0628
G1 X-5.007 Y30.518 E30.0717
G1 X5.007 Y40.531 E30.2955
G1 X5.007 Y41.083 E30.3042
G1 X4.993 Y41.083 E30.3044
G1 X-5.007 Y31.083 E30.5278
G1 X-5.007 Y31.649 E30.5368
G1 X4.428 Y41.083 E30.7475
G1 X3.862 Y41.083 E30.7565
G1 X-5.007 Y32.215 E30.9546
