; G-Code generated by Simplify3D(R) Version 4.0.0
; Nov 5, 2019 at 10:19:47 PM
; Settings Summary
;   processName,Process2
;   applyToModels,tailbase,tailbase(2),tailbase(3),tailbase(4),tailbase(5),tailbase(6)
;   profileName,MP Mini Delta23 (modified)
;   profileVersion,2019-02-27 19:04:36
;   baseProfile,Monoprice MP Mini Delta
;   printMaterial,eSun PLA+ - Solid Red
;   printQuality,0.08
;   printExtruders,
;   extruderName,Primary Extruder
;   extruderToolheadNumber,0
;   extruderDiameter,0.4
;   extruderAutoWidth,0
;   extruderWidth,0.4
;   extrusionMultiplier,1
;   extruderUseRetract,1
;   extruderRetractionDistance,8
;   extruderExtraRestartDistance,0
;   extruderRetractionZLift,0
;   extruderRetractionSpeed,3000
;   extruderUseCoasting,0
;   extruderCoastingDistance,0.2
;   extruderUseWipe,0
;   extruderWipeDistance,5
;   primaryExtruder,0
;   layerHeight,0.2
;   topSolidLayers,5
;   bottomSolidLayers,5
;   perimeterOutlines,2
;   printPerimetersInsideOut,1
;   startPointOption,2
;   startPointOriginX,0
;   startPointOriginY,0
;   sequentialIslands,0
;   spiralVaseMode,0
;   firstLayerHeightPercentage,100
;   firstLayerWidthPercentage,100
;   firstLayerUnderspeed,0.4
;   useRaft,0
;   raftExtruder,0
;   raftTopLayers,3
;   raftBaseLayers,1
;   raftOffset,2
;   raftSeparationDistance,0.1
;   raftTopInfill,100
;   aboveRaftSpeedMultiplier,0.3
;   useSkirt,0
;   skirtExtruder,0
;   skirtLayers,3
;   skirtOutlines,6
;   skirtOffset,0
;   usePrimePillar,0
;   primePillarExtruder,999
;   primePillarWidth,6
;   primePillarLocation,0
;   primePillarSpeedMultiplier,1
;   useOozeShield,0
;   oozeShieldExtruder,999
;   oozeShieldOffset,2
;   oozeShieldOutlines,1
;   oozeShieldSidewallShape,1
;   oozeShieldSidewallAngle,30
;   oozeShieldSpeedMultiplier,1
;   infillExtruder,0
;   internalInfillPattern,Triangular
;   externalInfillPattern,Rectilinear
;   infillPercentage,10
;   outlineOverlapPercentage,0
;   infillExtrusionWidthPercentage,100
;   minInfillLength,5
;   infillLayerInterval,1
;   internalInfillAngles,0,60,-60
;   overlapInternalInfillAngles,1
;   externalInfillAngles,45,-45
;   generateSupport,1
;   supportExtruder,0
;   supportInfillPercentage,30
;   supportExtraInflation,0.4
;   supportBaseLayers,0
;   denseSupportExtruder,0
;   denseSupportLayers,0
;   denseSupportInfillPercentage,70
;   supportLayerInterval,1
;   supportHorizontalPartOffset,0.8
;   supportUpperSeparationLayers,1
;   supportLowerSeparationLayers,0
;   supportType,0
;   supportGridSpacing,1
;   maxOverhangAngle,45
;   supportAngles,-45
;   temperatureName,Primary Extruder,Heated Bed
;   temperatureNumber,0,0
;   temperatureSetpointCount,1,1
;   temperatureSetpointLayers,1,1
;   temperatureSetpointTemperatures,200,30
;   temperatureStabilizeAtStartup,1,1
;   temperatureHeatedBed,0,1
;   temperatureRelayBetweenLayers,0,0
;   temperatureRelayBetweenLoops,0,0
;   fanLayers,1,2,10
;   fanSpeeds,0,60,100
;   blipFanToFullPower,1
;   adjustSpeedForCooling,1
;   minSpeedLayerTime,15
;   minCoolingSpeedSlowdown,20
;   increaseFanForCooling,0
;   minFanLayerTime,45
;   maxCoolingFanSpeed,100
;   increaseFanForBridging,0
;   bridgingFanSpeed,100
;   use5D,1
;   relativeEdistances,0
;   allowEaxisZeroing,1
;   independentExtruderAxes,0
;   includeM10123,0
;   stickySupport,1
;   applyToolheadOffsets,0
;   gcodeXoffset,0
;   gcodeYoffset,0
;   gcodeZoffset,0.39
;   overrideMachineDefinition,1
;   machineTypeOverride,1
;   strokeXoverride,77.8
;   strokeYoverride,77.8
;   strokeZoverride,120
;   originOffsetXoverride,38.9
;   originOffsetYoverride,38.9
;   originOffsetZoverride,0
;   homeXdirOverride,0
;   homeYdirOverride,0
;   homeZdirOverride,-1
;   flipXoverride,1
;   flipYoverride,-1
;   flipZoverride,1
;   toolheadOffsets,0,0|0,0|0,0|0,0|0,0|0,0
;   overrideFirmwareConfiguration,1
;   firmwareTypeOverride,RepRap (Marlin/Repetier/Sprinter)
;   GPXconfigOverride,r2
;   baudRateOverride,115200
;   overridePrinterModels,1
;   printerModelsOverride,MP_Mini_Delta_Platform.stl
;   startingGcode,G90 ; absolute positioning - this line was added in case Cura doesn't include it by default,M82 ; set extruder to absolute mode - this line was added in case Cura doesn't include it by default (may not be needed),M107; start with the fan off (I don't think this is possible),G28 ; Start from home position,G29 C-0.8 Z0.3 ; probe the bed at 3 points with a 0.3mm overall vertical offset and an additional -0.8mm center offset ,G1 Z15.0 F4800  ; move the nozzle up 15mm,G92 E0 ; reset extrusion distance,G1 F200 E3 ; extrude 3mm of feed stock,G92 E0 ; reset extrusion distance again,G1 F4800
;   layerChangeGcode,
;   retractionGcode,
;   toolChangeGcode,
;   endingGcode,M104 S0 ; turn off hotend heater,M140 S0 ; turn off bed heater,G91 ; Switch to use Relative Coordinates,G1 E-3 F700 ; retract the filament a bit before lifting the nozzle to release some of the pressure,G1 Z2 F1000 ; raise platform 2mm from current position,G1 E-2 F700 ; retract filament even more,G90 ; Switch back to using absolute coordinates,G28 X ; Return to home position. Without an X Y or Z after G28 the print completion time will not be displayed on the Mini Delta's display.,M84 ; disable motors,G4 S360 ; pause for 360 seconds to keep fan running to cool hotend and allow the fan to be turned off,M107 ; turn off fan. Some say M107 doesn't work for them but if the hotend is cool enough it should work,;M106 S1 ; turn off fan. Remove the semicolon in front of M106 if M107 doesn't work for you
;   exportFileFormat,gcode
;   celebration,0
;   celebrationSong,Random Song
;   postProcessing,
;   defaultSpeed,1800
;   outlineUnderspeed,1
;   solidInfillUnderspeed,1
;   supportUnderspeed,1
;   rapidXYspeed,1800
;   rapidZspeed,1002
;   minBridgingArea,50
;   bridgingExtraInflation,0
;   bridgingExtrusionMultiplier,0.9
;   bridgingSpeedMultiplier,1
;   useFixedBridgingAngle,0
;   fixedBridgingAngle,0
;   applyBridgingToPerimeters,0
;   filamentDiameters,1.75|1.75|1.75|1.75|1.75|1.75
;   filamentPricesPerKg,48|25|25|25|25|25
;   filamentDensities,1.25|1.25|1.25|1.25|1.25|1.25
;   useMinPrintHeight,0
;   minPrintHeight,42
;   useMaxPrintHeight,0
;   maxPrintHeight,0
;   useDiaphragm,0
;   diaphragmLayerInterval,20
;   robustSlicing,1
;   mergeAllIntoSolid,0
;   onlyRetractWhenCrossingOutline,1
;   retractBetweenLayers,1
;   useRetractionMinTravel,0
;   retractionMinTravel,3
;   retractWhileWiping,1
;   onlyWipeOutlines,1
;   avoidCrossingOutline,0
;   maxMovementDetourFactor,5
;   toolChangeRetractionDistance,12
;   toolChangeExtraRestartDistance,-0.5
;   toolChangeRetractionSpeed,600
;   externalThinWallType,1
;   internalThinWallType,1
;   thinWallAllowedOverlapPercentage,100
;   singleExtrusionMinLength,0.4
;   singleExtrusionMinPrintingWidthPercentage,50
;   singleExtrusionMaxPrintingWidthPercentage,200
;   singleExtrusionEndpointExtension,0.2
;   horizontalSizeCompensation,0
G90
M82
M106 S255
G4 P500
M106 S0
M140 S30
M190 S30
M104 S200 T0
M109 S200 T0
G90 ; absolute positioning - this line was added in case Cura doesn't include it by default
M82 ; set extruder to absolute mode - this line was added in case Cura doesn't include it by default (may not be needed)
M107; start with the fan off (I don't think this is possible)
G28 ; Start from home position
G29 C-0.8 Z0.3 ; probe the bed at 3 points with a 0.3mm overall vertical offset and an additional -0.8mm center offset 
G1 Z15.0 F4800  ; move the nozzle up 15mm
G92 E0 ; reset extrusion distance
G1 F200 E3 ; extrude 3mm of feed stock
G92 E0 ; reset extrusion distance again
G1 F4800
G92 E0
G1 E-8.0000 F3000
G1 Z0.590 F1002
; process Process2
; layer 1, Z = 0.200
T0
; tool H0.200 W0.400
; inner perimeter
G1 X-0.413 Y-3.100 F1800
G1 E0.0000 F900
G92 E0
G1 X-5.756 Y-3.100 E0.1777 F720
G1 X-5.756 Y-33.900 E1.2021
G1 X-0.413 Y-33.900 E1.3798
G1 X0.130 Y-32.890 E1.4180
G1 X0.475 Y-32.191 E1.4439
G1 X1.118 Y-30.753 E1.4963
G1 X1.688 Y-29.287 E1.5486
G1 X2.186 Y-27.793 E1.6010
G1 X2.405 Y-27.045 E1.6269
G1 X2.791 Y-25.514 E1.6794
G1 X2.954 Y-24.752 E1.7053
G1 X3.225 Y-23.200 E1.7577
G1 X3.419 Y-21.640 E1.8100
G1 X3.540 Y-19.978 E1.8655
G1 X3.542 Y-19.937 E1.8668
G1 X3.392 Y-19.886 E1.8721
G1 X3.173 Y-19.670 E1.8823
G1 X3.002 Y-19.379 E1.8935
G1 X2.879 Y-18.779 E1.9139
G1 X2.879 Y-18.221 E1.9325
G1 X2.997 Y-17.647 E1.9520
G1 X3.075 Y-17.482 E1.9580
G1 X3.234 Y-17.257 E1.9672
G1 X3.480 Y-17.067 E1.9775
G1 X3.535 Y-17.054 E1.9794
G1 X3.487 Y-16.141 E2.0098
G1 X3.420 Y-15.364 E2.0357
G1 X3.225 Y-13.800 E2.0881
G1 X2.954 Y-12.252 E2.1404
G1 X2.607 Y-10.718 E2.1927
G1 X2.185 Y-9.204 E2.2450
G1 X1.687 Y-7.709 E2.2974
G1 X1.412 Y-6.976 E2.3235
G1 X1.119 Y-6.251 E2.3495
G1 X0.475 Y-4.809 E2.4020
G1 X0.130 Y-4.110 E2.4279
G1 X-0.413 Y-3.100 E2.4661
; outer perimeter
G1 X-0.174 Y-2.700 F1800
G92 E0
G1 X-6.156 Y-2.700 E0.1990 F720
G1 X-6.156 Y-34.300 E1.2500
G1 X-0.174 Y-34.300 E1.4489
G1 X0.486 Y-33.073 E1.4953
G1 X0.837 Y-32.361 E1.5217
G1 X1.487 Y-30.907 E1.5747
G1 X2.064 Y-29.423 E1.6276
G1 X2.568 Y-27.912 E1.6806
G1 X2.791 Y-27.150 E1.7070
G1 X3.181 Y-25.604 E1.7600
G1 X3.347 Y-24.828 E1.7864
G1 X3.621 Y-23.259 E1.8394
G1 X3.817 Y-21.679 E1.8924
G1 X3.940 Y-19.999 E1.9484
G1 X3.954 Y-19.569 E1.9627
G1 X3.813 Y-19.607 E1.9675
G1 X3.608 Y-19.537 E1.9747
G1 X3.491 Y-19.422 E1.9802
G1 X3.380 Y-19.234 E1.9875
G1 X3.279 Y-18.739 E2.0043
G1 X3.279 Y-18.261 E2.0202
G1 X3.379 Y-17.775 E2.0367
G1 X3.421 Y-17.685 E2.0400
G1 X3.526 Y-17.537 E2.0460
G1 X3.658 Y-17.436 E2.0515
G1 X3.812 Y-17.397 E2.0568
G1 X3.955 Y-17.422 E2.0616
G1 X3.886 Y-16.113 E2.1052
G1 X3.818 Y-15.322 E2.1316
G1 X3.621 Y-13.741 E2.1846
G1 X3.347 Y-12.173 E2.2376
G1 X2.995 Y-10.620 E2.2905
G1 X2.567 Y-9.087 E2.3435
G1 X2.064 Y-7.575 E2.3965
G1 X1.785 Y-6.831 E2.4229
G1 X1.488 Y-6.094 E2.4493
G1 X0.837 Y-4.639 E2.5024
G1 X0.486 Y-3.927 E2.5288
G1 X-0.174 Y-2.700 E2.5751
; solid layer
G1 X-5.356 Y-3.659 F1800
G92 E0
G1 X-5.197 Y-3.500 E0.0075 F720
G1 X-4.631 Y-3.500 E0.0263
G1 X-5.356 Y-4.225 E0.0604
G1 X-5.356 Y-4.790 E0.0792
G1 X-4.066 Y-3.500 E0.1399
G1 X-3.500 Y-3.500 E0.1587
G1 X-5.356 Y-5.356 E0.2460
G1 X-5.356 Y-5.922 E0.2648
G1 X-2.934 Y-3.500 E0.3787
G1 X-2.369 Y-3.500 E0.3975
G1 X-5.356 Y-6.487 E0.5380
G1 X-5.356 Y-7.053 E0.5569
G1 X-1.803 Y-3.500 E0.7240
G1 X-1.237 Y-3.500 E0.7428
G1 X-5.356 Y-7.619 E0.9365
G1 X-5.356 Y-8.184 E0.9553
G1 X-0.672 Y-3.500 E1.1757
G1 X-0.652 Y-3.500 E1.1763
G1 X-0.461 Y-3.855 E1.1897
G1 X-5.356 Y-8.750 E1.4200
G1 X-5.356 Y-9.316 E1.4388
G1 X-0.263 Y-4.223 E1.6784
G1 X-0.225 Y-4.293 E1.6810
G1 X-0.074 Y-4.600 E1.6924
G1 X-5.356 Y-9.881 E1.9408
G1 X-5.356 Y-10.447 E1.9596
G1 X0.112 Y-4.979 E2.2168
G1 X0.287 Y-5.370 E2.2311
G1 X-5.356 Y-11.013 E2.4965
G1 X-5.356 Y-11.578 E2.5153
G1 X0.462 Y-5.761 E2.7890
G1 X0.637 Y-6.151 E2.8032
G1 X-5.356 Y-12.144 E3.0851
G1 X-5.356 Y-12.710 E3.1039
G1 X0.807 Y-6.547 E3.3938
G1 X0.970 Y-6.950 E3.4083
G1 X-5.356 Y-13.276 E3.7058
G1 X-5.356 Y-13.841 E3.7247
G1 X1.128 Y-7.357 E4.0296
G1 X1.282 Y-7.769 E4.0442
G1 X-5.356 Y-14.407 E4.3565
G1 X-5.356 Y-14.973 E4.3753
G1 X1.426 Y-8.191 E4.6943
G1 X1.567 Y-8.615 E4.7092
G1 X-5.356 Y-15.538 E5.0348
G1 X-5.356 Y-16.104 E5.0536
G1 X1.708 Y-9.040 E5.3859
G1 X1.802 Y-9.321 E5.3958
G1 X1.844 Y-9.470 E5.4009
G1 X-5.356 Y-16.670 E5.7396
G1 X-5.356 Y-17.235 E5.7584
G1 X1.967 Y-9.912 E6.1028
G1 X2.091 Y-10.355 E6.1181
G1 X-5.356 Y-17.801 E6.4684
G1 X-5.356 Y-18.367 E6.4872
G1 X2.214 Y-10.797 E6.8432
G1 X2.219 Y-10.816 E6.8439
G1 X2.319 Y-11.257 E6.8590
G1 X-5.356 Y-18.932 E7.2200
G1 X-5.356 Y-19.498 E7.2388
G1 X2.424 Y-11.718 E7.6047
G1 X2.528 Y-12.180 E7.6204
G1 X-5.356 Y-20.064 E7.9913
G1 X-5.356 Y-20.629 E8.0101
G1 X2.619 Y-12.655 E8.3852
G1 X2.703 Y-13.136 E8.4015
G1 X-5.356 Y-21.195 E8.7805
G1 X-5.356 Y-21.761 E8.7994
G1 X2.787 Y-13.618 E9.1824
G1 X2.830 Y-13.860 E9.1906
G1 X2.861 Y-14.110 E9.1990
G1 X-5.356 Y-22.327 E9.5854
G1 X-5.356 Y-22.892 E9.6043
G1 X2.923 Y-14.613 E9.9937
G1 X2.986 Y-15.116 E10.0106
G1 X-5.356 Y-23.458 E10.4029
G1 X-5.356 Y-24.024 E10.4217
G1 X3.041 Y-15.627 E10.8167
G1 X3.086 Y-16.147 E10.8341
G1 X-5.356 Y-24.589 E11.2312
G1 X-5.356 Y-25.155 E11.2500
G1 X3.115 Y-16.684 E11.6484
G1 X3.123 Y-16.838 E11.6536
G1 X2.942 Y-16.977 E11.6612
G1 X2.729 Y-17.279 E11.6734
G1 X2.615 Y-17.518 E11.6823
G1 X2.555 Y-17.810 E11.6922
G1 X-5.356 Y-25.721 E12.0643
G1 X-5.356 Y-26.286 E12.0831
G1 X2.479 Y-18.452 E12.4516
G1 X2.479 Y-18.820 E12.4638
G1 X2.512 Y-18.984 E12.4694
G1 X-5.356 Y-26.852 E12.8395
G1 X-5.356 Y-27.418 E12.8583
G1 X2.609 Y-19.453 E13.2329
G1 X2.623 Y-19.525 E13.2354
G1 X2.801 Y-19.827 E13.2470
G1 X-5.356 Y-27.983 E13.6307
G1 X-5.356 Y-28.549 E13.6495
G1 X3.066 Y-20.127 E14.0457
G1 X3.124 Y-20.184 E14.0484
G1 X3.089 Y-20.670 E14.0646
G1 X-5.356 Y-29.115 E14.4618
G1 X-5.356 Y-29.680 E14.4806
G1 X3.044 Y-21.280 E14.8757
G1 X3.021 Y-21.601 E14.8864
G1 X2.983 Y-21.907 E14.8967
G1 X-5.356 Y-30.246 E15.2889
G1 X-5.356 Y-30.812 E15.3077
G1 X2.903 Y-22.553 E15.6962
G1 X2.830 Y-23.140 E15.7159
G1 X2.819 Y-23.203 E15.7180
G1 X-5.356 Y-31.377 E16.1025
G1 X-5.356 Y-31.943 E16.1213
G1 X2.699 Y-23.888 E16.5002
G1 X2.579 Y-24.574 E16.5233
G1 X-5.356 Y-32.509 E16.8966
G1 X-5.356 Y-33.075 E16.9154
G1 X2.430 Y-25.288 E17.2816
G1 X2.402 Y-25.423 E17.2862
G1 X2.246 Y-26.038 E17.3073
G1 X-5.216 Y-33.500 E17.6583
G1 X-4.650 Y-33.500 E17.6771
G1 X2.055 Y-26.795 E17.9925
G1 X2.019 Y-26.940 E17.9975
G1 X1.830 Y-27.586 E18.0199
G1 X-4.084 Y-33.500 E18.2981
G1 X-3.519 Y-33.500 E18.3169
G1 X1.552 Y-28.429 E18.5554
G1 X1.312 Y-29.152 E18.5807
G1 X1.258 Y-29.289 E18.5856
G1 X-2.953 Y-33.500 E18.7837
G1 X-2.387 Y-33.500 E18.8025
G1 X0.898 Y-30.215 E18.9570
G1 X0.749 Y-30.599 E18.9707
G1 X0.481 Y-31.198 E18.9926
G1 X-1.822 Y-33.500 E19.1009
G1 X-1.256 Y-33.500 E19.1197
G1 X0.005 Y-32.239 E19.1790
G1 X-0.225 Y-32.707 E19.1964
G1 X-0.607 Y-33.417 E19.2232
G1 X-0.690 Y-33.500 E19.2271
G92 E0
G1 E-8.0000 F3000
; inner perimeter
G1 X11.956 Y-33.900 F1800
G1 E0.0000 F3000
G92 E0
G1 X17.299 Y-33.900 E0.1777 F720
G1 X17.842 Y-32.890 E0.2159
G1 X18.187 Y-32.191 E0.2418
G1 X18.830 Y-30.753 E0.2942
G1 X19.400 Y-29.287 E0.3465
G1 X19.898 Y-27.793 E0.3989
G1 X20.116 Y-27.045 E0.4248
G1 X20.502 Y-25.517 E0.4772
G1 X20.812 Y-23.972 E0.5296
G1 X20.937 Y-23.203 E0.5555
G1 X21.131 Y-21.640 E0.6079
G1 X21.252 Y-19.978 E0.6633
G1 X21.253 Y-19.937 E0.6647
G1 X21.104 Y-19.886 E0.6699
G1 X20.885 Y-19.670 E0.6802
G1 X20.714 Y-19.379 E0.6914
G1 X20.590 Y-18.779 E0.7118
G1 X20.590 Y-18.221 E0.7304
G1 X20.708 Y-17.647 E0.7498
G1 X20.787 Y-17.482 E0.7559
G1 X20.946 Y-17.257 E0.7651
G1 X21.192 Y-17.067 E0.7754
G1 X21.247 Y-17.054 E0.7773
G1 X21.199 Y-16.141 E0.8077
G1 X21.132 Y-15.364 E0.8336
G1 X20.937 Y-13.800 E0.8860
G1 X20.666 Y-12.252 E0.9383
G1 X20.319 Y-10.718 E0.9906
G1 X19.897 Y-9.204 E1.0429
G1 X19.399 Y-7.709 E1.0953
G1 X19.124 Y-6.976 E1.1213
G1 X18.831 Y-6.251 E1.1473
G1 X18.186 Y-4.809 E1.1999
G1 X17.842 Y-4.110 E1.2258
G1 X17.299 Y-3.100 E1.2639
G1 X11.956 Y-3.100 E1.4417
G1 X11.956 Y-33.900 E2.4661
; outer perimeter
G1 X11.556 Y-34.300 F1800
G92 E0
G1 X17.538 Y-34.300 E0.1990 F720
G1 X18.198 Y-33.073 E0.2453
G1 X18.549 Y-32.361 E0.2717
G1 X19.199 Y-30.907 E0.3247
G1 X19.776 Y-29.423 E0.3776
G1 X20.280 Y-27.912 E0.4306
G1 X20.502 Y-27.150 E0.4570
G1 X20.893 Y-25.606 E0.5100
G1 X21.206 Y-24.043 E0.5630
G1 X21.333 Y-23.260 E0.5894
G1 X21.529 Y-21.679 E0.6424
G1 X21.652 Y-19.999 E0.6984
G1 X21.666 Y-19.569 E0.7127
G1 X21.524 Y-19.607 E0.7176
G1 X21.320 Y-19.537 E0.7248
G1 X21.203 Y-19.422 E0.7302
G1 X21.092 Y-19.234 E0.7375
G1 X20.990 Y-18.739 E0.7543
G1 X20.990 Y-18.261 E0.7702
G1 X21.090 Y-17.775 E0.7867
G1 X21.133 Y-17.685 E0.7900
G1 X21.238 Y-17.537 E0.7960
G1 X21.370 Y-17.436 E0.8016
G1 X21.524 Y-17.397 E0.8069
G1 X21.666 Y-17.422 E0.8117
G1 X21.598 Y-16.113 E0.8553
G1 X21.530 Y-15.322 E0.8817
G1 X21.333 Y-13.741 E0.9346
G1 X21.059 Y-12.173 E0.9876
G1 X20.707 Y-10.620 E1.0405
G1 X20.279 Y-9.087 E1.0935
G1 X19.776 Y-7.575 E1.1465
G1 X19.497 Y-6.831 E1.1729
G1 X19.200 Y-6.094 E1.1993
