; G-Code generated by Simplify3D(R) Version 4.0.0
; Dec 27, 2017 at 4:37:39 AM
; Settings Summary
;   processName,0.3
;   applyToModels,bottom_name
;   profileName,MP Mini Delta23 (modified)
;   profileVersion,2017-10-15 16:31:22
;   baseProfile,Monoprice MP Mini Delta
;   printMaterial,eSun PLA+ - Solid Red
;   printQuality,0.08
;   printExtruders,
;   extruderName,Primary Extruder
;   extruderToolheadNumber,0
;   extruderDiameter,0.4
;   extruderAutoWidth,0
;   extruderWidth,0.4
;   extrusionMultiplier,1
;   extruderUseRetract,1
;   extruderRetractionDistance,3
;   extruderExtraRestartDistance,0
;   extruderRetractionZLift,0
;   extruderRetractionSpeed,2700
;   extruderUseCoasting,0
;   extruderCoastingDistance,0.2
;   extruderUseWipe,0
;   extruderWipeDistance,5
;   primaryExtruder,0
;   layerHeight,0.3
;   topSolidLayers,3
;   bottomSolidLayers,3
;   perimeterOutlines,3
;   printPerimetersInsideOut,1
;   startPointOption,2
;   startPointOriginX,0
;   startPointOriginY,0
;   sequentialIslands,0
;   spiralVaseMode,0
;   firstLayerHeightPercentage,150
;   firstLayerWidthPercentage,100
;   firstLayerUnderspeed,0.4
;   useRaft,0
;   raftExtruder,0
;   raftTopLayers,3
;   raftBaseLayers,2
;   raftOffset,5
;   raftSeparationDistance,0.14
;   raftTopInfill,100
;   aboveRaftSpeedMultiplier,0.3
;   useSkirt,0
;   skirtExtruder,0
;   skirtLayers,1
;   skirtOutlines,5
;   skirtOffset,0
;   usePrimePillar,0
;   primePillarExtruder,999
;   primePillarWidth,12
;   primePillarLocation,0
;   primePillarSpeedMultiplier,1
;   useOozeShield,0
;   oozeShieldExtruder,999
;   oozeShieldOffset,2
;   oozeShieldOutlines,1
;   oozeShieldSidewallShape,1
;   oozeShieldSidewallAngle,30
;   oozeShieldSpeedMultiplier,1
;   infillExtruder,0
;   internalInfillPattern,Full Honeycomb
;   externalInfillPattern,Rectilinear
;   infillPercentage,20
;   outlineOverlapPercentage,45
;   infillExtrusionWidthPercentage,100
;   minInfillLength,5
;   infillLayerInterval,1
;   internalInfillAngles,0,120,-120
;   overlapInternalInfillAngles,0
;   externalInfillAngles,45,-45
;   generateSupport,1
;   supportExtruder,0
;   supportInfillPercentage,40
;   supportExtraInflation,0
;   supportBaseLayers,0
;   denseSupportExtruder,0
;   denseSupportLayers,0
;   denseSupportInfillPercentage,70
;   supportLayerInterval,1
;   supportHorizontalPartOffset,0
;   supportUpperSeparationLayers,0
;   supportLowerSeparationLayers,0
;   supportType,0
;   supportGridSpacing,1
;   maxOverhangAngle,45
;   supportAngles,0
;   temperatureName,Primary Extruder,Heated Bed
;   temperatureNumber,0,0
;   temperatureSetpointCount,5,1
;   temperatureSetpointLayers,1,3,6,9,12,1
;   temperatureSetpointTemperatures,208,205,202,198,195,30
;   temperatureStabilizeAtStartup,1,1
;   temperatureHeatedBed,0,1
;   temperatureRelayBetweenLayers,0,0
;   temperatureRelayBetweenLoops,0,0
;   fanLayers,1,2,3
;   fanSpeeds,0,25,50
;   blipFanToFullPower,1
;   adjustSpeedForCooling,1
;   minSpeedLayerTime,15
;   minCoolingSpeedSlowdown,20
;   increaseFanForCooling,0
;   minFanLayerTime,45
;   maxCoolingFanSpeed,100
;   increaseFanForBridging,0
;   bridgingFanSpeed,100
;   use5D,1
;   relativeEdistances,0
;   allowEaxisZeroing,1
;   independentExtruderAxes,0
;   includeM10123,0
;   stickySupport,1
;   applyToolheadOffsets,0
;   gcodeXoffset,0
;   gcodeYoffset,0
;   gcodeZoffset,0.2
;   overrideMachineDefinition,1
;   machineTypeOverride,1
;   strokeXoverride,77.8
;   strokeYoverride,77.8
;   strokeZoverride,120
;   originOffsetXoverride,38.9
;   originOffsetYoverride,38.9
;   originOffsetZoverride,0
;   homeXdirOverride,0
;   homeYdirOverride,0
;   homeZdirOverride,-1
;   flipXoverride,1
;   flipYoverride,-1
;   flipZoverride,1
;   toolheadOffsets,0,0|0,0|0,0|0,0|0,0|0,0
;   overrideFirmwareConfiguration,1
;   firmwareTypeOverride,RepRap (Marlin/Repetier/Sprinter)
;   GPXconfigOverride,r2
;   baudRateOverride,115200
;   overridePrinterModels,1
;   printerModelsOverride,MP_Mini_Delta_Platform.stl
;   startingGcode,G90 ; absolute positioning - this line was added in case Cura doesn't include it by default,M82 ; set extruder to absolute mode - this line was added in case Cura doesn't include it by default (may not be needed),M107; start with the fan off (I don't think this is possible),G28 ; Start from home position,G29 C-0.8 Z0.3 ; probe the bed at 3 points with a 0.3mm overall vertical offset and an additional -0.8mm center offset ,G1 Z15.0 F4800  ; move the nozzle up 15mm,G92 E0 ; reset extrusion distance,G1 F200 E3 ; extrude 3mm of feed stock,G92 E0 ; reset extrusion distance again,G1 F4800
;   layerChangeGcode,
;   retractionGcode,
;   toolChangeGcode,
;   endingGcode,M104 S0 ; nozzle heater off,M140 S0 ; heated bed heater off (if you have it),G91 ; relative positioning,G1 E-1 F300 ; retract the filament a bit before lifting the nozzle, to release some of the pressure,G1 Z+0.5 E-5 X-20 Y-20 F4800 ; move Z up a bit and retract filament even more,G28 X0 Y0 ; move X/Y to min endstops, so the head is out of the way,M84 ; steppers off,G90 ; absolute positioning
;   exportFileFormat,gcode
;   celebration,0
;   celebrationSong,Random Song
;   postProcessing,
;   defaultSpeed,3600
;   outlineUnderspeed,1
;   solidInfillUnderspeed,1
;   supportUnderspeed,1
;   rapidXYspeed,3600
;   rapidZspeed,1002
;   minBridgingArea,50
;   bridgingExtraInflation,0
;   bridgingExtrusionMultiplier,1
;   bridgingSpeedMultiplier,1
;   useFixedBridgingAngle,0
;   fixedBridgingAngle,0
;   applyBridgingToPerimeters,0
;   filamentDiameters,1.75|1.75|1.75|1.75|1.75|1.75
;   filamentPricesPerKg,25|25|25|25|25|25
;   filamentDensities,1.25|1.25|1.25|1.25|1.25|1.25
;   useMinPrintHeight,0
;   minPrintHeight,42
;   useMaxPrintHeight,0
;   maxPrintHeight,0
;   useDiaphragm,0
;   diaphragmLayerInterval,20
;   robustSlicing,1
;   mergeAllIntoSolid,0
;   onlyRetractWhenCrossingOutline,1
;   retractBetweenLayers,1
;   useRetractionMinTravel,0
;   retractionMinTravel,3
;   retractWhileWiping,1
;   onlyWipeOutlines,1
;   avoidCrossingOutline,1
;   maxMovementDetourFactor,3
;   toolChangeRetractionDistance,12
;   toolChangeExtraRestartDistance,-0.5
;   toolChangeRetractionSpeed,600
;   externalThinWallType,1
;   internalThinWallType,1
;   thinWallAllowedOverlapPercentage,100
;   singleExtrusionMinLength,0.4
;   singleExtrusionMinPrintingWidthPercentage,50
;   singleExtrusionMaxPrintingWidthPercentage,200
;   singleExtrusionEndpointExtension,0.2
;   horizontalSizeCompensation,0
G90
M82
M106 S255
G4 P500
M106 S0
M140 S30
M190 S30
M104 S208 T0
M109 S208 T0
G90 ; absolute positioning - this line was added in case Cura doesn't include it by default
M82 ; set extruder to absolute mode - this line was added in case Cura doesn't include it by default (may not be needed)
M107; start with the fan off (I don't think this is possible)
G28 ; Start from home position
G29 C-0.8 Z0.3 ; probe the bed at 3 points with a 0.3mm overall vertical offset and an additional -0.8mm center offset 
G1 Z15.0 F4800  ; move the nozzle up 15mm
G92 E0 ; reset extrusion distance
G1 F200 E3 ; extrude 3mm of feed stock
G92 E0 ; reset extrusion distance again
G1 F4800
G92 E0
G1 E-3.0000 F2700
G1 Z0.650 F1002
; process 0.3
; layer 1, Z = 0.450
T0
; tool H0.450 W0.400
; inner perimeter
G1 X-19.000 Y-37.900 F3600
G1 E0.0000 F810
G92 E0
G1 X19.000 Y-37.900 E2.8437 F1440
G1 X19.000 Y40.100 E8.6809
G1 X-19.000 Y40.100 E11.5246
G1 X-19.000 Y-37.900 E17.3618
G1 X-19.400 Y-38.300 F3600
G92 E0
G1 X19.400 Y-38.300 E2.9036 F1440
G1 X19.400 Y40.500 E8.8006
G1 X-19.400 Y40.500 E11.7042
G1 X-19.400 Y-38.300 E17.6013
; outer perimeter
G1 X-19.800 Y-38.700 F3600
G92 E0
G1 X19.800 Y-38.700 E2.9635 F1440
G1 X19.800 Y40.900 E8.9204
G1 X-19.800 Y40.900 E11.8838
G1 X-19.800 Y-38.700 E17.8407
; solid layer
G1 X18.354 Y-37.680 F3600
G92 E0
G1 X18.780 Y-37.254 E0.0451 F1440
G1 X18.780 Y-36.689 E0.0874
G1 X17.789 Y-37.680 E0.1923
G1 X17.223 Y-37.680 E0.2347
G1 X18.780 Y-36.123 E0.3994
G1 X18.780 Y-35.557 E0.4418
G1 X16.657 Y-37.680 E0.6664
G1 X16.091 Y-37.680 E0.7088
G1 X18.780 Y-34.991 E0.9933
G1 X18.780 Y-34.426 E1.0356
G1 X15.526 Y-37.680 E1.3800
G1 X14.960 Y-37.680 E1.4224
G1 X18.780 Y-33.860 E1.8266
G1 X18.780 Y-33.294 E1.8690
G1 X14.394 Y-37.680 E2.3331
G1 X13.829 Y-37.680 E2.3755
G1 X18.780 Y-32.729 E2.8995
G1 X18.780 Y-32.163 E2.9418
G1 X13.263 Y-37.680 E3.5257
G1 X12.697 Y-37.680 E3.5680
G1 X18.780 Y-31.597 E4.2117
G1 X18.780 Y-31.032 E4.2541
G1 X12.132 Y-37.680 E4.9577
G1 X11.566 Y-37.680 E5.0000
G1 X18.780 Y-30.466 E5.7635
G1 X18.780 Y-29.900 E5.8058
G1 X11.000 Y-37.680 E6.6292
G1 X10.435 Y-37.680 E6.6715
G1 X18.780 Y-29.335 E7.5547
G1 X18.780 Y-28.769 E7.5971
G1 X9.869 Y-37.680 E8.5401
G1 X9.303 Y-37.680 E8.5825
G1 X18.780 Y-28.203 E9.5854
G1 X18.780 Y-27.638 E9.6278
G1 X8.738 Y-37.680 E10.6906
G1 X8.172 Y-37.680 E10.7329
G1 X18.780 Y-27.072 E11.8556
G1 X18.780 Y-26.506 E11.8979
G1 X7.606 Y-37.680 E13.0805
G1 X7.041 Y-37.680 E13.1228
G1 X18.780 Y-25.941 E14.3652
G1 X18.780 Y-25.375 E14.4076
G1 X6.475 Y-37.680 E15.7099
G1 X5.909 Y-37.680 E15.7522
G1 X18.780 Y-24.809 E17.1144
G1 X18.780 Y-24.243 E17.1567
G1 X5.343 Y-37.680 E18.5787
G1 X4.778 Y-37.680 E18.6211
G1 X18.780 Y-23.678 E20.1030
G1 X18.780 Y-23.112 E20.1453
G1 X4.212 Y-37.680 E21.6871
G1 X3.646 Y-37.680 E21.7294
G1 X18.780 Y-22.546 E23.3310
G1 X18.780 Y-21.981 E23.3734
G1 X3.081 Y-37.680 E25.0349
G1 X2.515 Y-37.680 E25.0772
G1 X18.780 Y-21.415 E26.7986
G1 X18.780 Y-20.849 E26.8409
G1 X1.949 Y-37.680 E28.6221
G1 X1.384 Y-37.680 E28.6645
G1 X18.780 Y-20.284 E30.5056
G1 X18.780 Y-19.718 E30.5479
G1 X0.818 Y-37.680 E32.4489
G1 X0.252 Y-37.680 E32.4912
G1 X18.780 Y-19.152 E34.4521
G1 X18.780 Y-18.587 E34.4944
G1 X-0.313 Y-37.680 E36.5151
G1 X-0.879 Y-37.680 E36.5574
G1 X18.780 Y-18.021 E38.6380
G1 X18.780 Y-17.455 E38.6803
G1 X-1.445 Y-37.680 E40.8208
G1 X-2.010 Y-37.680 E40.8631
G1 X18.780 Y-16.890 E43.0634
G1 X18.780 Y-16.324 E43.1058
G1 X-2.576 Y-37.680 E45.3660
G1 X-3.142 Y-37.680 E45.4083
G1 X18.780 Y-15.758 E47.7283
G1 X18.780 Y-15.193 E47.7707
G1 X-3.707 Y-37.680 E50.1506
G1 X-4.273 Y-37.680 E50.1929
G1 X18.780 Y-14.627 E52.6327
G1 X18.780 Y-14.061 E52.6751
G1 X-4.839 Y-37.680 E55.1747
G1 X-5.405 Y-37.680 E55.2170
G1 X18.780 Y-13.495 E57.7766
G1 X18.780 Y-12.930 E57.8189
G1 X-5.970 Y-37.680 E60.4383
G1 X-6.536 Y-37.680 E60.4806
G1 X18.780 Y-12.364 E63.1599
G1 X18.780 Y-11.798 E63.2022
G1 X-7.102 Y-37.680 E65.9414
G1 X-7.667 Y-37.680 E65.9837
G1 X18.780 Y-11.233 E68.7827
G1 X18.780 Y-10.667 E68.8250
G1 X-8.233 Y-37.680 E71.6839
G1 X-8.799 Y-37.680 E71.7262
G1 X18.780 Y-10.101 E74.6450
G1 X18.780 Y-9.536 E74.6873
G1 X-9.364 Y-37.680 E77.6659
G1 X-9.930 Y-37.680 E77.7082
G1 X18.780 Y-8.970 E80.7467
G1 X18.780 Y-8.404 E80.7890
G1 X-10.496 Y-37.680 E83.8874
G1 X-11.061 Y-37.680 E83.9297
G1 X18.780 Y-7.839 E87.0879
G1 X18.780 Y-7.273 E87.1303
G1 X-11.627 Y-37.680 E90.3483
G1 X-12.193 Y-37.680 E90.3907
G1 X18.780 Y-6.707 E93.6686
G1 X18.780 Y-6.142 E93.7109
G1 X-12.758 Y-37.680 E97.0488
G1 X-13.324 Y-37.680 E97.0911
G1 X18.780 Y-5.576 E100.4888
G1 X18.780 Y-5.010 E100.5311
G1 X-13.890 Y-37.680 E103.9886
G1 X-14.456 Y-37.680 E104.0310
G1 X18.780 Y-4.444 E107.5484
G1 X18.780 Y-3.879 E107.5907
G1 X-15.021 Y-37.680 E111.1680
G1 X-15.587 Y-37.680 E111.2104
G1 X18.780 Y-3.313 E114.8475
G1 X18.780 Y-2.747 E114.8898
G1 X-16.153 Y-37.680 E118.5869
G1 X-16.718 Y-37.680 E118.6292
G1 X18.780 Y-2.182 E122.3861
G1 X18.780 Y-1.616 E122.4284
G1 X-17.284 Y-37.680 E126.2452
G1 X-17.850 Y-37.680 E126.2875
G1 X18.780 Y-1.050 E130.1641
G1 X18.780 Y-0.485 E130.2065
G1 X-18.415 Y-37.680 E134.1430
G1 X-18.780 Y-37.680 E134.1703
G1 X-18.780 Y-37.479 E134.1853
G1 X18.780 Y0.081 E138.1604
G1 X18.780 Y0.647 E138.2027
G1 X-18.780 Y-36.913 E142.1778
G1 X-18.780 Y-36.348 E142.2201
G1 X18.780 Y1.212 E146.1952
G1 X18.780 Y1.778 E146.2376
G1 X-18.780 Y-35.782 E150.2127
G1 X-18.780 Y-35.216 E150.2550
G1 X18.780 Y2.344 E154.2301
G1 X18.780 Y2.909 E154.2724
G1 X-18.780 Y-34.651 E158.2475
G1 X-18.780 Y-34.085 E158.2898
G1 X18.780 Y3.475 E162.2649
G1 X18.780 Y4.041 E162.3073
G1 X-18.780 Y-33.519 E166.2824
G1 X-18.780 Y-32.954 E166.3247
G1 X18.780 Y4.606 E170.2998
G1 X18.780 Y5.172 E170.3421
G1 X-18.780 Y-32.388 E174.3172
G1 X-18.780 Y-31.822 E174.3595
G1 X18.780 Y5.738 E178.3346
G1 X18.780 Y6.304 E178.3770
G1 X-18.780 Y-31.256 E182.3521
G1 X-18.780 Y-30.691 E182.3944
G1 X18.780 Y6.869 E186.3695
G1 X18.780 Y7.435 E186.4118
G1 X-18.780 Y-30.125 E190.3869
G1 X-18.780 Y-29.559 E190.4292
G1 X18.780 Y8.001 E194.4043
G1 X18.780 Y8.566 E194.4467
G1 X-18.780 Y-28.994 E198.4218
G1 X-18.780 Y-28.428 E198.4641
G1 X18.780 Y9.132 E202.4392
G1 X18.780 Y9.698 E202.4815
G1 X-18.780 Y-27.862 E206.4566
G1 X-18.780 Y-27.297 E206.4989
G1 X18.780 Y10.263 E210.4740
G1 X18.780 Y10.829 E210.5164
G1 X-18.780 Y-26.731 E214.4915
G1 X-18.780 Y-26.165 E214.5338
G1 X18.780 Y11.395 E218.5089
G1 X18.780 Y11.960 E218.5512
G1 X-18.780 Y-25.600 E222.5263
G1 X-18.780 Y-25.034 E222.5686
G1 X18.780 Y12.526 E226.5437
G1 X18.780 Y13.092 E226.5861
G1 X-18.780 Y-24.468 E230.5612
G1 X-18.780 Y-23.903 E230.6035
G1 X18.780 Y13.657 E234.5786
G1 X18.780 Y14.223 E234.6209
G1 X-18.780 Y-23.337 E238.5960
G1 X-18.780 Y-22.771 E238.6383
G1 X18.780 Y14.789 E242.6134
G1 X18.780 Y15.355 E242.6558
G1 X-18.780 Y-22.205 E246.6309
G1 X-18.780 Y-21.640 E246.6732
G1 X18.780 Y15.920 E250.6483
G1 X18.780 Y16.486 E250.6906
G1 X-18.780 Y-21.074 E254.6657
G1 X-18.780 Y-20.508 E254.7080
G1 X18.780 Y17.052 E258.6831
G1 X18.780 Y17.617 E258.7255
G1 X-18.780 Y-19.943 E262.7006
G1 X-18.780 Y-19.377 E262.7429
G1 X18.780 Y18.183 E266.7180
G1 X18.780 Y18.749 E266.7603
G1 X-18.780 Y-18.811 E270.7354
G1 X-18.780 Y-18.246 E270.7777
G1 X18.780 Y19.314 E274.7528
G1 X18.780 Y19.880 E274.7952
G1 X-18.780 Y-17.680 E278.7702
G1 X-18.780 Y-17.114 E278.8126
G1 X18.780 Y20.446 E282.7877
G1 X18.780 Y21.011 E282.8300
G1 X-18.780 Y-16.549 E286.8051
G1 X-18.780 Y-15.983 E286.8474
G1 X18.780 Y21.577 E290.8225
G1 X18.780 Y22.143 E290.8649
G1 X-18.780 Y-15.417 E294.8399
G1 X-18.780 Y-14.852 E294.8823
G1 X18.780 Y22.708 E298.8574
G1 X18.780 Y23.274 E298.8997
G1 X-18.780 Y-14.286 E302.8748
G1 X-18.780 Y-13.720 E302.9171
G1 X18.780 Y23.840 E306.8922
G1 X18.780 Y24.405 E306.9346
G1 X-18.780 Y-13.155 E310.9096
G1 X-18.780 Y-12.589 E310.9520
G1 X18.780 Y24.971 E314.9271
G1 X18.780 Y25.537 E314.9694
G1 X-18.780 Y-12.023 E318.9445
G1 X-18.780 Y-11.457 E318.9868
G1 X18.780 Y26.103 E322.9619
G1 X18.780 Y26.668 E323.0043
G1 X-18.780 Y-10.892 E326.9793
G1 X-18.780 Y-10.326 E327.0217
G1 X18.780 Y27.234 E330.9968
G1 X18.780 Y27.800 E331.0391
G1 X-18.780 Y-9.760 E335.0142
G1 X-18.780 Y-9.195 E335.0565
G1 X18.780 Y28.365 E339.0316
G1 X18.780 Y28.931 E339.0739
G1 X-18.780 Y-8.629 E343.0490
G1 X-18.780 Y-8.063 E343.0914
G1 X18.780 Y29.497 E347.0665
G1 X18.780 Y30.062 E347.1088
G1 X-18.780 Y-7.498 E351.0839
G1 X-18.780 Y-6.932 E351.1262
G1 X18.780 Y30.628 E355.1013
G1 X18.780 Y31.194 E355.1436
G1 X-18.780 Y-6.366 E359.1187
G1 X-18.780 Y-5.801 E359.1611
G1 X18.780 Y31.759 E363.1362
G1 X18.780 Y32.325 E363.1785
G1 X-18.780 Y-5.235 E367.1536
G1 X-18.780 Y-4.669 E367.1959
G1 X18.780 Y32.891 E371.1710
G1 X18.780 Y33.456 E371.2133
G1 X-18.780 Y-4.104 E375.1884
G1 X-18.780 Y-3.538 E375.2308
G1 X18.780 Y34.022 E379.2059
G1 X18.780 Y34.588 E379.2482
G1 X-18.780 Y-2.972 E383.2233
G1 X-18.780 Y-2.407 E383.2656
G1 X18.780 Y35.153 E387.2407
G1 X18.780 Y35.719 E387.2830
G1 X-18.780 Y-1.841 E391.2581
G1 X-18.780 Y-1.275 E391.3005
G1 X18.780 Y36.285 E395.2756
G1 X18.780 Y36.851 E395.3179
G1 X-18.780 Y-0.709 E399.2930
G1 X-18.780 Y-0.144 E399.3353
G1 X18.780 Y37.416 E403.3104
G1 X18.780 Y37.982 E403.3527
G1 X-18.780 Y0.422 E407.3278
G1 X-18.780 Y0.988 E407.3702
G1 X18.780 Y38.548 E411.3453
G1 X18.780 Y39.113 E411.3876
G1 X-18.780 Y1.553 E415.3627
G1 X-18.780 Y2.119 E415.4050
G1 X18.780 Y39.679 E419.3801
G1 X18.780 Y39.880 E419.3951
G1 X18.415 Y39.880 E419.4224
G1 X-18.780 Y2.685 E423.3589
G1 X-18.780 Y3.250 E423.4013
G1 X17.850 Y39.880 E427.2779
G1 X17.284 Y39.880 E427.3202
