; G-Code generated by Simplify3D(R) Version 4.0.0
; Mar 21, 2018 at 6:59:55 PM
; Settings Summary
;   processName,colorfab black jupiter
;   applyToModels,leftsmallguard,rightsmallguard
;   profileName,MP Mini Delta23 (modified)
;   profileVersion,2017-10-15 16:31:22
;   baseProfile,Monoprice MP Mini Delta
;   printMaterial,eSun PLA+ - Solid Red
;   printQuality,0.08
;   printExtruders,
;   extruderName,Primary Extruder
;   extruderToolheadNumber,0
;   extruderDiameter,0.4
;   extruderAutoWidth,0
;   extruderWidth,0.4
;   extrusionMultiplier,0.95
;   extruderUseRetract,1
;   extruderRetractionDistance,8
;   extruderExtraRestartDistance,0
;   extruderRetractionZLift,0
;   extruderRetractionSpeed,3000
;   extruderUseCoasting,0
;   extruderCoastingDistance,0.2
;   extruderUseWipe,0
;   extruderWipeDistance,5
;   primaryExtruder,0
;   layerHeight,0.1
;   topSolidLayers,8
;   bottomSolidLayers,8
;   perimeterOutlines,3
;   printPerimetersInsideOut,0
;   startPointOption,2
;   startPointOriginX,0
;   startPointOriginY,0
;   sequentialIslands,0
;   spiralVaseMode,0
;   firstLayerHeightPercentage,100
;   firstLayerWidthPercentage,100
;   firstLayerUnderspeed,0.4
;   useRaft,0
;   raftExtruder,0
;   raftTopLayers,3
;   raftBaseLayers,2
;   raftOffset,2
;   raftSeparationDistance,0.14
;   raftTopInfill,100
;   aboveRaftSpeedMultiplier,0.3
;   useSkirt,0
;   skirtExtruder,0
;   skirtLayers,3
;   skirtOutlines,5
;   skirtOffset,0
;   usePrimePillar,0
;   primePillarExtruder,999
;   primePillarWidth,6
;   primePillarLocation,0
;   primePillarSpeedMultiplier,1
;   useOozeShield,0
;   oozeShieldExtruder,999
;   oozeShieldOffset,2
;   oozeShieldOutlines,1
;   oozeShieldSidewallShape,1
;   oozeShieldSidewallAngle,30
;   oozeShieldSpeedMultiplier,1
;   infillExtruder,0
;   internalInfillPattern,Fast Honeycomb
;   externalInfillPattern,Rectilinear
;   infillPercentage,20
;   outlineOverlapPercentage,45
;   infillExtrusionWidthPercentage,100
;   minInfillLength,5
;   infillLayerInterval,3
;   internalInfillAngles,0
;   overlapInternalInfillAngles,0
;   externalInfillAngles,45,-45
;   generateSupport,1
;   supportExtruder,0
;   supportInfillPercentage,40
;   supportExtraInflation,0.6
;   supportBaseLayers,1
;   denseSupportExtruder,0
;   denseSupportLayers,0
;   denseSupportInfillPercentage,70
;   supportLayerInterval,2
;   supportHorizontalPartOffset,0.2
;   supportUpperSeparationLayers,0
;   supportLowerSeparationLayers,0
;   supportType,0
;   supportGridSpacing,1
;   maxOverhangAngle,45
;   supportAngles,90
;   temperatureName,Primary Extruder,Heated Bed
;   temperatureNumber,0,0
;   temperatureSetpointCount,1,1
;   temperatureSetpointLayers,1,1
;   temperatureSetpointTemperatures,195,30
;   temperatureStabilizeAtStartup,1,1
;   temperatureHeatedBed,0,1
;   temperatureRelayBetweenLayers,0,0
;   temperatureRelayBetweenLoops,0,0
;   fanLayers,1,2,3
;   fanSpeeds,0,60,100
;   blipFanToFullPower,1
;   adjustSpeedForCooling,1
;   minSpeedLayerTime,15
;   minCoolingSpeedSlowdown,20
;   increaseFanForCooling,0
;   minFanLayerTime,45
;   maxCoolingFanSpeed,100
;   increaseFanForBridging,0
;   bridgingFanSpeed,100
;   use5D,1
;   relativeEdistances,0
;   allowEaxisZeroing,1
;   independentExtruderAxes,0
;   includeM10123,0
;   stickySupport,1
;   applyToolheadOffsets,0
;   gcodeXoffset,0
;   gcodeYoffset,0
;   gcodeZoffset,0.25
;   overrideMachineDefinition,1
;   machineTypeOverride,1
;   strokeXoverride,77.8
;   strokeYoverride,77.8
;   strokeZoverride,120
;   originOffsetXoverride,38.9
;   originOffsetYoverride,38.9
;   originOffsetZoverride,0
;   homeXdirOverride,0
;   homeYdirOverride,0
;   homeZdirOverride,-1
;   flipXoverride,1
;   flipYoverride,-1
;   flipZoverride,1
;   toolheadOffsets,0,0|0,0|0,0|0,0|0,0|0,0
;   overrideFirmwareConfiguration,1
;   firmwareTypeOverride,RepRap (Marlin/Repetier/Sprinter)
;   GPXconfigOverride,r2
;   baudRateOverride,115200
;   overridePrinterModels,1
;   printerModelsOverride,MP_Mini_Delta_Platform.stl
;   startingGcode,G90 ; absolute positioning - this line was added in case Cura doesn't include it by default,M82 ; set extruder to absolute mode - this line was added in case Cura doesn't include it by default (may not be needed),M107; start with the fan off (I don't think this is possible),G28 ; Start from home position,G29 C-0.8 Z0.3 ; probe the bed at 3 points with a 0.3mm overall vertical offset and an additional -0.8mm center offset ,G1 Z15.0 F4800  ; move the nozzle up 15mm,G92 E0 ; reset extrusion distance,G1 F200 E3 ; extrude 3mm of feed stock,G92 E0 ; reset extrusion distance again,G1 F4800
;   layerChangeGcode,
;   retractionGcode,
;   toolChangeGcode,
;   endingGcode,M104 S0 ; turn off hotend heater,M140 S0 ; turn off bed heater,G91 ; Switch to use Relative Coordinates,G1 E-3 F700 ; retract the filament a bit before lifting the nozzle to release some of the pressure,G1 Z2 F1000 ; raise platform 2mm from current position,G1 E-2 F700 ; retract filament even more,G90 ; Switch back to using absolute coordinates,G28 X ; Return to home position. Without an X Y or Z after G28 the print completion time will not be displayed on the Mini Delta's display.,M84 ; disable motors,G4 S360 ; pause for 360 seconds to keep fan running to cool hotend and allow the fan to be turned off,M107 ; turn off fan. Some say M107 doesn't work for them but if the hotend is cool enough it should work,;M106 S1 ; turn off fan. Remove the semicolon in front of M106 if M107 doesn't work for you
;   exportFileFormat,gcode
;   celebration,0
;   celebrationSong,Random Song
;   postProcessing,
;   defaultSpeed,2400
;   outlineUnderspeed,1
;   solidInfillUnderspeed,1
;   supportUnderspeed,1
;   rapidXYspeed,2400
;   rapidZspeed,1002
;   minBridgingArea,50
;   bridgingExtraInflation,0
;   bridgingExtrusionMultiplier,0.9
;   bridgingSpeedMultiplier,1
;   useFixedBridgingAngle,0
;   fixedBridgingAngle,0
;   applyBridgingToPerimeters,0
;   filamentDiameters,1.75|1.75|1.75|1.75|1.75|1.75
;   filamentPricesPerKg,48|25|25|25|25|25
;   filamentDensities,1.25|1.25|1.25|1.25|1.25|1.25
;   useMinPrintHeight,0
;   minPrintHeight,42
;   useMaxPrintHeight,0
;   maxPrintHeight,0
;   useDiaphragm,0
;   diaphragmLayerInterval,20
;   robustSlicing,1
;   mergeAllIntoSolid,0
;   onlyRetractWhenCrossingOutline,1
;   retractBetweenLayers,1
;   useRetractionMinTravel,0
;   retractionMinTravel,3
;   retractWhileWiping,1
;   onlyWipeOutlines,1
;   avoidCrossingOutline,1
;   maxMovementDetourFactor,5
;   toolChangeRetractionDistance,12
;   toolChangeExtraRestartDistance,-0.5
;   toolChangeRetractionSpeed,600
;   externalThinWallType,1
;   internalThinWallType,1
;   thinWallAllowedOverlapPercentage,100
;   singleExtrusionMinLength,0.4
;   singleExtrusionMinPrintingWidthPercentage,50
;   singleExtrusionMaxPrintingWidthPercentage,200
;   singleExtrusionEndpointExtension,0.2
;   horizontalSizeCompensation,0
G90
M82
M106 S255
G4 P500
M106 S0
M140 S30
M190 S30
M104 S195 T0
M109 S195 T0
G90 ; absolute positioning - this line was added in case Cura doesn't include it by default
M82 ; set extruder to absolute mode - this line was added in case Cura doesn't include it by default (may not be needed)
M107; start with the fan off (I don't think this is possible)
G28 ; Start from home position
G29 C-0.8 Z0.3 ; probe the bed at 3 points with a 0.3mm overall vertical offset and an additional -0.8mm center offset 
G1 Z15.0 F4800  ; move the nozzle up 15mm
G92 E0 ; reset extrusion distance
G1 F200 E3 ; extrude 3mm of feed stock
G92 E0 ; reset extrusion distance again
G1 F4800
G92 E0
G1 E-8.0000 F3000
G1 Z0.350 F1002
; process colorfab black jupiter
; layer 1, Z = 0.100
T0
; tool H0.100 W0.400
; outer perimeter
G1 X-27.362 Y-2.262 F2400
G1 E0.0000 F900
G92 E0
G1 X-27.390 Y6.097 E0.1321 F960
G1 X-30.016 Y6.100 E0.1736
G1 X-29.973 Y-6.748 E0.3765
G1 X-29.093 Y-6.742 E0.3904
G1 X-27.362 Y-2.262 E0.4663
; inner perimeter
G1 X-27.763 Y-2.188 F2400
G92 E0
G1 X-27.789 Y5.698 E0.1246 F960
G1 X-29.615 Y5.700 E0.1534
G1 X-29.575 Y-6.345 E0.3437
G1 X-29.368 Y-6.344 E0.3470
G1 X-27.763 Y-2.188 E0.4174
G1 X-28.163 Y-2.114 F2400
G92 E0
G1 X-28.188 Y5.298 E0.1171 F960
G1 X-29.214 Y5.299 E0.1333
G1 X-29.180 Y-4.748 E0.2920
G1 X-28.163 Y-2.114 E0.3366
; solid layer
G1 X-28.965 Y-3.087 F2400
G92 E0
G1 X-28.654 Y-2.775 E0.0070 F960
G1 X-28.383 Y-2.074 E0.0188
G1 X-28.383 Y-1.939 E0.0210
G1 X-28.967 Y-2.523 E0.0340
G1 X-28.969 Y-1.959 E0.0429
G1 X-28.385 Y-1.375 E0.0560
G1 X-28.387 Y-0.811 E0.0649
G1 X-28.971 Y-1.395 E0.0779
G1 X-28.973 Y-0.831 E0.0868
G1 X-28.389 Y-0.248 E0.0999
G1 X-28.391 Y0.316 E0.1088
G1 X-28.975 Y-0.268 E0.1218
G1 X-28.977 Y0.296 E0.1307
G1 X-28.393 Y0.880 E0.1438
G1 X-28.395 Y1.444 E0.1527
G1 X-28.979 Y0.860 E0.1657
G1 X-28.981 Y1.424 E0.1746
G1 X-28.397 Y2.008 E0.1877
G1 X-28.398 Y2.571 E0.1966
G1 X-28.982 Y1.987 E0.2097
G1 X-28.984 Y2.551 E0.2186
G1 X-28.400 Y3.135 E0.2316
G1 X-28.402 Y3.699 E0.2405
G1 X-28.986 Y3.115 E0.2536
G1 X-28.988 Y3.679 E0.2625
G1 X-28.404 Y4.263 E0.2755
G1 X-28.406 Y4.827 E0.2844
G1 X-28.990 Y4.243 E0.2975
G1 X-28.992 Y4.806 E0.3064
G1 X-28.720 Y5.079 E0.3125
G92 E0
G1 E-8.0000 F3000
; outer perimeter
G1 X27.819 Y5.716 F2400
G1 E0.0000 F3000
G92 E0
G1 X27.967 Y-2.642 E0.1321 F960
G1 X29.791 Y-7.084 E0.2079
G1 X30.672 Y-7.071 E0.2219
G1 X30.445 Y5.774 E0.4248
G1 X27.819 Y5.716 E0.4663
; inner perimeter
G1 X28.226 Y5.325 F2400
G92 E0
G1 X28.366 Y-2.560 E0.1246 F960
G1 X30.058 Y-6.680 E0.1950
G1 X30.265 Y-6.677 E0.1982
G1 X30.052 Y5.365 E0.3885
G1 X28.226 Y5.325 E0.4174
G1 X28.633 Y4.934 F2400
G92 E0
G1 X28.764 Y-2.477 E0.1171 F960
G1 X29.837 Y-5.089 E0.1617
G1 X29.659 Y4.957 E0.3204
G1 X28.633 Y4.934 E0.3367
; solid layer
G1 X29.194 Y4.726 F2400
G92 E0
G1 X28.863 Y4.396 E0.0074 F960
G1 X28.873 Y3.840 E0.0162
G1 X29.448 Y4.416 E0.0290
G1 X29.458 Y3.860 E0.0378
G1 X28.883 Y3.284 E0.0507
G1 X28.892 Y2.728 E0.0595
G1 X29.468 Y3.304 E0.0723
G1 X29.478 Y2.748 E0.0811
G1 X28.902 Y2.172 E0.0940
G1 X28.912 Y1.616 E0.1028
G1 X29.488 Y2.192 E0.1156
G1 X29.498 Y1.636 E0.1244
G1 X28.922 Y1.061 E0.1373
G1 X28.932 Y0.505 E0.1461
G1 X29.507 Y1.080 E0.1589
G1 X29.517 Y0.525 E0.1677
G1 X28.942 Y-0.051 E0.1806
G1 X28.951 Y-0.607 E0.1894
G1 X29.527 Y-0.031 E0.2022
G1 X29.537 Y-0.587 E0.2110
G1 X28.961 Y-1.163 E0.2239
G1 X28.971 Y-1.719 E0.2327
G1 X29.547 Y-1.143 E0.2455
G1 X29.557 Y-1.699 E0.2543
G1 X28.981 Y-2.275 E0.2672
G1 X28.984 Y-2.432 E0.2697
G1 X29.102 Y-2.720 E0.2746
G1 X29.566 Y-2.255 E0.2849
G1 X29.576 Y-2.811 E0.2937
G1 X29.266 Y-3.121 E0.3007
G1 X29.431 Y-3.522 E0.3075
G1 X29.586 Y-3.366 E0.3110
G1 X29.596 Y-3.922 E0.3198
G92 E0
G1 E-8.0000 F3000
; support
G1 X28.404 Y-6.722 F2400
G1 E0.0000 F3000
G92 E0
G1 X28.404 Y-5.284 E0.0227 F960
G1 X28.004 Y-4.310 E0.0393
G1 X28.004 Y-6.722 E0.0774
G1 X27.604 Y-6.722 E0.0838
G1 X27.604 Y-3.336 E0.1372
G1 X27.369 Y-2.765 E0.1470
G1 X27.293 Y1.518 E0.2147
G1 X27.204 Y1.518 E0.2161
G1 X27.204 Y-6.722 E0.3463
G1 X26.804 Y-6.722 E0.3526
G1 X26.804 Y1.518 E0.4828
G1 X26.404 Y1.518 E0.4891
G1 X26.404 Y-6.722 E0.6193
G1 X26.004 Y-6.722 E0.6256
G1 X26.004 Y1.518 E0.7558
G1 X25.604 Y1.518 E0.7621
G1 X25.604 Y-6.722 E0.8923
G1 X25.204 Y-6.722 E0.8986
G1 X25.204 Y1.518 E1.0288
G1 X24.804 Y1.518 E1.0351
G1 X24.804 Y-6.722 E1.1653
G1 X24.404 Y-6.722 E1.1716
G1 X24.404 Y1.518 E1.3018
G92 E0
G1 E-8.0000 F3000
G1 X-23.596 Y-5.372 F2400
G1 E0.0000 F3000
G92 E0
G1 X-23.596 Y1.868 E0.1144 F960
G1 X-23.996 Y1.868 E0.1207
G1 X-23.996 Y-5.372 E0.2351
G1 X-24.396 Y-5.372 E0.2414
G1 X-24.396 Y1.868 E0.3558
G1 X-24.796 Y1.868 E0.3621
G1 X-24.796 Y-6.372 E0.4923
G1 X-25.196 Y-6.372 E0.4986
G1 X-25.196 Y1.868 E0.6288
G1 X-25.596 Y1.868 E0.6351
G1 X-25.596 Y-6.372 E0.7653
G1 X-25.996 Y-6.372 E0.7716
G1 X-25.996 Y1.868 E0.9018
G1 X-26.396 Y1.868 E0.9081
G1 X-26.396 Y-6.372 E1.0383
G1 X-26.796 Y-6.372 E1.0446
G1 X-26.796 Y-2.462 E1.1064
G1 X-27.196 Y-3.498 E1.1239
G1 X-27.196 Y-6.372 E1.1693
G1 X-27.596 Y-6.372 E1.1756
G1 X-27.596 Y-4.534 E1.2047
G92 E0
G1 E-8.0000 F3000
; layer 2, Z = 0.200
M106 S255
G4 P500
M106 S153
; outer perimeter
G1 X-27.348 Y-6.768 F2400
G1 Z0.450 F1002
G1 E0.0000 F3000
G92 E0
G1 X-27.391 Y6.152 E0.2041 F884
G1 X-30.017 Y6.155 E0.2456
G1 X-29.974 Y-6.784 E0.4500
G1 X-27.348 Y-6.768 E0.4915
; inner perimeter
G1 X-27.749 Y-6.370 F2400
G92 E0
G1 X-27.790 Y5.753 E0.1915 F884
G1 X-29.616 Y5.754 E0.2204
G1 X-29.575 Y-6.382 E0.4121
G1 X-27.749 Y-6.370 E0.4409
G1 X-28.151 Y-5.973 F2400
G92 E0
G1 X-28.189 Y5.353 E0.1789 F884
G1 X-29.215 Y5.354 E0.1951
G1 X-29.177 Y-5.979 E0.3742
G1 X-28.151 Y-5.973 E0.3904
; solid layer
G1 X-28.958 Y-5.450 F2400
G92 E0
G1 X-28.652 Y-5.756 E0.0068 F884
G1 X-28.371 Y-5.754 E0.0113
G1 X-28.372 Y-5.470 E0.0158
G1 X-28.960 Y-4.882 E0.0289
G1 X-28.962 Y-4.315 E0.0379
G1 X-28.374 Y-4.903 E0.0510
G1 X-28.376 Y-4.335 E0.0600
G1 X-28.964 Y-3.747 E0.0731
G1 X-28.966 Y-3.179 E0.0821
G1 X-28.378 Y-3.767 E0.0952
G1 X-28.380 Y-3.200 E0.1042
G1 X-28.968 Y-2.612 E0.1173
G1 X-28.970 Y-2.044 E0.1263
G1 X-28.382 Y-2.632 E0.1394
G1 X-28.384 Y-2.065 E0.1484
G1 X-28.972 Y-1.477 E0.1615
G1 X-28.974 Y-0.909 E0.1705
G1 X-28.386 Y-1.497 E0.1836
G1 X-28.388 Y-0.929 E0.1926
G1 X-28.975 Y-0.342 E0.2057
G1 X-28.977 Y0.226 E0.2147
G1 X-28.389 Y-0.362 E0.2278
G1 X-28.391 Y0.206 E0.2368
G1 X-28.979 Y0.794 E0.2499
G1 X-28.981 Y1.361 E0.2589
G1 X-28.393 Y0.773 E0.2720
G1 X-28.395 Y1.341 E0.2810
G1 X-28.983 Y1.929 E0.2941
G1 X-28.985 Y2.496 E0.3031
G1 X-28.397 Y1.908 E0.3162
G1 X-28.399 Y2.476 E0.3252
G1 X-28.987 Y3.064 E0.3383
G1 X-28.989 Y3.632 E0.3473
G1 X-28.401 Y3.044 E0.3604
G1 X-28.403 Y3.611 E0.3694
G1 X-28.991 Y4.199 E0.3825
G1 X-28.993 Y4.767 E0.3915
G1 X-28.405 Y4.179 E0.4046
G1 X-28.407 Y4.746 E0.4136
G1 X-28.794 Y5.134 E0.4222
G92 E0
G1 E-8.0000 F3000
; outer perimeter
G1 X27.819 Y5.771 F2400
G1 E0.0000 F3000
G92 E0
G1 X28.048 Y-7.147 E0.2041 F884
G1 X30.673 Y-7.108 E0.2456
G1 X30.444 Y5.829 E0.4500
G1 X27.819 Y5.771 E0.4915
; inner perimeter
G1 X28.226 Y5.380 F2400
G92 E0
G1 X28.441 Y-6.741 E0.1915 F884
G1 X30.266 Y-6.714 E0.2204
G1 X30.052 Y5.420 E0.4121
G1 X28.226 Y5.380 E0.4409
G1 X28.633 Y4.989 F2400
G92 E0
G1 X28.833 Y-6.335 E0.1789 F884
G1 X29.859 Y-6.320 E0.1951
G1 X29.659 Y5.011 E0.3742
G1 X28.633 Y4.989 E0.3904
; solid layer
G1 X29.257 Y4.783 F2400
G92 E0
G1 X29.446 Y4.594 E0.0042 F884
G1 X29.456 Y4.018 E0.0133
G1 X28.860 Y4.614 E0.0266
G1 X28.870 Y4.038 E0.0357
G1 X29.466 Y3.442 E0.0491
G1 X29.477 Y2.866 E0.0582
G1 X28.880 Y3.463 E0.0715
G1 X28.890 Y2.887 E0.0806
G1 X29.487 Y2.290 E0.0939
G1 X29.497 Y1.714 E0.1030
G1 X28.901 Y2.311 E0.1164
G1 X28.911 Y1.735 E0.1255
G1 X29.507 Y1.138 E0.1388
G1 X29.517 Y0.563 E0.1479
G1 X28.921 Y1.159 E0.1612
G1 X28.931 Y0.583 E0.1703
G1 X29.528 Y-0.013 E0.1836
G1 X29.538 Y-0.589 E0.1927
G1 X28.941 Y0.007 E0.2061
G1 X28.951 Y-0.569 E0.2152
G1 X29.548 Y-1.165 E0.2285
G1 X29.558 Y-1.741 E0.2376
G1 X28.962 Y-1.144 E0.2509
G1 X28.972 Y-1.720 E0.2600
G1 X29.568 Y-2.317 E0.2734
G1 X29.579 Y-2.893 E0.2825
G1 X28.982 Y-2.296 E0.2958
G1 X28.992 Y-2.872 E0.3049
G1 X29.589 Y-3.469 E0.3182
G1 X29.599 Y-4.044 E0.3273
G1 X29.002 Y-3.448 E0.3406
G1 X29.013 Y-4.024 E0.3497
G1 X29.609 Y-4.620 E0.3631
G1 X29.619 Y-5.196 E0.3722
G1 X29.023 Y-4.600 E0.3855
G1 X29.033 Y-5.176 E0.3946
G1 X29.629 Y-5.772 E0.4079
G1 X29.635 Y-6.103 E0.4132
G1 X29.398 Y-6.107 E0.4169
G1 X29.043 Y-5.751 E0.4248
G92 E0
G1 E-8.0000 F3000
; layer 3, Z = 0.300
M106 S255
; outer perimeter
G1 X28.049 Y-7.183 F2400
G1 Z0.550 F1002
G1 E0.0000 F3000
G92 E0
G1 X30.675 Y-7.144 E0.0415 F1171
G1 X30.444 Y5.884 E0.2473
G1 X27.819 Y5.826 E0.2888
G1 X28.049 Y-7.183 E0.4944
; inner perimeter
G1 X28.442 Y-6.777 F2400
G92 E0
G1 X30.268 Y-6.750 E0.0288 F1171
G1 X30.051 Y5.475 E0.2220
G1 X28.226 Y5.435 E0.2509
G1 X28.442 Y-6.777 E0.4438
G1 X28.835 Y-6.371 F2400
G92 E0
G1 X29.861 Y-6.356 E0.0162 F1171
G1 X29.659 Y5.066 E0.1967
G1 X28.633 Y5.044 E0.2129
G1 X28.835 Y-6.371 E0.3933
; solid layer
G1 X29.067 Y-6.148 F2400
G92 E0
G1 X29.627 Y-5.588 E0.0125 F1171
G1 X29.617 Y-5.032 E0.0213
G1 X29.041 Y-5.608 E0.0342
